; generated by PrusaSlicer 2.7.1 on 2024-02-21 at 23:35:44 UTC

; 

; external perimeters extrusion width = 0.42mm
; perimeters extrusion width = 0.44mm
; infill extrusion width = 0.44mm
; solid infill extrusion width = 0.44mm
; top infill extrusion width = 0.40mm
; first layer extrusion width = 0.42mm



; Pre-Processed for Cancel-Object support by preprocess_cancellation v0.2.0
; 1 known objects
EXCLUDE_OBJECT_DEFINE NAME=18650_X1_stl_id_0_copy_0 CENTER=109.488,121.831 POLYGON=[[98.96,72.11],[98.96,147.89],[121.04,147.89],[121.04,72.11]]
M201 X500 Y500 Z100 E5000 ; sets maximum accelerations, mm/sec^2
M203 X500 Y500 Z10 E60 ; sets maximum feedrates, mm / sec
M204 S500 T1000 ; sets acceleration (S) and retract acceleration (R), mm/sec^2
M205 X8.00 Y8.00 Z0.40 E5.00 ; sets the jerk limits, mm/sec
M205 S0 T0 ; sets the minimum extruding and travel feed rate, mm/sec

; printing object 18650_X1.stl id:0 copy 0
EXCLUDE_OBJECT_START NAME=18650_X1_stl_id_0_copy_0
; stop printing object 18650_X1.stl id:0 copy 0
EXCLUDE_OBJECT_END NAME=18650_X1_stl_id_0_copy_0

;TYPE:Custom
G90 ; use absolute coordinates
M83 ; extruder relative mode
M104 S150 ; set temporary nozzle temp to prevent oozing during homing
M140 S60 ; set final bed temp
G4 S30 ; allow partial nozzle warmup
G28 ; home all axis and restore leveling
G1 Z50 F240
G1 X2.0 Y10 F3000
M104 S210 ; set final nozzle temp
M190 S60 ; wait for bed temp to stabilize
M109 S210 ; wait for nozzle temp to stabilize
G1 Z0.28 F240
G92 E0
G1 X2.0 Y140 E10 F1500 ; prime the nozzle
G1 X2.3 Y140 F5000
G92 E0
G1 X2.3 Y10 E10 F1200 ; prime the nozzle
G92 E0
G21 ; set units to millimeters
G90 ; use absolute coordinates
M83 ; use relative distances for extrusion
; Filament gcode
M107
;LAYER_CHANGE
;Z:0.2
;HEIGHT:0.2
;BEFORE_LAYER_CHANGE
G92 E0
;0.2


G1 E-.8 F1800
G1 Z.2 F9000
;AFTER_LAYER_CHANGE
;0.2
G1 X96.588 Y70.499
G1 Z.2
G1 E.8 F1800
M204 S500
;TYPE:Skirt/Brim
;WIDTH:0.42
G1 F1200
G1 X97.184 Y69.876 E.02703
G1 X97.725 Y69.455 E.02149
G1 X98.445 Y69.045 E.02598
G1 X99.261 Y68.736 E.02736
G1 X99.895 Y68.594 E.02037
G1 X100.745 Y68.523 E.02674
G1 X119.25 Y68.523 E.58021
G1 X120.105 Y68.594 E.0269
G1 X121.11 Y68.855 E.03256
G1 X121.933 Y69.243 E.02853
G1 X122.816 Y69.876 E.03406
G1 X123.549 Y70.674 E.03397
G1 X124.035 Y71.448 E.02866
G1 X124.414 Y72.411 E.03245
G1 X124.608 Y73.472 E.03382
G1 X124.627 Y146.1 E2.2772
G1 X124.486 Y147.321 E.03854
G1 X124.295 Y147.96 E.02091
G1 X123.907 Y148.783 E.02853
G1 X123.412 Y149.501 E.02734
G1 X122.816 Y150.124 E.02703
G1 X122.275 Y150.545 E.02149
G1 X121.555 Y150.955 E.02598
G1 X120.739 Y151.264 E.02736
G1 X120.105 Y151.406 E.02037
G1 X119.255 Y151.477 E.02674
G1 X100.75 Y151.477 E.58021
G1 X99.528 Y151.336 E.03857
G1 X98.648 Y151.047 E.02904
G1 X97.876 Y150.642 E.02733
G1 X97.184 Y150.124 E.0271
G1 X96.588 Y149.501 E.02703
G1 X96.093 Y148.783 E.02734
G1 X95.705 Y147.96 E.02853
G1 X95.484 Y147.175 E.02557
G1 X95.379 Y146.309 E.02735
G1 X95.373 Y73.9 E2.27033
G1 X95.514 Y72.679 E.03854
G1 X95.705 Y72.04 E.02091
G1 X96.093 Y71.217 E.02853
G1 X96.554 Y70.548 E.02547
; printing object 18650_X1.stl id:0 copy 0
EXCLUDE_OBJECT_START NAME=18650_X1_stl_id_0_copy_0
;WIPE_START
G1 F7200
G1 X96.588 Y70.499 E-.01416
G1 X97.184 Y69.876 E-.20477
G1 X97.725 Y69.455 E-.16281
G1 X98.445 Y69.045 E-.19678
G1 X99.261 Y68.736 E-.20723
G1 X99.32 Y68.723 E-.01425
;WIPE_END
G1 X117.876 Y138.036 F9000
G1 E.8 F1800
;TYPE:Perimeter
;WIDTH:0.419999
G1 F1200
G1 X100.629 Y138.036 E.54077
G1 X100.063 Y138.224 E.0187
G1 X99.814 Y138.722 E.01746
G1 X99.814 Y74.024 E2.02856
G1 X99.829 Y73.838 E.00585
G1 X99.928 Y73.468 E.01201
G1 X100.139 Y73.21 E.01045
G1 X100.421 Y73.032 E.01046
G1 X100.782 Y72.964 E.01152
G1 X119.127 Y72.964 E.57519
G1 X119.312 Y72.979 E.00582
G1 X119.682 Y73.078 E.01201
G1 X119.94 Y73.289 E.01045
G1 X120.118 Y73.571 E.01046
G1 X120.186 Y73.961 E.01241
G1 X120.186 Y138.722 E2.03053
G1 X119.937 Y138.224 E.01746
G1 X119.371 Y138.036 E.0187
G1 X117.936 Y138.036 E.04499
;WIPE_START
G1 F7200
G1 X117.876 Y138.036 E-.01425
G1 X114.567 Y138.036 E-.78575
;WIPE_END
G1 X120.501 Y139.634 F9000
G1 E.8 F1800
;WIDTH:0.544385
G1 F1200
G1 X120.501 Y145.608 E.2491
;WIDTH:0.551952
G1 X120.507 Y145.959 E.01486
;WIDTH:0.51042
G1 X120.516 Y146.148 E.00736
;WIDTH:0.468888
G1 X120.526 Y146.337 E.0067
;WIDTH:0.427355
G1 X120.442 Y146.62 E.00944
;WIDTH:0.419999
G1 X120.266 Y146.914 E.01074
G1 X120.031 Y147.144 E.01031
G1 X119.757 Y147.301 E.0099
G1 X119.343 Y147.406 E.01339
;WIDTH:0.46146
G1 X119.148 Y147.388 E.00682
;WIDTH:0.502921
G1 X118.952 Y147.369 E.00753
;WIDTH:0.544385
G1 X118.757 Y147.351 E.00817
G1 X103.243 Y147.351 E.64689
;WIDTH:0.568626
G1 X102.888 Y147.339 E.01553
G1 X102.756 Y147.363 E.00586
;WIDTH:0.519084
G1 X102.624 Y147.388 E.00532
;WIDTH:0.469542
G1 X102.491 Y147.413 E.0048
;WIDTH:0.419999
G1 X102.177 Y147.413 E.00985
;WIDTH:0.448191
G1 X101.907 Y147.399 E.00911
;WIDTH:0.476383
G1 X101.637 Y147.385 E.00974
;WIDTH:0.513272
G1 X101.375 Y147.366 E.01027
;WIDTH:0.550161
G1 X101.113 Y147.348 E.01108
G1 X100.903 Y147.357 E.00887
;WIDTH:0.506774
G1 X100.693 Y147.367 E.00811
;WIDTH:0.463387
G1 X100.483 Y147.376 E.00735
;WIDTH:0.419999
G1 X100.241 Y147.296 E.00799
G1 X99.924 Y147.108 E.01156
G1 X99.742 Y146.921 E.00818
G1 X99.549 Y146.608 E.01153
;WIDTH:0.452255
G1 X99.513 Y146.407 E.00695
;WIDTH:0.484511
G1 X99.477 Y146.206 E.0075
;WIDTH:0.514441
G1 X99.488 Y145.906 E.01177
;WIDTH:0.544371
G1 X99.499 Y138.978 E.28887
G1 X99.479 Y138.686 E.0122
;WIDTH:0.502914
G1 X99.458 Y138.393 E.01124
;WIDTH:0.461457
G1 X99.437 Y138.1 E.01022
;WIDTH:0.419999
G1 X99.437 Y74.024 E2.00905
G1 X99.479 Y73.587 E.01376
G1 X99.591 Y73.292 E.00989
G1 X99.77 Y73.032 E.0099
G1 X100.007 Y72.823 E.00991
G1 X100.286 Y72.677 E.00987
G1 X100.771 Y72.587 E.01547
G1 X119.127 Y72.587 E.57554
G1 X119.3 Y72.598 E.00544
G1 X119.711 Y72.685 E.01317
G1 X119.988 Y72.831 E.00982
G1 X120.222 Y73.039 E.00982
G1 X120.4 Y73.296 E.0098
G1 X120.511 Y73.589 E.00982
G1 X120.563 Y73.961 E.01178
G1 X120.563 Y138.1 E2.01103
;WIDTH:0.46146
G1 X120.542 Y138.393 E.01022
;WIDTH:0.502921
G1 X120.521 Y138.686 E.01124
;WIDTH:0.544385
G1 X120.501 Y138.978 E.0122
G1 X120.501 Y139.574 E.02485
;WIPE_START
G1 F7200
G1 X120.501 Y139.634 E-.01425
G1 X120.501 Y142.942 E-.78575
;WIPE_END
G1 X120.795 Y146.753 F9000
G1 E.8 F1800
;TYPE:External perimeter
;WIDTH:0.419999
G1 F1200
G1 X120.568 Y147.141 E.01409
G1 X120.209 Y147.49 E.0157
G1 X119.758 Y147.701 E.01561
G1 X119.241 Y147.79 E.01645
G1 X101.113 Y147.79 E.56839
G1 X100.491 Y147.757 E.01953
G1 X100.107 Y147.649 E.01251
G1 X99.709 Y147.418 E.01443
G1 X99.36 Y147.059 E.0157
G1 X99.149 Y146.606 E.01567
G1 X99.06 Y146.092 E.01636
G1 X99.06 Y74.024 E2.25964
G1 X99.086 Y73.699 E.01022
G1 X99.183 Y73.305 E.01272
G1 X99.37 Y72.948 E.01264
G1 X99.638 Y72.646 E.01266
G1 X99.971 Y72.416 E.01269
G1 X100.349 Y72.273 E.01267
G1 X100.759 Y72.21 E.01301
G1 X119.127 Y72.21 E.57591
G1 X119.452 Y72.236 E.01022
G1 X119.845 Y72.333 E.01269
G1 X120.202 Y72.521 E.01265
G1 X120.505 Y72.789 E.01268
G1 X120.734 Y73.121 E.01265
G1 X120.877 Y73.499 E.01267
G1 X120.94 Y73.961 E.01462
G1 X120.94 Y145.771 E2.25155
G1 X120.904 Y146.383 E.01922
G1 X120.812 Y146.696 E.01023
;WIPE_START
G1 F7200
G1 X120.795 Y146.753 E-.01413
G1 X120.568 Y147.141 E-.10676
G1 X120.209 Y147.49 E-.11891
G1 X119.758 Y147.701 E-.11826
G1 X119.241 Y147.79 E-.12459
G1 X117.905 Y147.79 E-.31735
;WIPE_END
G1 X117.002 Y146.849 F9000
G1 E.8 F1800
;TYPE:Perimeter
;WIDTH:0.544385
G1 F1200
G1 X103.243 Y146.849 E.57371
;WIDTH:0.568626
G1 X102.934 Y146.817 E.01358
G1 X102.776 Y146.702 E.00854
;WIDTH:0.519084
G1 X102.618 Y146.587 E.00774
;WIDTH:0.469542
G1 X102.46 Y146.473 E.00691
;WIDTH:0.419999
G1 X102.229 Y146.264 E.00977
G1 X101.943 Y146.558 E.01286
;WIDTH:0.448191
G1 X101.761 Y146.662 E.00706
;WIDTH:0.476383
G1 X101.579 Y146.765 E.00754
;WIDTH:0.510325
G1 X101.418 Y146.807 E.00647
;WIDTH:0.544267
G1 X101.257 Y146.849 E.00694
;WIDTH:0.56531
G1 X100.971 Y146.821 E.01248
G1 X100.825 Y146.73 E.00747
;WIDTH:0.516873
G1 X100.68 Y146.638 E.00677
;WIDTH:0.468436
G1 X100.535 Y146.547 E.00606
;WIDTH:0.419999
G1 X100.24 Y146.187 E.01459
;WIDTH:0.46955
G1 X100.171 Y146.097 E.00402
;WIDTH:0.519101
G1 X100.102 Y146.007 E.00449
;WIDTH:0.568651
G1 X100.033 Y145.917 E.00496
G1 X100.001 Y145.607 E.01362
;WIDTH:0.544371
G1 X100.001 Y138.978 E.2764
G1 X100.097 Y138.828 E.00743
;WIDTH:0.502914
G1 X100.193 Y138.677 E.00684
;WIDTH:0.461457
G1 X100.289 Y138.526 E.00623
;WIDTH:0.419999
G1 X100.629 Y138.413 E.01123
G1 X119.371 Y138.413 E.58764
G1 X119.711 Y138.526 E.01123
;WIDTH:0.46146
G1 X119.807 Y138.677 E.00623
;WIDTH:0.502921
G1 X119.903 Y138.828 E.00684
;WIDTH:0.544381
G1 X119.999 Y138.978 E.00743
G1 X119.999 Y145.608 E.27645
G1 X119.933 Y145.97 E.01534
;WIDTH:0.52834
G1 X119.833 Y146.11 E.00694
;WIDTH:0.492227
G1 X119.733 Y146.251 E.00646
;WIDTH:0.456113
G1 X119.634 Y146.391 E.00589
;WIDTH:0.419999
G1 X119.365 Y146.615 E.01098
;WIDTH:0.463679
G1 X119.199 Y146.691 E.00639
;WIDTH:0.507359
G1 X119.033 Y146.767 E.00705
;WIDTH:0.551038
G1 X118.866 Y146.843 E.00775
G1 X118.757 Y146.849 E.00461
;WIDTH:0.544385
G1 X117.062 Y146.849 E.07068
;WIPE_START
G1 F7200
G1 X117.002 Y146.849 E-.01425
G1 X113.693 Y146.849 E-.78575
;WIPE_END
G1 X117.469 Y143.05 F9000
G1 E.8 F1800
;TYPE:External perimeter
;WIDTH:0.508864
G1 F1200
G1 X117.274 Y143.272 E.01145
G1 X117.14 Y143.326 E.0056
;WIDTH:0.476831
G1 X117.006 Y143.379 E.0052
;WIDTH:0.444798
G1 X116.757 Y143.411 E.00839
;WIDTH:0.425494
G1 X103.148 Y143.413 E.43292
;WIDTH:0.460341
G1 X102.898 Y143.435 E.00871
;WIDTH:0.495188
G1 X102.647 Y143.458 E.00948
;WIDTH:0.521409
G1 X102.4 Y143.577 E.01091
G1 X102.242 Y143.728 E.0087
;WIDTH:0.521257
G1 X102.141 Y143.922 E.0087
;WIDTH:0.511312
G1 X102.107 Y144.114 E.00759
;WIDTH:0.478007
G1 X102.072 Y144.307 E.0071
;WIDTH:0.444702
G1 X102.061 Y144.596 E.00966
;WIDTH:0.426162
G1 X102.063 Y145.607 E.03222
G1 X101.938 Y146.024 E.01387
;WIDTH:0.419999
G1 X101.751 Y146.234 E.00882
G1 X101.504 Y146.367 E.0088
G1 X101.226 Y146.408 E.00881
G1 X101.044 Y146.378 E.00578
G1 X100.722 Y146.213 E.01134
G1 X100.478 Y145.839 E.014
G1 X100.44 Y145.607 E.00737
G1 X100.44 Y138.978 E.20785
G1 X100.515 Y138.828 E.00526
G1 X100.629 Y138.79 E.00377
G1 X119.371 Y138.79 E.58764
G1 X119.485 Y138.828 E.00377
G1 X119.56 Y138.978 E.00526
G1 X119.56 Y145.608 E.20788
G1 X119.481 Y145.938 E.01064
G1 X119.353 Y146.137 E.00742
G1 X119.118 Y146.316 E.00926
G1 X118.757 Y146.41 E.0117
G1 X103.243 Y146.41 E.48643
G1 X102.938 Y146.342 E.0098
G1 X102.609 Y146.087 E.01305
;WIDTH:0.4282
G1 X102.446 Y145.705 E.01331
G1 X102.446 Y145.605 E.0032
;WIDTH:0.426162
G1 X102.439 Y144.592 E.03228
;WIDTH:0.449179
G1 X102.466 Y144.422 E.00581
;WIDTH:0.476901
G1 X102.492 Y144.252 E.00621
;WIDTH:0.520841
G1 X102.627 Y144.01 E.01101
G1 X102.874 Y143.855 E.01159
;WIDTH:0.473451
G1 X103.149 Y143.795 E.01008
;WIDTH:0.425494
G1 X116.758 Y143.789 E.43292
;WIDTH:0.460636
G1 X117.04 Y143.766 E.00983
;WIDTH:0.499671
G1 X117.323 Y143.743 E.01078
;WIDTH:0.516706
G1 X117.612 Y143.616 E.01244
G1 X117.83 Y143.355 E.0134
;WIDTH:0.512771
G1 X117.913 Y143.048 E.01242
;WIDTH:0.473451
G1 X117.937 Y142.704 E.01234
;WIDTH:0.42551
G1 X117.939 Y141.593 E.03534
;WIDTH:0.458207
G1 X117.917 Y141.31 E.0098
;WIDTH:0.494961
G1 X117.895 Y141.026 E.01071
;WIDTH:0.524365
G1 X117.772 Y140.751 E.01206
G1 X117.505 Y140.52 E.01413
;WIDTH:0.514035
G1 X117.197 Y140.437 E.0125
;WIDTH:0.473329
G1 X116.852 Y140.413 E.01238
;WIDTH:0.425496
G1 X102.32 Y140.411 E.46228
;WIDTH:0.421428
G1 X102.166 Y140.454 E.00503
G1 X102.079 Y140.562 E.00436
G1 X102.106 Y140.713 E.00483
G1 X102.32 Y140.789 E.00715
;WIDTH:0.425496
G1 X116.852 Y140.795 E.46228
;WIDTH:0.469766
G1 X117.037 Y140.844 E.00679
;WIDTH:0.514035
G1 X117.222 Y140.893 E.0075
G1 X117.477 Y141.164 E.01458
;WIDTH:0.494961
G1 X117.519 Y141.379 E.00823
;WIDTH:0.45821
G1 X117.561 Y141.594 E.00756
;WIDTH:0.42551
G1 X117.555 Y142.703 E.03528
;WIDTH:0.463275
G1 X117.512 Y142.876 E.00623
;WIDTH:0.501039
G1 X117.483 Y142.992 E.00455
;WIPE_START
G1 F7200
G1 X117.469 Y143.05 E-.01417
G1 X117.274 Y143.272 E-.07018
G1 X117.14 Y143.326 E-.03431
;WIPE_END
G1 E-.68134 F1800
G1 X100.53 Y146.991 F9000
G1 E.8 F1800
;TYPE:Perimeter
;WIDTH:0.467021
G1 F1200
G1 X100.344 Y146.879 E.00766
;WIDTH:0.492828
G1 X100.158 Y146.768 E.0081
G1 X99.908 Y146.419 E.01606
;WIPE_START
G1 F7200
G1 X100.158 Y146.768 E-.10196
G1 X100.344 Y146.879 E-.05144
;WIPE_END
G1 E-.6466 F1800
G1 X102.302 Y146.863 F9000
G1 E.8 F1800
;WIDTH:0.636768
G1 F1200
G1 X102.228 Y146.863 E.00365
G1 X102.191 Y146.927 E.00365
G1 X102.228 Y146.992 E.00369
G1 X102.302 Y146.992 E.00365
G1 X102.34 Y146.927 E.00372
;WIPE_START
G1 F7200
G1 X102.302 Y146.992 E-.01788
G1 X102.228 Y146.992 E-.01757
G1 X102.191 Y146.927 E-.01776
G1 X102.228 Y146.863 E-.01756
G1 X102.302 Y146.863 E-.01757
;WIPE_END
G1 E-.71166 F1800
G1 X120.142 Y146.32 F9000
G1 E.8 F1800
;WIDTH:0.465994
G1 F1200
G1 X120.03 Y146.506 E.00764
;WIDTH:0.4926
G1 X119.918 Y146.692 E.00812
G1 X119.573 Y146.951 E.01613
;WIPE_START
G1 F7200
G1 X119.918 Y146.692 E-.10246
G1 X120.03 Y146.506 E-.05157
;WIPE_END
G1 E-.64597 F1800
G1 X120.052 Y73.804 F9000
G1 E.8 F1800
;TYPE:Solid infill
;WIDTH:0.422324
G1 F1200
G1 X119.671 Y73.423 E.017
G1 X119.546 Y73.337 E.00479
G1 X119.402 Y73.282 E.00486
G1 X119.173 Y73.255 E.00727
G1 X118.966 Y73.255 E.00653
G1 X119.89 Y74.179 E.04122
G1 X119.89 Y74.715 E.01691
G1 X118.429 Y73.255 E.06516
G1 X117.893 Y73.255 E.01691
G1 X119.89 Y75.252 E.0891
G1 X119.89 Y75.788 E.01691
G1 X117.356 Y73.255 E.11303
G1 X116.82 Y73.255 E.01691
G1 X119.89 Y76.325 E.13697
G1 X119.89 Y76.862 E.01694
G1 X116.283 Y73.255 E.16093
G1 X115.747 Y73.255 E.01691
G1 X119.89 Y77.398 E.18484
G1 X119.89 Y77.935 E.01694
G1 X115.21 Y73.255 E.2088
G1 X114.673 Y73.255 E.01694
G1 X119.89 Y78.471 E.23273
G1 X119.89 Y79.008 E.01694
G1 X114.137 Y73.255 E.25667
G1 X113.6 Y73.255 E.01694
G1 X119.89 Y79.545 E.28063
G1 X119.89 Y80.081 E.01691
G1 X113.064 Y73.255 E.30454
G1 X112.527 Y73.255 E.01694
G1 X119.89 Y80.618 E.3285
G1 X119.891 Y81.154 E.01691
G1 X111.991 Y73.255 E.35244
G1 X111.454 Y73.255 E.01694
G1 X119.891 Y81.691 E.37639
G1 X119.891 Y82.228 E.01694
G1 X110.918 Y73.255 E.40033
G1 X110.381 Y73.255 E.01694
G1 X119.891 Y82.764 E.42427
G1 X119.891 Y83.301 E.01694
G1 X109.844 Y73.255 E.44822
G1 X109.308 Y73.255 E.01691
G1 X119.891 Y83.837 E.47214
G1 X119.891 Y84.374 E.01694
G1 X108.771 Y73.255 E.4961
G1 X108.235 Y73.255 E.01691
G1 X119.891 Y84.911 E.52003
G1 X119.891 Y85.447 E.01691
G1 X107.698 Y73.255 E.54397
G1 X107.162 Y73.255 E.01691
G1 X119.891 Y85.984 E.5679
G1 X119.891 Y86.52 E.01691
G1 X106.625 Y73.255 E.59184
G1 X106.089 Y73.255 E.01691
G1 X119.891 Y87.057 E.61578
G1 X119.891 Y87.594 E.01694
G1 X105.552 Y73.255 E.63973
G1 X105.015 Y73.255 E.01694
G1 X119.891 Y88.13 E.66367
G1 X119.891 Y88.667 E.01694
G1 X104.479 Y73.255 E.68761
G1 X103.942 Y73.255 E.01694
G1 X119.891 Y89.204 E.71156
G1 X119.891 Y89.74 E.01691
G1 X103.406 Y73.255 E.73548
G1 X102.869 Y73.255 E.01694
G1 X119.891 Y90.277 E.75944
G1 X119.891 Y90.813 E.01691
G1 X102.333 Y73.255 E.78335
G1 X101.796 Y73.255 E.01694
G1 X119.891 Y91.35 E.80731
G1 X119.891 Y91.887 E.01694
G1 X101.259 Y73.255 E.83127
G1 X100.735 Y73.266 E.01653
G1 X119.891 Y92.423 E.85467
G1 X119.892 Y92.96 E.01694
G1 X100.346 Y73.414 E.87204
G1 X100.274 Y73.478 E.00304
G1 X100.187 Y73.604 E.00483
G1 X100.135 Y73.74 E.00459
G1 X119.892 Y93.496 E.88144
G1 X119.892 Y94.033 E.01694
G1 X100.105 Y74.246 E.8828
G1 X100.105 Y74.782 E.01691
G1 X119.892 Y94.57 E.88282
G1 X119.892 Y95.106 E.01691
G1 X100.105 Y75.319 E.8828
G1 X100.105 Y75.856 E.01694
G1 X119.892 Y95.643 E.8828
G1 X119.892 Y96.179 E.01691
G1 X100.105 Y76.392 E.8828
G1 X100.105 Y76.929 E.01694
G1 X119.892 Y96.716 E.8828
G1 X119.892 Y97.253 E.01694
G1 X100.105 Y77.465 E.88282
G1 X100.105 Y78.002 E.01694
G1 X119.892 Y97.789 E.8828
G1 X119.892 Y98.326 E.01694
G1 X100.105 Y78.538 E.88282
G1 X100.105 Y79.075 E.01694
G1 X119.892 Y98.862 E.8828
G1 X119.892 Y99.399 E.01694
