; generated by PrusaSlicer 2.7.1 on 2024-02-16 at 22:17:07 UTC

; 

; external perimeters extrusion width = 0.42mm
; perimeters extrusion width = 0.44mm
; infill extrusion width = 0.44mm
; solid infill extrusion width = 0.44mm
; top infill extrusion width = 0.40mm
; first layer extrusion width = 0.42mm


; printing object Shape-Box id:0 copy 0
; stop printing object Shape-Box id:0 copy 0

;TYPE:Custom


; Pre-Processed for Cancel-Object support by preprocess_cancellation v0.2.0
; 1 known objects
EXCLUDE_OBJECT_DEFINE NAME=Shape_Box_id_0_copy_0 CENTER=110.066,109.989 POLYGON=[[12.489,7.166],[12.489,212.834],[207.511,212.834],[207.511,7.166]]
G90 ; use absolute coordinates
M83 ; extruder relative mode
M104 S150 ; set temporary nozzle temp to prevent oozing during homing
M140 S60 ; set final bed temp
G4 S30 ; allow partial nozzle warmup
G28 ; home all axis and restore leveling
M109 S0
M190 S0
start_print EXTRUDER_TEMP=210 BED_TEMP=60
G1 Z50 F240
G1 X2.0 Y10 F3000
M104 S210 ; set final nozzle temp
M190 S60 ; wait for bed temp to stabilize
M109 S210 ; wait for nozzle temp to stabilize
G1 Z0.28 F240
G92 E0
G1 X2.0 Y140 E10 F1500 ; prime the nozzle
G1 X2.3 Y140 F5000
G92 E0
G1 X2.3 Y10 E10 F1200 ; prime the nozzle
G92 E0
G21 ; set units to millimeters
G90 ; use absolute coordinates
M83 ; use relative distances for extrusion
; Filament gcode
M107
;LAYER_CHANGE
;Z:0.2
;HEIGHT:0.2
;BEFORE_LAYER_CHANGE
G92 E0
;0.2


G1 E-.8 F1800
G1 Z.2 F9000
;AFTER_LAYER_CHANGE
;0.2
G1 X9.196 Y5.273
G1 Z.2
G1 E.8 F1800
M204 S500
;TYPE:Skirt/Brim
;WIDTH:0.42
G1 F1200
G1 X10.287 Y4.06 E.05115
G1 X12.179 Y3.479 E.06206
G1 X207.821 Y3.479 E6.13422
G1 X209.404 Y3.873 E.05115
G1 X210.617 Y4.964 E.05115
G1 X211.198 Y6.856 E.06206
G1 X211.198 Y213.144 E6.46802
G1 X210.804 Y214.727 E.05115
G1 X209.713 Y215.94 E.05115
G1 X207.821 Y216.521 E.06206
G1 X12.179 Y216.521 E6.13422
G1 X10.596 Y216.127 E.05115
G1 X9.383 Y215.036 E.05115
G1 X8.802 Y213.144 E.06206
G1 X8.802 Y6.856 E6.46802
G1 X9.182 Y5.331 E.04928
; printing object Shape-Box id:0 copy 0
EXCLUDE_OBJECT_START NAME=Shape_Box_id_0_copy_0
;WIPE_START
G1 F7200
G1 X9.196 Y5.273 E-.01417
G1 X10.287 Y4.06 E-.38747
G1 X11.891 Y3.568 E-.39836
;WIPE_END
G1 X13.244 Y7.921 F9000
G1 E.8 F1800
;TYPE:Perimeter
;WIDTH:0.419999
G1 F1200
G1 X206.756 Y7.921 E6.06742
G1 X206.756 Y104.677 E3.03371
G1 X206.756 Y212.079 E3.36751
G1 X13.244 Y212.079 E6.06742
G1 X13.244 Y7.981 E6.39934
G1 X12.866 Y7.544 F9000
G1 F1200
G1 X207.134 Y7.544 E6.09113
G1 X207.134 Y104.677 E3.04553
G1 X207.134 Y212.456 E3.37933
G1 X12.866 Y212.456 E6.09113
G1 X12.866 Y7.604 E6.42298
G1 X12.489 Y7.166 F9000
;TYPE:External perimeter
G1 F1200
G1 X207.511 Y7.166 E6.11477
G1 X207.511 Y104.677 E3.05738
G1 X207.511 Y212.834 E3.39118
G1 X12.489 Y212.834 E6.11477
G1 X12.489 Y7.226 E6.44668
;WIPE_START
G1 F7200
G1 X12.489 Y7.166 E-.01425
G1 X15.797 Y7.166 E-.78575
;WIPE_END
G1 X206.636 Y8.805 F9000
G1 E.8 F1800
;TYPE:Solid infill
;WIDTH:0.420485
G1 F1200
G1 X206.042 Y8.211 E.02637
G1 X205.508 Y8.211 E.01676
G1 X206.466 Y9.169 E.04253
G1 X206.466 Y9.703 E.01676
G1 X204.974 Y8.211 E.06624
G1 X204.44 Y8.211 E.01676
G1 X206.466 Y10.237 E.08995
G1 X206.466 Y10.771 E.01676
G1 X203.906 Y8.211 E.11366
G1 X203.372 Y8.211 E.01676
G1 X206.466 Y11.305 E.13737
G1 X206.466 Y11.839 E.01676
G1 X202.838 Y8.211 E.16108
G1 X202.304 Y8.211 E.01676
G1 X206.466 Y12.373 E.18479
G1 X206.466 Y12.907 E.01676
G1 X201.771 Y8.211 E.20847
G1 X201.237 Y8.211 E.01676
G1 X206.466 Y13.44 E.23216
G1 X206.466 Y13.974 E.01676
G1 X200.703 Y8.211 E.25587
G1 X200.169 Y8.211 E.01676
G1 X206.466 Y14.508 E.27958
G1 X206.466 Y15.042 E.01676
G1 X199.635 Y8.211 E.30329
G1 X199.101 Y8.211 E.01676
G1 X206.466 Y15.576 E.327
G1 X206.466 Y16.11 E.01676
G1 X198.567 Y8.211 E.35071
G1 X198.033 Y8.211 E.01676
G1 X206.466 Y16.644 E.37441
G1 X206.466 Y17.178 E.01676
G1 X197.499 Y8.211 E.39812
G1 X196.965 Y8.211 E.01676
G1 X206.466 Y17.712 E.42183
G1 X206.466 Y18.246 E.01676
G1 X196.431 Y8.211 E.44554
G1 X195.897 Y8.211 E.01676
G1 X206.466 Y18.78 E.46925
G1 X206.466 Y19.314 E.01676
G1 X195.363 Y8.211 E.49296
G1 X194.829 Y8.211 E.01676
G1 X206.466 Y19.848 E.51667
G1 X206.466 Y20.382 E.01676
G1 X194.295 Y8.211 E.54038
G1 X193.761 Y8.211 E.01676
G1 X206.466 Y20.916 E.56409
G1 X206.466 Y21.45 E.01676
G1 X193.227 Y8.211 E.5878
G1 X192.693 Y8.211 E.01676
G1 X206.466 Y21.984 E.6115
G1 X206.466 Y22.518 E.01676
G1 X192.159 Y8.211 E.63521
G1 X191.625 Y8.211 E.01676
G1 X206.466 Y23.052 E.65892
G1 X206.466 Y23.586 E.01676
G1 X191.091 Y8.211 E.68263
G1 X190.557 Y8.211 E.01676
G1 X206.466 Y24.12 E.70634
G1 X206.466 Y24.654 E.01676
G1 X190.023 Y8.211 E.73005
G1 X189.489 Y8.211 E.01676
G1 X206.466 Y25.188 E.75376
G1 X206.466 Y25.722 E.01676
G1 X188.956 Y8.211 E.77744
G1 X188.422 Y8.211 E.01676
G1 X206.466 Y26.255 E.80113
G1 X206.466 Y26.789 E.01676
G1 X187.888 Y8.211 E.82484
G1 X187.354 Y8.211 E.01676
G1 X206.466 Y27.323 E.84855
G1 X206.466 Y27.857 E.01676
G1 X186.82 Y8.211 E.87226
G1 X186.286 Y8.211 E.01676
G1 X206.466 Y28.391 E.89597
G1 X206.466 Y28.925 E.01676
G1 X185.752 Y8.211 E.91968
G1 X185.218 Y8.211 E.01676
G1 X206.466 Y29.459 E.94338
G1 X206.466 Y29.993 E.01676
G1 X184.684 Y8.211 E.96709
G1 X184.15 Y8.211 E.01676
G1 X206.466 Y30.527 E.9908
G1 X206.466 Y31.061 E.01676
G1 X183.616 Y8.211 E1.01451
G1 X183.082 Y8.211 E.01676
G1 X206.466 Y31.595 E1.03822
G1 X206.466 Y32.129 E.01676
G1 X182.548 Y8.211 E1.06193
G1 X182.014 Y8.211 E.01676
G1 X206.466 Y32.663 E1.08564
G1 X206.466 Y33.197 E.01676
G1 X181.48 Y8.211 E1.10935
G1 X180.946 Y8.211 E.01676
G1 X206.466 Y33.731 E1.13306
G1 X206.466 Y34.265 E.01676
G1 X180.412 Y8.211 E1.15677
G1 X179.878 Y8.211 E.01676
G1 X206.466 Y34.799 E1.18047
G1 X206.466 Y35.333 E.01676
G1 X179.344 Y8.211 E1.20418
G1 X178.81 Y8.211 E.01676
G1 X206.466 Y35.867 E1.22789
G1 X206.466 Y36.401 E.01676
G1 X178.276 Y8.211 E1.2516
G1 X177.742 Y8.211 E.01676
G1 X206.466 Y36.935 E1.27531
G1 X206.466 Y37.469 E.01676
G1 X177.208 Y8.211 E1.29902
G1 X176.675 Y8.211 E.01673
G1 X206.466 Y38.003 E1.32271
G1 X206.466 Y38.536 E.01673
G1 X176.141 Y8.211 E1.34639
G1 X175.607 Y8.211 E.01676
G1 X206.466 Y39.07 E1.3701
G1 X206.466 Y39.604 E.01676
G1 X175.073 Y8.211 E1.39381
G1 X174.539 Y8.211 E.01676
G1 X206.466 Y40.138 E1.41752
G1 X206.466 Y40.672 E.01676
G1 X174.005 Y8.211 E1.44123
G1 X173.471 Y8.211 E.01676
G1 X206.466 Y41.206 E1.46494
G1 X206.466 Y41.74 E.01676
G1 X172.937 Y8.211 E1.48865
G1 X172.403 Y8.211 E.01676
G1 X206.466 Y42.274 E1.51235
G1 X206.466 Y42.808 E.01676
G1 X171.869 Y8.211 E1.53606
G1 X171.335 Y8.211 E.01676
G1 X206.466 Y43.342 E1.55977
G1 X206.466 Y43.876 E.01676
G1 X170.801 Y8.211 E1.58348
G1 X170.267 Y8.211 E.01676
G1 X206.466 Y44.41 E1.60719
G1 X206.466 Y44.944 E.01676
G1 X169.733 Y8.211 E1.6309
G1 X169.199 Y8.211 E.01676
G1 X206.466 Y45.478 E1.65461
G1 X206.466 Y46.012 E.01676
G1 X168.665 Y8.211 E1.67832
G1 X168.131 Y8.211 E.01676
G1 X206.466 Y46.546 E1.70203
G1 X206.466 Y47.08 E.01676
G1 X167.597 Y8.211 E1.72574
G1 X167.063 Y8.211 E.01676
G1 X206.466 Y47.614 E1.74944
G1 X206.466 Y48.148 E.01676
G1 X166.529 Y8.211 E1.77315
G1 X165.995 Y8.211 E.01676
G1 X206.466 Y48.682 E1.79686
G1 X206.466 Y49.216 E.01676
G1 X165.461 Y8.211 E1.82057
G1 X164.927 Y8.211 E.01676
G1 X206.466 Y49.75 E1.84428
G1 X206.466 Y50.284 E.01676
G1 X164.393 Y8.211 E1.86799
G1 X163.86 Y8.211 E.01673
G1 X206.466 Y50.818 E1.89168
G1 X206.466 Y51.351 E.01673
G1 X163.326 Y8.211 E1.91536
G1 X162.792 Y8.211 E.01676
G1 X206.466 Y51.885 E1.93907
G1 X206.466 Y52.419 E.01676
G1 X162.258 Y8.211 E1.96278
G1 X161.724 Y8.211 E.01676
G1 X206.466 Y52.953 E1.98649
G1 X206.466 Y53.487 E.01676
G1 X161.19 Y8.211 E2.0102
G1 X160.656 Y8.211 E.01676
G1 X206.466 Y54.021 E2.03391
G1 X206.466 Y54.555 E.01676
G1 X160.122 Y8.211 E2.05762
G1 X159.588 Y8.211 E.01676
G1 X206.466 Y55.089 E2.08132
G1 X206.466 Y55.623 E.01676
G1 X159.054 Y8.211 E2.10503
G1 X158.52 Y8.211 E.01676
G1 X206.466 Y56.157 E2.12874
G1 X206.466 Y56.691 E.01676
G1 X157.986 Y8.211 E2.15245
G1 X157.452 Y8.211 E.01676
G1 X206.466 Y57.225 E2.17616
G1 X206.466 Y57.759 E.01676
G1 X156.918 Y8.211 E2.19987
G1 X156.384 Y8.211 E.01676
G1 X206.466 Y58.293 E2.22358
G1 X206.466 Y58.827 E.01676
G1 X155.85 Y8.211 E2.24729
G1 X155.316 Y8.211 E.01676
G1 X206.466 Y59.361 E2.271
G1 X206.466 Y59.895 E.01676
G1 X154.782 Y8.211 E2.29471
G1 X154.248 Y8.211 E.01676
G1 X206.466 Y60.429 E2.31841
G1 X206.466 Y60.963 E.01676
G1 X153.714 Y8.211 E2.34212
G1 X153.18 Y8.211 E.01676
G1 X206.466 Y61.497 E2.36583
G1 X206.466 Y62.031 E.01676
G1 X152.646 Y8.211 E2.38954
G1 X152.112 Y8.211 E.01676
G1 X206.466 Y62.565 E2.41325
G1 X206.466 Y63.099 E.01676
G1 X151.579 Y8.211 E2.43694
G1 X151.045 Y8.211 E.01676
G1 X206.466 Y63.632 E2.46062
G1 X206.466 Y64.166 E.01676
G1 X150.511 Y8.211 E2.48433
G1 X149.977 Y8.211 E.01676
G1 X206.466 Y64.7 E2.50804
G1 X206.466 Y65.234 E.01676
G1 X149.443 Y8.211 E2.53175
G1 X148.909 Y8.211 E.01676
G1 X206.466 Y65.768 E2.55546
G1 X206.466 Y66.302 E.01676
G1 X148.375 Y8.211 E2.57917
G1 X147.841 Y8.211 E.01676
G1 X206.466 Y66.836 E2.60288
G1 X206.466 Y67.37 E.01676
G1 X147.307 Y8.211 E2.62659
G1 X146.773 Y8.211 E.01676
G1 X206.466 Y67.904 E2.65029
G1 X206.466 Y68.438 E.01676
G1 X146.239 Y8.211 E2.674
G1 X145.705 Y8.211 E.01676
G1 X206.466 Y68.972 E2.69771
G1 X206.466 Y69.506 E.01676
G1 X145.171 Y8.211 E2.72142
G1 X144.637 Y8.211 E.01676
G1 X206.466 Y70.04 E2.74513
G1 X206.466 Y70.574 E.01676
G1 X144.103 Y8.211 E2.76884
G1 X143.569 Y8.211 E.01676
G1 X206.466 Y71.108 E2.79255
G1 X206.466 Y71.642 E.01676
G1 X143.035 Y8.211 E2.81626
G1 X142.501 Y8.211 E.01676
G1 X206.466 Y72.176 E2.83997
G1 X206.466 Y72.71 E.01676
G1 X141.967 Y8.211 E2.86368
G1 X141.433 Y8.211 E.01676
G1 X206.466 Y73.244 E2.88738
G1 X206.466 Y73.778 E.01676
G1 X140.899 Y8.211 E2.91109
G1 X140.365 Y8.211 E.01676
G1 X206.466 Y74.312 E2.9348
G1 X206.466 Y74.846 E.01676
G1 X139.831 Y8.211 E2.95851
G1 X139.297 Y8.211 E.01676
G1 X206.466 Y75.38 E2.98222
G1 X206.466 Y75.914 E.01676
G1 X138.764 Y8.211 E3.00591
G1 X138.23 Y8.211 E.01676
G1 X206.466 Y76.447 E3.02959
G1 X206.466 Y76.981 E.01676
G1 X137.696 Y8.211 E3.0533
G1 X137.162 Y8.211 E.01676
G1 X206.466 Y77.515 E3.07701
G1 X206.466 Y78.049 E.01676
G1 X136.628 Y8.211 E3.10072
G1 X136.094 Y8.211 E.01676
G1 X206.466 Y78.583 E3.12443
G1 X206.466 Y79.117 E.01676
G1 X135.56 Y8.211 E3.14814
G1 X135.026 Y8.211 E.01676
G1 X206.466 Y79.651 E3.17185
G1 X206.466 Y80.185 E.01676
G1 X134.492 Y8.211 E3.19556
G1 X133.958 Y8.211 E.01676
G1 X206.466 Y80.719 E3.21926
G1 X206.466 Y81.253 E.01676
G1 X133.424 Y8.211 E3.24297
G1 X132.89 Y8.211 E.01676
G1 X206.466 Y81.787 E3.26668
G1 X206.466 Y82.321 E.01676
G1 X132.356 Y8.211 E3.29039
G1 X131.822 Y8.211 E.01676
G1 X206.466 Y82.855 E3.3141
G1 X206.466 Y83.389 E.01676
G1 X131.288 Y8.211 E3.33781
G1 X130.754 Y8.211 E.01676
G1 X206.466 Y83.923 E3.36152
G1 X206.466 Y84.457 E.01676
G1 X130.22 Y8.211 E3.38523
G1 X129.686 Y8.211 E.01676
G1 X206.466 Y84.991 E3.40894
G1 X206.466 Y85.525 E.01676
G1 X129.152 Y8.211 E3.43265
G1 X128.618 Y8.211 E.01676
G1 X206.466 Y86.059 E3.45635
G1 X206.466 Y86.593 E.01676
G1 X128.084 Y8.211 E3.48006
G1 X127.55 Y8.211 E.01676
G1 X206.466 Y87.127 E3.50377
G1 X206.466 Y87.661 E.01676
G1 X127.016 Y8.211 E3.52748
G1 X126.483 Y8.211 E.01673
G1 X206.466 Y88.195 E3.55117
G1 X206.466 Y88.728 E.01673
G1 X125.949 Y8.211 E3.57485
G1 X125.415 Y8.211 E.01676
G1 X206.466 Y89.262 E3.59856
G1 X206.466 Y89.796 E.01676
G1 X124.881 Y8.211 E3.62227
G1 X124.347 Y8.211 E.01676
G1 X206.466 Y90.33 E3.64598
G1 X206.466 Y90.864 E.01676
G1 X123.813 Y8.211 E3.66969
G1 X123.279 Y8.211 E.01676
G1 X206.466 Y91.398 E3.6934
G1 X206.466 Y91.932 E.01676
G1 X122.745 Y8.211 E3.71711
G1 X122.211 Y8.211 E.01676
G1 X206.466 Y92.466 E3.74082
G1 X206.466 Y93 E.01676
G1 X121.677 Y8.211 E3.76453
G1 X121.143 Y8.211 E.01676
G1 X206.466 Y93.534 E3.78823
G1 X206.466 Y94.068 E.01676
G1 X120.609 Y8.211 E3.81194
G1 X120.075 Y8.211 E.01676
G1 X206.466 Y94.602 E3.83565
G1 X206.466 Y95.136 E.01676
G1 X119.541 Y8.211 E3.85936
G1 X119.007 Y8.211 E.01676
G1 X206.466 Y95.67 E3.88307
G1 X206.466 Y96.204 E.01676
G1 X118.473 Y8.211 E3.90678
G1 X117.939 Y8.211 E.01676
G1 X206.466 Y96.738 E3.93049
G1 X206.466 Y97.272 E.01676
G1 X117.405 Y8.211 E3.9542
G1 X116.871 Y8.211 E.01676
G1 X206.466 Y97.806 E3.97791
G1 X206.466 Y98.34 E.01676
G1 X116.337 Y8.211 E4.00162
G1 X115.803 Y8.211 E.01676
G1 X206.466 Y98.874 E4.02532
G1 X206.466 Y99.408 E.01676
G1 X115.269 Y8.211 E4.04903
G1 X114.735 Y8.211 E.01676
G1 X206.466 Y99.942 E4.07274
G1 X206.466 Y100.476 E.01676
G1 X114.201 Y8.211 E4.09645
G1 X113.668 Y8.211 E.01673
G1 X206.466 Y101.01 E4.12014
G1 X206.466 Y101.543 E.01673
G1 X113.134 Y8.211 E4.14382
G1 X112.6 Y8.211 E.01676
G1 X206.466 Y102.077 E4.16753
G1 X206.466 Y102.611 E.01676
G1 X112.066 Y8.211 E4.19124
G1 X111.532 Y8.211 E.01676
G1 X206.466 Y103.145 E4.21495
G1 X206.466 Y103.679 E.01676
G1 X110.998 Y8.211 E4.23866
G1 X110.464 Y8.211 E.01676
G1 X206.466 Y104.213 E4.26237
G1 X206.466 Y104.747 E.01676
G1 X109.93 Y8.211 E4.28608
G1 X109.396 Y8.211 E.01676
G1 X206.466 Y105.281 E4.30979
G1 X206.466 Y105.815 E.01676
G1 X108.862 Y8.211 E4.3335
G1 X108.328 Y8.211 E.01676
G1 X206.466 Y106.349 E4.3572
G1 X206.466 Y106.883 E.01676
G1 X107.794 Y8.211 E4.38091
G1 X107.26 Y8.211 E.01676
G1 X206.466 Y107.417 E4.40462
G1 X206.466 Y107.951 E.01676
G1 X106.726 Y8.211 E4.42833
G1 X106.192 Y8.211 E.01676
G1 X206.466 Y108.485 E4.45204
G1 X206.466 Y109.019 E.01676
G1 X105.658 Y8.211 E4.47575
G1 X105.124 Y8.211 E.01676
G1 X206.466 Y109.553 E4.49946
G1 X206.466 Y110.087 E.01676
G1 X104.59 Y8.211 E4.52317
G1 X104.056 Y8.211 E.01676
G1 X206.466 Y110.621 E4.54688
G1 X206.466 Y111.155 E.01676
G1 X103.522 Y8.211 E4.57059
G1 X102.988 Y8.211 E.01676
G1 X206.466 Y111.689 E4.59429
G1 X206.466 Y112.223 E.01676
G1 X102.454 Y8.211 E4.618
G1 X101.92 Y8.211 E.01676
G1 X206.466 Y112.757 E4.64171
G1 X206.466 Y113.291 E.01676
G1 X101.387 Y8.211 E4.6654
G1 X100.853 Y8.211 E.01676
G1 X206.466 Y113.824 E4.68909
G1 X206.466 Y114.358 E.01676
G1 X100.319 Y8.211 E4.71279
G1 X99.785 Y8.211 E.01676
G1 X206.466 Y114.892 E4.7365
G1 X206.466 Y115.426 E.01676
G1 X99.251 Y8.211 E4.76021
G1 X98.717 Y8.211 E.01676
G1 X206.466 Y115.96 E4.78392
G1 X206.466 Y116.494 E.01676
G1 X98.183 Y8.211 E4.80763
G1 X97.649 Y8.211 E.01676
G1 X206.466 Y117.028 E4.83134
G1 X206.466 Y117.562 E.01676
G1 X97.115 Y8.211 E4.85505
G1 X96.581 Y8.211 E.01676
G1 X206.466 Y118.096 E4.87876
G1 X206.466 Y118.63 E.01676
G1 X96.047 Y8.211 E4.90247
G1 X95.513 Y8.211 E.01676
G1 X206.466 Y119.164 E4.92617
G1 X206.466 Y119.698 E.01676
G1 X94.979 Y8.211 E4.94988
G1 X94.445 Y8.211 E.01676
G1 X206.466 Y120.232 E4.97359
G1 X206.466 Y120.766 E.01676
G1 X93.911 Y8.211 E4.9973
G1 X93.377 Y8.211 E.01676
G1 X206.466 Y121.3 E5.02101
G1 X206.466 Y121.834 E.01676
G1 X92.843 Y8.211 E5.04472
G1 X92.309 Y8.211 E.01676
G1 X206.466 Y122.368 E5.06843
G1 X206.466 Y122.902 E.01676
G1 X91.775 Y8.211 E5.09214
G1 X91.241 Y8.211 E.01676
G1 X206.466 Y123.436 E5.11585
G1 X206.466 Y123.97 E.01676
G1 X90.707 Y8.211 E5.13956
G1 X90.173 Y8.211 E.01676
G1 X206.466 Y124.504 E5.16326
G1 X206.466 Y125.038 E.01676
G1 X89.639 Y8.211 E5.18697
G1 X89.105 Y8.211 E.01676
G1 X206.466 Y125.572 E5.21068
G1 X206.466 Y126.106 E.01676
G1 X88.572 Y8.211 E5.23437
G1 X88.038 Y8.211 E.01676
G1 X206.466 Y126.639 E5.25806
G1 X206.466 Y127.173 E.01676
G1 X87.504 Y8.211 E5.28176
G1 X86.97 Y8.211 E.01676
G1 X206.466 Y127.707 E5.30547
G1 X206.466 Y128.241 E.01676
G1 X86.436 Y8.211 E5.32918
G1 X85.902 Y8.211 E.01676
G1 X206.466 Y128.775 E5.35289
G1 X206.466 Y129.309 E.01676
G1 X85.368 Y8.211 E5.3766
G1 X84.834 Y8.211 E.01676
G1 X206.466 Y129.843 E5.40031
G1 X206.466 Y130.377 E.01676
G1 X84.3 Y8.211 E5.42402
G1 X83.766 Y8.211 E.01676
G1 X206.466 Y130.911 E5.44773
G1 X206.466 Y131.445 E.01676
G1 X83.232 Y8.211 E5.47144
G1 X82.698 Y8.211 E.01676
G1 X206.466 Y131.979 E5.49514
G1 X206.466 Y132.513 E.01676
G1 X82.164 Y8.211 E5.51885
G1 X81.63 Y8.211 E.01676
G1 X206.466 Y133.047 E5.54256
G1 X206.466 Y133.581 E.01676
