; generated by PrusaSlicer 2.7.1 on 2024-04-05 at 18:14:47 UTC


;
;

;
;
; 

; external perimeters extrusion width = 0.42mm
; perimeters extrusion width = 0.44mm
; infill extrusion width = 0.44mm
; solid infill extrusion width = 0.44mm
; top infill extrusion width = 0.40mm
; first layer extrusion width = 0.42mm



; Pre-Processed for Cancel-Object support by preprocess_cancellation v0.2.0
; 1 known objects
EXCLUDE_OBJECT_DEFINE NAME=20x20x15_mm_hollow_cube_stl_id_0_copy_0 CENTER=110.259,109.997 POLYGON=[[100.21,100.21],[100.21,119.79],[119.79,119.79],[119.79,100.21]]
M201 X500 Y500 Z100 E5000 ; sets maximum accelerations, mm/sec^2
M203 X500 Y500 Z10 E60 ; sets maximum feedrates, mm / sec
M204 S500 T1000 ; sets acceleration (S) and retract acceleration (R), mm/sec^2
M205 X8.00 Y8.00 Z0.40 E5.00 ; sets the jerk limits, mm/sec
M205 S0 T0 ; sets the minimum extruding and travel feed rate, mm/sec

; printing object 20x20x15_mm_hollow_cube.stl id:0 copy 0
EXCLUDE_OBJECT_START NAME=20x20x15_mm_hollow_cube_stl_id_0_copy_0
; stop printing object 20x20x15_mm_hollow_cube.stl id:0 copy 0
EXCLUDE_OBJECT_END NAME=20x20x15_mm_hollow_cube_stl_id_0_copy_0

;TYPE:Custom
G90 ; use absolute coordinates
M83 ; extruder relative mode
G28
M109 S0
M190 S0
start_print EXTRUDER_TEMP=210 BED_TEMP=60

M104 S150 ; set temporary nozzle temp to prevent oozing during homing
M140 S60 ; set final bed temp
G4 S30 ; allow partial nozzle warmup
G28 ; home all axis and restore leveling

G1 Z50 F240
G1 X2.0 Y10 F3000
M104 S210 ; set final nozzle temp
M190 S60 ; wait for bed temp to stabilize
M109 S210 ; wait for nozzle temp to stabilize
G1 Z0.28 F240
G92 E0
G1 X2.0 Y140 E10 F1500 ; prime the nozzle
G1 X2.3 Y140 F5000
G92 E0
G1 X2.3 Y10 E10 F1200 ; prime the nozzle
G92 E0
G21 ; set units to millimeters
G90 ; use absolute coordinates
M83 ; use relative distances for extrusion
; Filament gcode
M107
;LAYER_CHANGE
;Z:0.2
;HEIGHT:0.2
;BEFORE_LAYER_CHANGE
G92 E0
;0.2


G1 E-.8 F1800
G1 Z.2 F9000
;AFTER_LAYER_CHANGE
;0.2
G1 X97.742 Y97.001
G1 Z.2
G1 E.8 F1800
M204 S500
;TYPE:Skirt/Brim
;WIDTH:0.42
G1 F1200
G1 X100 Y96.246 E.07465
G1 X120 Y96.246 E.62709
G1 X121.676 Y96.641 E.05399
G1 X122.999 Y97.742 E.05397
G1 X123.754 Y100 E.07465
G1 X123.754 Y120 E.62709
G1 X123.359 Y121.676 E.05399
G1 X122.258 Y122.999 E.05397
G1 X120 Y123.754 E.07465
G1 X100 Y123.754 E.62709
G1 X98.324 Y123.359 E.05399
G1 X97.001 Y122.258 E.05397
G1 X96.246 Y120 E.07465
G1 X96.246 Y100 E.62709
G1 X96.641 Y98.324 E.05399
G1 X97.703 Y97.047 E.05208
G1 X98.004 Y97.318 F9000
G1 F1200
G1 X98.107 Y97.203 E.00484
G1 X100 Y96.623 E.06208
G1 X120 Y96.623 E.62709
G1 X121.583 Y97.017 E.05115
G1 X122.797 Y98.107 E.05116
G1 X123.377 Y100 E.06208
G1 X123.377 Y120 E.62709
G1 X122.983 Y121.583 E.05115
G1 X121.893 Y122.797 E.05116
G1 X120 Y123.377 E.06208
G1 X100 Y123.377 E.62709
G1 X98.417 Y122.983 E.05115
G1 X97.203 Y121.893 E.05116
G1 X96.623 Y120 E.06208
G1 X96.623 Y100 E.62709
G1 X97.017 Y98.417 E.05115
G1 X97.964 Y97.362 E.04445
; printing object 20x20x15_mm_hollow_cube.stl id:0 copy 0
EXCLUDE_OBJECT_START NAME=20x20x15_mm_hollow_cube_stl_id_0_copy_0
;WIPE_START
G1 F7200
G1 X98.004 Y97.318 E-.01412
G1 X98.107 Y97.203 E-.03667
G1 X100 Y96.623 E-.47022
G1 X101.175 Y96.623 E-.27899
;WIPE_END
G1 X101.064 Y101.064 F9000
G1 E.8 F1800
;TYPE:Perimeter
;WIDTH:0.419999
G1 F1200
G1 X118.936 Y101.064 E.56036
G1 X118.936 Y110 E.28018
G1 X118.936 Y118.936 E.28018
G1 X101.064 Y118.936 E.56036
G1 X101.064 Y101.124 E.55848
G1 X100.687 Y100.687 F9000
G1 F1200
G1 X119.313 Y100.687 E.584
G1 X119.313 Y110 E.292
G1 X119.313 Y119.313 E.292
G1 X100.687 Y119.313 E.584
G1 X100.687 Y100.747 E.58212
G1 X100.31 Y100.31 F9000
;TYPE:External perimeter
G1 F1200
G1 X119.69 Y100.31 E.60765
G1 X119.69 Y110 E.30382
G1 X119.69 Y119.69 E.30382
G1 X100.31 Y119.69 E.60765
G1 X100.31 Y100.37 E.60576
;WIPE_START
G1 F7200
G1 X100.31 Y100.31 E-.01425
G1 X103.618 Y100.31 E-.78575
;WIPE_END
G1 X118.815 Y101.95 F9000
G1 E.8 F1800
;TYPE:Solid infill
;WIDTH:0.421502
G1 F1200
G1 X118.219 Y101.355 E.02651
G1 X117.684 Y101.355 E.01684
G1 X118.645 Y102.316 E.04278
G1 X118.645 Y102.851 E.01684
G1 X117.149 Y101.355 E.0666
G1 X116.613 Y101.355 E.01687
G1 X118.645 Y103.387 E.09046
G1 X118.645 Y103.922 E.01684
G1 X116.078 Y101.355 E.11428
G1 X115.542 Y101.355 E.01687
G1 X118.645 Y104.458 E.13814
G1 X118.645 Y104.993 E.01684
G1 X115.007 Y101.355 E.16196
G1 X114.472 Y101.355 E.01684
G1 X118.645 Y105.528 E.18578
G1 X118.645 Y106.064 E.01687
G1 X113.936 Y101.355 E.20964
G1 X113.401 Y101.355 E.01684
G1 X118.645 Y106.599 E.23345
G1 X118.645 Y107.135 E.01687
G1 X112.865 Y101.355 E.25732
G1 X112.33 Y101.355 E.01684
G1 X118.645 Y107.67 E.28113
G1 X118.645 Y108.205 E.01684
G1 X111.795 Y101.355 E.30495
G1 X111.259 Y101.355 E.01687
G1 X118.645 Y108.741 E.32881
G1 X118.645 Y109.276 E.01684
G1 X110.724 Y101.355 E.35263
G1 X110.188 Y101.355 E.01687
G1 X118.645 Y109.812 E.37649
G1 X118.645 Y110.347 E.01684
G1 X109.653 Y101.355 E.40031
G1 X109.118 Y101.355 E.01684
G1 X118.645 Y110.882 E.42413
G1 X118.645 Y111.418 E.01687
G1 X108.582 Y101.355 E.44799
G1 X108.047 Y101.355 E.01684
G1 X118.645 Y111.953 E.47181
G1 X118.645 Y112.489 E.01687
G1 X107.511 Y101.355 E.49567
G1 X106.976 Y101.355 E.01684
G1 X118.645 Y113.024 E.51948
G1 X118.645 Y113.559 E.01684
G1 X106.441 Y101.355 E.5433
G1 X105.905 Y101.355 E.01687
G1 X118.645 Y114.095 E.56716
G1 X118.645 Y114.63 E.01684
G1 X105.37 Y101.355 E.59098
G1 X104.835 Y101.355 E.01684
G1 X118.645 Y115.165 E.6148
G1 X118.645 Y115.701 E.01687
G1 X104.299 Y101.355 E.63866
G1 X103.764 Y101.355 E.01684
G1 X118.645 Y116.236 E.66248
G1 X118.645 Y116.772 E.01687
G1 X103.228 Y101.355 E.68634
G1 X102.693 Y101.355 E.01684
G1 X118.645 Y117.307 E.71016
G1 X118.645 Y117.842 E.01684
G1 X102.158 Y101.355 E.73397
G1 X101.622 Y101.355 E.01687
G1 X118.645 Y118.378 E.75784
G1 X118.645 Y118.645 E.0084
G1 X118.378 Y118.645 E.0084
G1 X101.355 Y101.622 E.75784
G1 X101.355 Y102.158 E.01687
G1 X117.842 Y118.645 E.73397
G1 X117.307 Y118.645 E.01684
G1 X101.355 Y102.693 E.71016
G1 X101.355 Y103.228 E.01684
G1 X116.772 Y118.645 E.68634
G1 X116.236 Y118.645 E.01687
G1 X101.355 Y103.764 E.66248
G1 X101.355 Y104.299 E.01684
G1 X115.701 Y118.645 E.63866
G1 X115.165 Y118.645 E.01687
G1 X101.355 Y104.835 E.6148
G1 X101.355 Y105.37 E.01684
G1 X114.63 Y118.645 E.59098
G1 X114.095 Y118.645 E.01684
G1 X101.355 Y105.905 E.56716
G1 X101.355 Y106.441 E.01687
G1 X113.559 Y118.645 E.5433
G1 X113.024 Y118.645 E.01684
G1 X101.355 Y106.976 E.51948
G1 X101.355 Y107.512 E.01687
G1 X112.488 Y118.645 E.49562
G1 X111.953 Y118.645 E.01684
G1 X101.355 Y108.047 E.47181
G1 X101.355 Y108.582 E.01684
G1 X111.418 Y118.645 E.44799
G1 X110.882 Y118.645 E.01687
G1 X101.355 Y109.118 E.42413
G1 X101.355 Y109.653 E.01684
G1 X110.347 Y118.645 E.40031
G1 X109.811 Y118.645 E.01687
G1 X101.355 Y110.189 E.37645
G1 X101.355 Y110.724 E.01684
G1 X109.276 Y118.645 E.35263
G1 X108.741 Y118.645 E.01684
G1 X101.355 Y111.259 E.32881
G1 X101.355 Y111.795 E.01687
G1 X108.205 Y118.645 E.30495
G1 X107.67 Y118.645 E.01684
G1 X101.355 Y112.33 E.28113
G1 X101.355 Y112.866 E.01687
G1 X107.134 Y118.645 E.25727
G1 X106.599 Y118.645 E.01684
G1 X101.355 Y113.401 E.23345
G1 X101.355 Y113.936 E.01684
G1 X106.064 Y118.645 E.20964
G1 X105.528 Y118.645 E.01687
G1 X101.355 Y114.472 E.18578
G1 X101.355 Y115.007 E.01684
G1 X104.993 Y118.645 E.16196
G1 X104.457 Y118.645 E.01687
G1 X101.355 Y115.543 E.1381
G1 X101.355 Y116.078 E.01684
G1 X103.922 Y118.645 E.11428
G1 X103.387 Y118.645 E.01684
G1 X101.355 Y116.613 E.09046
G1 X101.355 Y117.149 E.01687
G1 X102.851 Y118.645 E.0666
G1 X102.316 Y118.645 E.01684
G1 X101.355 Y117.684 E.04278
G1 X101.355 Y118.22 E.01687
G1 X101.95 Y118.815 E.02649
; stop printing object 20x20x15_mm_hollow_cube.stl id:0 copy 0
EXCLUDE_OBJECT_END NAME=20x20x15_mm_hollow_cube_stl_id_0_copy_0
M106 S255
;LAYER_CHANGE
;Z:0.36
;HEIGHT:0.16
;BEFORE_LAYER_CHANGE
G92 E0
;0.36


;WIPE_START
G1 F7200
G1 X101.355 Y118.22 E-.19985
G1 X101.355 Y117.684 E-.1273
G1 X102.316 Y118.645 E-.32278
G1 X102.851 Y118.645 E-.12706
G1 X102.782 Y118.576 E-.02301
;WIPE_END
G1 Z.36 F9000
;AFTER_LAYER_CHANGE
;0.36
M104 S205 ; set temperature
G1 X102.782 Y123.754
G1 E.8 F1800
;TYPE:Skirt/Brim
;WIDTH:0.42
G1 F2400
G1 X100 Y123.754 E.07137
G1 X98.324 Y123.359 E.04417
G1 X97.001 Y122.258 E.04416
G1 X96.246 Y120 E.06108
G1 X96.246 Y100 E.51309
G1 X96.641 Y98.324 E.04417
G1 X97.742 Y97.001 E.04416
G1 X100 Y96.246 E.06108
G1 X120 Y96.246 E.51309
G1 X121.676 Y96.641 E.04417
G1 X122.999 Y97.742 E.04416
G1 X123.754 Y100 E.06108
G1 X123.754 Y120 E.51309
G1 X123.359 Y121.676 E.04417
G1 X122.258 Y122.999 E.04416
G1 X120 Y123.754 E.06108
G1 X102.842 Y123.754 E.44018
G1 X102.842 Y123.377 F9000
G1 F2400
G1 X100 Y123.377 E.07291
G1 X98.417 Y122.983 E.04185
G1 X97.203 Y121.893 E.04186
G1 X96.623 Y120 E.05079
G1 X96.623 Y100 E.51309
G1 X97.017 Y98.417 E.04185
G1 X98.107 Y97.203 E.04186
G1 X100 Y96.623 E.05079
G1 X120 Y96.623 E.51309
G1 X121.583 Y97.017 E.04185
G1 X122.797 Y98.107 E.04186
G1 X123.377 Y100 E.05079
G1 X123.377 Y120 E.51309
G1 X122.983 Y121.583 E.04185
G1 X121.893 Y122.797 E.04186
G1 X120 Y123.377 E.05079
G1 X102.902 Y123.377 E.43864
; printing object 20x20x15_mm_hollow_cube.stl id:0 copy 0
EXCLUDE_OBJECT_START NAME=20x20x15_mm_hollow_cube_stl_id_0_copy_0
;WIPE_START
G1 F7200
G1 X102.842 Y123.377 E-.01425
G1 X100 Y123.377 E-.67497
G1 X99.547 Y123.264 E-.11078
;WIPE_END
G1 X101.011 Y118.989 F9000
G1 E.8 F1800
;TYPE:Perimeter
;WIDTH:0.439999
G1 F2400
G1 X101.011 Y101.011 E.48513
G1 X118.989 Y101.011 E.48513
G1 X118.989 Y110 E.24257
G1 X118.989 Y118.989 E.24257
G1 X101.071 Y118.989 E.48351
G1 X100.606 Y119.394 F9000
G1 F2400
G1 X100.606 Y100.606 E.50699
G1 X119.394 Y100.606 E.50699
G1 X119.394 Y110 E.2535
G1 X119.394 Y119.394 E.2535
G1 X100.666 Y119.394 E.50537
G1 X100.21 Y119.79 F9000
;TYPE:External perimeter
;WIDTH:0.419999
G1 F1500
G1 X100.21 Y100.21 E.50231
G1 X119.79 Y100.21 E.50231
G1 X119.79 Y110 E.25116
G1 X119.79 Y119.79 E.25116
G1 X100.27 Y119.79 E.50077
;WIPE_START
G1 F7200
G1 X100.21 Y119.79 E-.01425
G1 X100.21 Y116.482 E-.78575
;WIPE_END
G1 X101.434 Y101.357 F9000
G1 E.8 F1800
;TYPE:Solid infill
;WIDTH:0.538422
G1 F2400
G1 X101.389 Y101.312 E.00213
G1 X101.328 Y101.328 E.00211
G1 X101.312 Y101.389 E.00211
G1 X101.357 Y101.434 E.00213
G1 X101.417 Y101.417 E.00209
;WIDTH:0.439999
G1 X101.324 Y102.065 E.01767
G1 X102.065 Y101.324 E.02828
G1 X102.639 Y101.324 E.01549
G1 X101.324 Y102.639 E.05018
G1 X101.324 Y103.213 E.01549
G1 X103.213 Y101.324 E.07209
G1 X103.786 Y101.324 E.01546
G1 X101.324 Y103.786 E.09396
G1 X101.324 Y104.36 E.01549
G1 X104.36 Y101.324 E.11586
G1 X104.934 Y101.324 E.01549
G1 X101.324 Y104.934 E.13777
G1 X101.324 Y105.508 E.01549
G1 X105.508 Y101.324 E.15967
G1 X106.081 Y101.324 E.01546
G1 X101.324 Y106.081 E.18154
G1 X101.324 Y106.655 E.01549
G1 X106.655 Y101.324 E.20344
G1 X107.229 Y101.324 E.01549
G1 X101.324 Y107.229 E.22535
G1 X101.324 Y107.802 E.01546
G1 X107.802 Y101.324 E.24722
G1 X108.376 Y101.324 E.01549
G1 X101.324 Y108.376 E.26912
G1 X101.324 Y108.95 E.01549
G1 X108.95 Y101.324 E.29103
G1 X109.523 Y101.324 E.01546
G1 X101.324 Y109.523 E.31289
G1 X101.324 Y110.097 E.01549
G1 X110.097 Y101.324 E.3348
G1 X110.671 Y101.324 E.01549
G1 X101.324 Y110.671 E.3567
G1 X101.324 Y111.245 E.01549
G1 X111.245 Y101.324 E.37861
G1 X111.818 Y101.324 E.01546
G1 X101.324 Y111.818 E.40048
G1 X101.324 Y112.392 E.01549
G1 X112.392 Y101.324 E.42238
G1 X112.966 Y101.324 E.01549
G1 X101.324 Y112.966 E.44429
G1 X101.324 Y113.539 E.01546
G1 X113.539 Y101.324 E.46615
G1 X114.113 Y101.324 E.01549
G1 X101.324 Y114.113 E.48806
G1 X101.324 Y114.687 E.01549
G1 X114.687 Y101.324 E.50996
G1 X115.26 Y101.324 E.01546
G1 X101.324 Y115.26 E.53183
G1 X101.324 Y115.834 E.01549
G1 X115.834 Y101.324 E.55373
G1 X116.408 Y101.324 E.01549
G1 X101.324 Y116.408 E.57564
G1 X101.324 Y116.981 E.01546
G1 X116.981 Y101.324 E.59751
G1 X117.555 Y101.324 E.01549
G1 X101.324 Y117.555 E.61941
G1 X101.324 Y118.129 E.01549
G1 X118.129 Y101.324 E.64132
G1 X118.676 Y101.35 E.01478
G1 X101.35 Y118.676 E.6612
G1 X101.924 Y118.676 E.01549
G1 X118.676 Y101.924 E.63929
G1 X118.676 Y102.497 E.01546
G1 X102.497 Y118.676 E.61743
G1 X103.071 Y118.676 E.01549
G1 X118.676 Y103.071 E.59552
G1 X118.676 Y103.645 E.01549
G1 X103.645 Y118.676 E.57362
G1 X104.218 Y118.676 E.01546
G1 X118.676 Y104.218 E.55175
G1 X118.676 Y104.792 E.01549
G1 X104.792 Y118.676 E.52985
G1 X105.366 Y118.676 E.01549
G1 X118.676 Y105.366 E.50794
G1 X118.676 Y105.939 E.01546
G1 X105.939 Y118.676 E.48607
G1 X106.513 Y118.676 E.01549
G1 X118.676 Y106.513 E.46417
G1 X118.676 Y107.087 E.01549
G1 X107.087 Y118.676 E.44226
G1 X107.661 Y118.676 E.01549
G1 X118.676 Y107.661 E.42036
G1 X118.676 Y108.234 E.01546
G1 X108.234 Y118.676 E.39849
G1 X108.808 Y118.676 E.01549
G1 X118.676 Y108.808 E.37659
G1 X118.676 Y109.382 E.01549
G1 X109.382 Y118.676 E.35468
G1 X109.955 Y118.676 E.01546
G1 X118.676 Y109.955 E.33281
G1 X118.676 Y110.529 E.01549
G1 X110.529 Y118.676 E.31091
G1 X111.103 Y118.676 E.01549
G1 X118.676 Y111.103 E.289
G1 X118.676 Y111.676 E.01546
G1 X111.676 Y118.676 E.26714
G1 X112.25 Y118.676 E.01549
G1 X118.676 Y112.25 E.24523
G1 X118.676 Y112.824 E.01549
G1 X112.824 Y118.676 E.22333
G1 X113.397 Y118.676 E.01546
G1 X118.676 Y113.397 E.20146
G1 X118.676 Y113.971 E.01549
G1 X113.971 Y118.676 E.17955
G1 X114.545 Y118.676 E.01549
G1 X118.676 Y114.545 E.15765
G1 X118.676 Y115.119 E.01549
G1 X115.119 Y118.676 E.13574
G1 X115.692 Y118.676 E.01546
G1 X118.676 Y115.692 E.11388
G1 X118.676 Y116.266 E.01549
G1 X116.266 Y118.676 E.09197
G1 X116.84 Y118.676 E.01549
G1 X118.676 Y116.84 E.07007
G1 X118.676 Y117.413 E.01546
G1 X117.413 Y118.676 E.0482
G1 X117.987 Y118.676 E.01549
G1 X118.676 Y117.987 E.02629
G1 X118.7 Y118.627 E.01728
;WIDTH:0.507694
G1 X118.658 Y118.585 E.00187
G1 X118.601 Y118.601 E.00186
G1 X118.585 Y118.658 E.00186
G1 X118.627 Y118.7 E.00187
G1 X118.684 Y118.684 E.00186
; stop printing object 20x20x15_mm_hollow_cube.stl id:0 copy 0
EXCLUDE_OBJECT_END NAME=20x20x15_mm_hollow_cube_stl_id_0_copy_0
;LAYER_CHANGE
;Z:0.52
;HEIGHT:0.16
;BEFORE_LAYER_CHANGE
G92 E0
;0.52


;WIPE_START
G1 F7200
G1 X118.627 Y118.7 E-.01406
G1 X118.585 Y118.658 E-.01411
G1 X118.601 Y118.601 E-.01406
G1 X118.658 Y118.585 E-.01406
G1 X118.7 Y118.627 E-.01411
;WIPE_END
G1 E-.7296 F1800
G1 Z.52 F9000
;AFTER_LAYER_CHANGE
;0.52
; printing object 20x20x15_mm_hollow_cube.stl id:0 copy 0
EXCLUDE_OBJECT_START NAME=20x20x15_mm_hollow_cube_stl_id_0_copy_0
G1 X118.989 Y118.989
G1 E.8 F1800
;TYPE:Perimeter
;WIDTH:0.439999
G1 F2400
G1 X101.011 Y118.989 E.48513
G1 X101.011 Y101.011 E.48513
G1 X118.989 Y101.011 E.48513
G1 X118.989 Y110 E.24257
G1 X118.989 Y118.929 E.24095
G1 X119.394 Y119.394 F9000
G1 F2400
G1 X100.606 Y119.394 E.50699
G1 X100.606 Y100.606 E.50699
G1 X119.394 Y100.606 E.50699
G1 X119.394 Y110 E.2535
G1 X119.394 Y119.334 E.25188
G1 X119.79 Y119.79 F9000
;TYPE:External perimeter
;WIDTH:0.419999
G1 F1500
G1 X100.21 Y119.79 E.50231
G1 X100.21 Y100.21 E.50231
G1 X119.79 Y100.21 E.50231
G1 X119.79 Y110 E.25116
G1 X119.79 Y119.73 E.24962
;WIPE_START
G1 F7200
G1 X119.79 Y119.79 E-.01425
G1 X116.482 Y119.79 E-.78575
;WIPE_END
G1 X101.357 Y118.566 F9000
G1 E.8 F1800
;TYPE:Solid infill
;WIDTH:0.538422
G1 F2400
G1 X101.312 Y118.611 E.00213
G1 X101.328 Y118.672 E.00211
G1 X101.389 Y118.688 E.00211
G1 X101.434 Y118.643 E.00213
G1 X101.417 Y118.583 E.00209
;WIDTH:0.439999
G1 X101.324 Y117.935 E.01767
G1 X102.065 Y118.676 E.02828
G1 X102.639 Y118.676 E.01549
G1 X101.324 Y117.361 E.05018
G1 X101.324 Y116.787 E.01549
G1 X103.213 Y118.676 E.07209
G1 X103.786 Y118.676 E.01546
G1 X101.324 Y116.214 E.09396
G1 X101.324 Y115.64 E.01549
G1 X104.36 Y118.676 E.11586
G1 X104.934 Y118.676 E.01549
G1 X101.324 Y115.066 E.13777
G1 X101.324 Y114.492 E.01549
G1 X105.508 Y118.676 E.15967
G1 X106.081 Y118.676 E.01546
G1 X101.324 Y113.919 E.18154
G1 X101.324 Y113.345 E.01549
G1 X106.655 Y118.676 E.20344
G1 X107.229 Y118.676 E.01549
