; generated by PrusaSlicer 2.7.1 on 2024-11-26 at 21:20:26 UTC


;
;

;
;
; 

; external perimeters extrusion width = 0.42mm
; perimeters extrusion width = 0.44mm
; infill extrusion width = 0.44mm
; solid infill extrusion width = 0.44mm
; top infill extrusion width = 0.40mm
; support material extrusion width = 0.36mm
; first layer extrusion width = 0.42mm



; Pre-Processed for Cancel-Object support by preprocess_cancellation v0.2.0
; 1 known objects
EXCLUDE_OBJECT_DEFINE NAME=Base_H_stl_id_0_copy_0 CENTER=102.107,131.681 POLYGON=[[88.229,68.726],[88.229,157.433],[138.549,157.433],[138.549,68.726]]
M201 X500 Y500 Z100 E5000 ; sets maximum accelerations, mm/sec^2
M203 X500 Y500 Z10 E60 ; sets maximum feedrates, mm / sec
M204 S500 T1000 ; sets acceleration (S) and retract acceleration (R), mm/sec^2
M205 X8.00 Y8.00 Z0.40 E5.00 ; sets the jerk limits, mm/sec
M205 S0 T0 ; sets the minimum extruding and travel feed rate, mm/sec

; printing object Base_H.stl id:0 copy 0
EXCLUDE_OBJECT_START NAME=Base_H_stl_id_0_copy_0
; stop printing object Base_H.stl id:0 copy 0
EXCLUDE_OBJECT_END NAME=Base_H_stl_id_0_copy_0

;TYPE:Custom
G90 ; use absolute coordinates
M83 ; extruder relative mode
G28
M109 S0
M190 S0
start_print EXTRUDER_TEMP=210 BED_TEMP=60

M104 S150 ; set temporary nozzle temp to prevent oozing during homing
M140 S60 ; set final bed temp
G4 S30 ; allow partial nozzle warmup
G28 ; home all axis and restore leveling

G1 Z50 F240
G1 X2.0 Y10 F3000
M104 S210 ; set final nozzle temp
M190 S60 ; wait for bed temp to stabilize
M109 S210 ; wait for nozzle temp to stabilize
G1 Z0.28 F240
G92 E0
G1 X2.0 Y140 E10 F1500 ; prime the nozzle
G1 X2.3 Y140 F5000
G92 E0
G1 X2.3 Y10 E10 F1200 ; prime the nozzle
G92 E0
G21 ; set units to millimeters
G90 ; use absolute coordinates
M83 ; use relative distances for extrusion
; Filament gcode
M107
;LAYER_CHANGE
;Z:0.2
;HEIGHT:0.2
;BEFORE_LAYER_CHANGE
G92 E0
;0.2


G1 E-.8 F1800
G1 Z.2 F9000
;AFTER_LAYER_CHANGE
;0.2
G1 X85.246 Y69.611
G1 Z.2
G1 E.8 F1800
M204 S500
;TYPE:Skirt/Brim
;WIDTH:0.42
G1 F1200
G1 X86.336 Y68.398 E.05113
G1 X88.229 Y67.817 E.06209
G1 X96.76 Y67.817 E.26748
G1 X98.343 Y68.211 E.05115
G1 X99.77 Y69.664 E.06385
G1 X139.282 Y147.372 E2.73336
G1 X139.649 Y148.902 E.04933
G1 X139.649 Y157.433 E.26748
G1 X139.255 Y159.016 E.05115
G1 X138.165 Y160.23 E.05116
G1 X136.272 Y160.81 E.06208
G1 X116.745 Y160.779 E.61226
G1 X88.307 Y156.878 E.9
G1 X86.792 Y156.273 E.05115
G1 X85.738 Y155.027 E.05117
G1 X85.389 Y153.557 E.04737
G1 X84.852 Y80.75 E2.28287
G1 X84.851 Y71.194 E.29962
G1 X85.231 Y69.67 E.04925
; printing object Base_H.stl id:0 copy 0
EXCLUDE_OBJECT_START NAME=Base_H_stl_id_0_copy_0
;WIPE_START
G1 F7200
G1 X85.246 Y69.611 E-.01446
G1 X86.336 Y68.398 E-.38731
G1 X87.939 Y67.906 E-.39823
;WIPE_END
G1 X126.9 Y153.746 F9000
G1 E.8 F1800
;TYPE:Support material interface
;WIDTH:0.36
G1 F1200
G1 X126.738 Y153.765 E.0043
G1 X126.738 Y154.485 E.01898
G1 X127.011 Y154.485 E.0072
G1 X127.011 Y153.633 E.02246
G1 X127.12 Y153.523 E.00408
G1 X127.119 Y153.361 E.00427
G1 X127.528 Y153.01 E.01421
;WIPE_START
G1 F7200
G1 X127.119 Y153.361 E-.128
G1 X127.12 Y153.523 E-.03848
G1 X127.011 Y153.633 E-.03678
G1 X127.011 Y154.485 E-.20235
G1 X126.738 Y154.485 E-.06484
G1 X126.738 Y153.765 E-.171
G1 X126.9 Y153.746 E-.03874
;WIPE_END
G1 E-.11981 F1800
G1 X129.238 Y154.485 F9000
G1 E.8 F1800
G1 F1200
G1 X129.372 Y154.485 E.00353
G1 X129.372 Y150.533 E.1042
G1 X129.08 Y150.533 E.0077
G1 X129.08 Y154.485 E.1042
G1 X128.563 Y154.485 E.01363
G1 X128.563 Y150.533 E.1042
G1 X128.046 Y150.533 E.01363
G1 X128.046 Y154.485 E.1042
G1 X127.528 Y154.485 E.01366
G1 X127.528 Y150.533 E.1042
;WIPE_START
G1 F7200
G1 X127.528 Y153.901 E-.8
;WIPE_END
G1 X129.687 Y147.585 F9000
G1 E.8 F1800
;TYPE:Support material
;WIDTH:0.42
G1 F1200
G1 X134.955 Y147.585 E.16517
G1 X134.955 Y148.902 E.04129
G1 X136.272 Y148.902 E.04129
G1 X136.272 Y157.433 E.26748
G1 X117.204 Y157.433 E.59786
G1 X117.204 Y153.861 E.112
G1 X125.64 Y153.822 E.26451
G1 X125.909 Y153.55 E.01199
G1 X125.884 Y148.167 E.16878
G1 X125.612 Y147.898 E.01199
G1 X119.838 Y147.925 E.18104
G1 X119.838 Y144.951 E.09325
G1 X129.687 Y144.951 E.30881
G1 X129.687 Y147.529 E.08083
;WIPE_START
G1 F7200
G1 X129.687 Y144.951 E-.61228
G1 X128.897 Y144.951 E-.18772
;WIPE_END
G1 X127.155 Y150.853 F9000
G1 E.8 F1800
G1 F1200
G1 X127.152 Y150.165 E.02157
G1 X129.741 Y150.165 E.08118
G1 X129.741 Y154.853 E.14699
G1 X126.369 Y154.853 E.10573
G1 X126.369 Y153.399 E.04559
G1 X126.726 Y153.397 E.01119
G1 X126.749 Y152.995 E.01263
G1 X127.026 Y152.993 E.00869
G1 X127.165 Y152.854 E.00616
G1 X127.155 Y150.909 E.06098
;WIPE_START
G1 F7200
G1 X127.165 Y152.854 E-.46194
G1 X127.026 Y152.993 E-.04669
G1 X126.749 Y152.995 E-.06579
G1 X126.726 Y153.397 E-.09563
G1 X126.369 Y153.399 E-.08479
G1 X126.369 Y153.589 E-.04516
;WIPE_END
G1 X135.773 Y157.264 F9000
G1 E.8 F1800
G1 F1200
G1 X135.773 Y149.242 E.25152
G1 X135.354 Y149.242 E.01314
G1 X135.354 Y157.094 E.24619
G1 X134.935 Y157.094 E.01314
G1 X134.935 Y149.242 E.24619
G1 X134.616 Y149.242 E.01
G1 X134.616 Y147.924 E.04132
G1 X134.516 Y147.924 E.00314
G1 X134.516 Y157.094 E.28752
G1 X134.097 Y157.094 E.01314
G1 X134.097 Y147.924 E.28752
G1 X133.678 Y147.924 E.01314
G1 X133.678 Y157.094 E.28752
G1 X133.259 Y157.094 E.01314
G1 X133.259 Y147.924 E.28752
G1 X132.84 Y147.924 E.01314
G1 X132.84 Y157.094 E.28752
G1 X132.421 Y157.094 E.01314
G1 X132.421 Y147.924 E.28752
G1 X132.002 Y147.924 E.01314
G1 X132.002 Y157.094 E.28752
G1 X131.583 Y157.094 E.01314
G1 X131.583 Y147.924 E.28752
G1 X131.164 Y147.924 E.01314
G1 X131.164 Y157.094 E.28752
G1 X130.745 Y157.094 E.01314
G1 X130.745 Y147.924 E.28752
G1 X130.326 Y147.924 E.01314
G1 X130.326 Y157.094 E.28752
G1 X129.907 Y157.094 E.01314
G1 X129.907 Y155.193 E.0596
G1 X129.488 Y155.193 E.01314
G1 X129.488 Y157.094 E.0596
G1 X129.069 Y157.094 E.01314
G1 X129.069 Y155.193 E.0596
G1 X128.65 Y155.193 E.01314
G1 X128.65 Y157.094 E.0596
G1 X128.232 Y157.094 E.01311
G1 X128.232 Y155.193 E.0596
G1 X127.813 Y155.193 E.01314
G1 X127.813 Y157.094 E.0596
G1 X127.394 Y157.094 E.01314
G1 X127.394 Y155.193 E.0596
G1 X126.975 Y155.193 E.01314
G1 X126.975 Y157.094 E.0596
G1 X126.556 Y157.094 E.01314
G1 X126.556 Y155.023 E.06493
;WIPE_START
G1 F7200
G1 X126.556 Y157.094 E-.49186
G1 X126.975 Y157.094 E-.09951
G1 X126.975 Y156.215 E-.20863
;WIPE_END
G1 X129.907 Y149.995 F9000
G1 E.8 F1800
G1 F1200
G1 X129.907 Y147.924 E.06493
G1 X129.488 Y147.924 E.01314
G1 X129.488 Y149.826 E.05964
G1 X129.069 Y149.826 E.01314
G1 X129.069 Y145.29 E.14222
G1 X128.65 Y145.29 E.01314
G1 X128.65 Y149.826 E.14222
G1 X128.232 Y149.826 E.01311
G1 X128.232 Y145.29 E.14222
G1 X127.813 Y145.29 E.01314
G1 X127.813 Y149.826 E.14222
G1 X127.394 Y149.826 E.01314
G1 X127.394 Y145.29 E.14222
G1 X126.975 Y145.29 E.01314
G1 X126.975 Y149.826 E.14222
G1 X126.811 Y149.826 E.00514
G1 X126.824 Y152.655 E.0887
G1 X126.556 Y152.656 E.0084
G1 X126.556 Y145.29 E.23096
G1 X126.137 Y145.29 E.01314
G1 X126.137 Y157.094 E.37011
G1 X125.718 Y157.094 E.01314
G1 X125.718 Y154.161 E.09196
G1 X125.299 Y154.163 E.01314
G1 X125.299 Y157.094 E.0919
G1 X124.88 Y157.094 E.01314
G1 X124.88 Y154.165 E.09184
G1 X124.461 Y154.167 E.01314
G1 X124.461 Y157.094 E.09177
G1 X124.042 Y157.094 E.01314
G1 X124.042 Y154.169 E.09171
G1 X123.623 Y154.171 E.01314
G1 X123.623 Y157.094 E.09165
G1 X123.204 Y157.094 E.01314
G1 X123.204 Y154.173 E.09159
G1 X122.785 Y154.175 E.01314
G1 X122.785 Y157.094 E.09152
G1 X122.366 Y157.094 E.01314
G1 X122.366 Y154.177 E.09146
G1 X121.947 Y154.179 E.01314
G1 X121.947 Y157.094 E.0914
G1 X121.528 Y157.094 E.01314
G1 X121.528 Y154.181 E.09134
G1 X121.109 Y154.183 E.01314
G1 X121.109 Y157.094 E.09127
G1 X120.69 Y157.094 E.01314
G1 X120.69 Y154.185 E.09121
G1 X120.271 Y154.186 E.01314
G1 X120.271 Y157.094 E.09118
G1 X119.852 Y157.094 E.01314
G1 X119.852 Y154.188 E.09112
G1 X119.433 Y154.19 E.01314
G1 X119.433 Y157.094 E.09105
G1 X119.014 Y157.094 E.01314
G1 X119.014 Y154.192 E.09099
G1 X118.595 Y154.194 E.01314
G1 X118.595 Y157.094 E.09093
G1 X118.176 Y157.094 E.01314
G1 X118.176 Y154.196 E.09086
G1 X117.757 Y154.198 E.01314
G1 X117.757 Y157.264 E.09613
;WIPE_START
G1 F7200
G1 X117.757 Y154.198 E-.72818
G1 X118.059 Y154.197 E-.07182
;WIPE_END
G1 X125.718 Y147.764 F9000
G1 E.8 F1800
G1 F1200
G1 X125.718 Y145.29 E.07757
G1 X125.299 Y145.29 E.01314
G1 X125.299 Y147.56 E.07117
G1 X124.88 Y147.562 E.01314
G1 X124.88 Y145.29 E.07124
G1 X124.461 Y145.29 E.01314
G1 X124.461 Y147.564 E.0713
G1 X124.042 Y147.566 E.01314
G1 X124.042 Y145.29 E.07136
G1 X123.623 Y145.29 E.01314
G1 X123.623 Y147.568 E.07143
G1 X123.204 Y147.57 E.01314
G1 X123.204 Y145.29 E.07149
G1 X122.785 Y145.29 E.01314
G1 X122.785 Y147.572 E.07155
G1 X122.366 Y147.574 E.01314
G1 X122.366 Y145.29 E.07161
G1 X121.947 Y145.29 E.01314
G1 X121.947 Y147.576 E.07168
G1 X121.528 Y147.578 E.01314
G1 X121.528 Y145.29 E.07174
G1 X121.109 Y145.29 E.01314
G1 X121.109 Y147.58 E.0718
G1 X120.69 Y147.582 E.01314
G1 X120.69 Y145.29 E.07186
G1 X120.271 Y145.29 E.01314
G1 X120.271 Y147.753 E.07723
;WIPE_START
G1 F7200
G1 X120.271 Y145.29 E-.58496
G1 X120.69 Y145.29 E-.09951
G1 X120.69 Y145.776 E-.11553
;WIPE_END
G1 X96.76 Y113.97 F9000
G1 E.8 F1800
G1 F1200
G1 X94.043 Y113.97 E.08519
G1 X93.954 Y94.902 E.59787
G1 X96.76 Y94.902 E.08798
G1 X96.76 Y113.913 E.59608
G1 X96.389 Y113.8 F9000
G1 F1200
G1 X96.389 Y95.241 E.5819
G1 X95.97 Y95.241 E.01314
G1 X95.97 Y113.63 E.57657
G1 X95.551 Y113.63 E.01314
G1 X95.551 Y95.241 E.57657
G1 X95.132 Y95.241 E.01314
G1 X95.132 Y113.63 E.57657
G1 X94.713 Y113.63 E.01314
G1 X94.713 Y95.072 E.58187
;WIPE_START
G1 F7200
G1 X94.713 Y98.44 E-.8
;WIPE_END
G1 X91.333 Y79.75 F9000
G1 E.8 F1800
;TYPE:Support material interface
;WIDTH:0.36
G1 F1200
G1 X91.333 Y78.094 E.04366
G1 X91.85 Y78.094 E.01363
G1 X91.85 Y79.747 E.04358
G1 X92.367 Y79.745 E.01363
G1 X92.367 Y78.094 E.04353
G1 X92.884 Y78.094 E.01363
G1 X92.884 Y79.743 E.04348
G1 X93.075 Y79.742 E.00504
G1 X93.401 Y80.065 E.0121
G1 X93.401 Y78.094 E.05197
G1 X93.811 Y78.094 E.01081
G1 X93.811 Y80.371 E.06003
G1 X93.593 Y80.155 E.00809
G1 X93.486 Y80.156 E.00282
;WIPE_START
G1 F7200
G1 X93.593 Y80.155 E-.02541
G1 X93.811 Y80.371 E-.07289
G1 X93.811 Y78.094 E-.54079
G1 X93.401 Y78.094 E-.09738
G1 X93.401 Y78.361 E-.06353
;WIPE_END
G1 X96.76 Y80.725 F9000
G1 E.8 F1800
;TYPE:Support material
;WIDTH:0.42
G1 F1200
G1 X94.18 Y80.725 E.08089
G1 X94.18 Y77.725 E.09406
G1 X90.808 Y77.725 E.10573
G1 X90.808 Y80.121 E.07512
G1 X92.924 Y80.111 E.06635
G1 X93.064 Y80.249 E.00616
G1 X93.065 Y80.526 E.00869
G1 X93.442 Y80.525 E.01182
G1 X93.468 Y80.725 E.00632
G1 X88.229 Y80.725 E.16427
G1 X88.229 Y71.194 E.29884
G1 X96.76 Y71.194 E.26748
G1 X96.76 Y80.669 E.29708
G1 X96.389 Y80.556 F9000
G1 F1200
G1 X96.389 Y71.534 E.28288
G1 X95.97 Y71.534 E.01314
G1 X95.97 Y80.386 E.27755
G1 X95.551 Y80.386 E.01314
G1 X95.551 Y71.534 E.27755
G1 X95.132 Y71.534 E.01314
G1 X95.132 Y80.386 E.27755
G1 X94.713 Y80.386 E.01314
G1 X94.713 Y71.534 E.27755
G1 X94.294 Y71.534 E.01314
G1 X94.294 Y77.386 E.18349
G1 X93.875 Y77.386 E.01314
G1 X93.875 Y71.534 E.18349
G1 X93.456 Y71.534 E.01314
G1 X93.456 Y77.386 E.18349
G1 X93.037 Y77.386 E.01314
G1 X93.037 Y71.534 E.18349
G1 X92.618 Y71.534 E.01314
G1 X92.618 Y77.386 E.18349
G1 X92.199 Y77.386 E.01314
G1 X92.199 Y71.534 E.18349
G1 X91.781 Y71.534 E.01311
G1 X91.781 Y77.386 E.18349
G1 X91.362 Y77.386 E.01314
G1 X91.362 Y71.534 E.18349
G1 X90.943 Y71.534 E.01314
G1 X90.943 Y77.386 E.18349
G1 X90.524 Y77.386 E.01314
G1 X90.524 Y71.534 E.18349
G1 X90.105 Y71.534 E.01314
G1 X90.105 Y80.386 E.27755
G1 X89.686 Y80.386 E.01314
G1 X89.686 Y71.534 E.27755
G1 X89.267 Y71.534 E.01314
G1 X89.267 Y80.386 E.27755
G1 X88.848 Y80.386 E.01314
G1 X88.848 Y71.364 E.28288
;WIPE_START
G1 F7200
G1 X88.848 Y74.732 E-.8
;WIPE_END
G1 X89.5 Y82.912 F9000
G1 E.8 F1800
;TYPE:Perimeter
;WIDTH:0.419999
G1 F1200
G1 X92.372 Y82.899 E.09005
G1 X92.632 Y138.636 E1.74761
G1 X92.69 Y138.956 E.0102
G1 X92.758 Y139.004 E.00261
G1 X92.804 Y139.708 E.02212
G1 X92.994 Y140.84 E.03599
G1 X93.301 Y141.946 E.03599
G1 X93.722 Y143.013 E.03596
G1 X94.252 Y144.031 E.03599
G1 X94.886 Y144.987 E.03597
G1 X95.616 Y145.873 E.03599
G1 X96.435 Y146.677 E.03598
G1 X97.247 Y147.327 E.03261
G1 X98.215 Y147.957 E.03621
G1 X99.239 Y148.478 E.03602
G1 X100.31 Y148.89 E.03598
G1 X101.418 Y149.186 E.03596
G1 X102.552 Y149.366 E.036
G1 X103.257 Y149.405 E.02214
G1 X103.305 Y149.472 E.00258
G1 X103.626 Y149.527 E.01021
G1 X124.364 Y149.43 E.65023
G1 X124.37 Y150.866 E.04503
G1 X124.377 Y152.302 E.04503
G1 X89.825 Y152.463 E1.08336
G1 X89.501 Y82.972 E2.17886
G1 X89.122 Y82.537 F9000
G1 F1200
G1 X92.747 Y82.52 E.11366
G1 X93.01 Y138.634 E1.75943
G1 X93.044 Y138.826 E.00611
G1 X93.129 Y138.885 E.00324
G1 X93.176 Y139.648 E.02397
G1 X93.345 Y140.683 E.03288
G1 X93.634 Y141.753 E.03475
G1 X94.033 Y142.787 E.03475
G1 X94.538 Y143.773 E.03473
G1 X95.143 Y144.701 E.03473
G1 X95.842 Y145.561 E.03475
G1 X96.671 Y146.382 E.03658
G1 X97.483 Y147.033 E.03263
G1 X98.419 Y147.64 E.03498
G1 X99.408 Y148.142 E.03478
G1 X100.443 Y148.537 E.03473
G1 X101.514 Y148.822 E.03475
G1 X102.609 Y148.993 E.03475
G1 X103.372 Y149.032 E.02395
G1 X103.432 Y149.117 E.00326
G1 X103.624 Y149.15 E.00611
G1 X124.739 Y149.051 E.66205
G1 X124.747 Y150.864 E.05685
G1 X124.756 Y152.677 E.05685
G1 X89.45 Y152.842 E1.10701
G1 X89.122 Y82.597 E2.2025
G1 X88.743 Y82.161 F9000
;TYPE:External perimeter
G1 F1200
G1 X93.123 Y82.141 E.13733
G1 X93.387 Y138.632 E1.77125
G1 X93.39 Y138.665 E.00104
G1 X93.5 Y138.767 E.0047
G1 X93.548 Y139.587 E.02575
G1 X93.717 Y140.622 E.03288
G1 X93.997 Y141.653 E.0335
G1 X94.384 Y142.65 E.03353
G1 X94.873 Y143.6 E.0335
G1 X95.458 Y144.494 E.0335
G1 X96.134 Y145.322 E.03351
G1 X96.907 Y146.088 E.03412
G1 X97.719 Y146.739 E.03263
G1 X98.624 Y147.323 E.03377
G1 X99.578 Y147.805 E.03351
G1 X100.577 Y148.184 E.0335
G1 X101.61 Y148.457 E.0335
G1 X102.666 Y148.62 E.0335
G1 X103.487 Y148.66 E.02577
G1 X103.558 Y148.762 E.0039
G1 X103.623 Y148.773 E.00207
G1 X125.114 Y148.672 E.67384
G1 X125.124 Y150.862 E.06867
G1 X125.135 Y153.052 E.06867
G1 X89.075 Y153.221 E1.13065
G1 X88.743 Y82.221 E2.22618
;WIPE_START
G1 F7200
G1 X88.743 Y82.161 E-.01425
G1 X92.051 Y82.146 E-.78575
;WIPE_END
G1 X92.255 Y83.788 F9000
G1 E.8 F1800
;TYPE:Solid infill
;WIDTH:0.421296
G1 F1200
G1 X91.659 Y83.192 E.02652
G1 X91.127 Y83.195 E.01674
G1 X92.088 Y84.156 E.04276
G1 X92.09 Y84.693 E.0169
G1 X90.594 Y83.197 E.06656
G1 X90.061 Y83.2 E.01677
G1 X92.093 Y85.231 E.09039
G1 X92.095 Y85.768 E.0169
G1 X89.793 Y83.467 E.1024
G1 X89.796 Y84.004 E.0169
G1 X92.098 Y86.306 E.10243
G1 X92.1 Y86.844 E.01693
G1 X89.798 Y84.542 E.10243
G1 X89.801 Y85.079 E.0169
G1 X92.103 Y87.381 E.10243
G1 X92.105 Y87.919 E.01693
G1 X89.803 Y85.617 E.10243
G1 X89.806 Y86.155 E.01693
G1 X92.108 Y88.456 E.1024
G1 X92.11 Y88.994 E.01693
G1 X89.808 Y86.692 E.10243
G1 X89.811 Y87.23 E.01693
G1 X92.113 Y89.532 E.10243
G1 X92.115 Y90.069 E.0169
G1 X89.813 Y87.768 E.1024
G1 X89.816 Y88.305 E.0169
G1 X92.118 Y90.607 E.10243
G1 X92.12 Y91.145 E.01693
G1 X89.818 Y88.843 E.10243
G1 X89.821 Y89.38 E.0169
G1 X92.123 Y91.682 E.10243
G1 X92.125 Y92.22 E.01693
G1 X89.823 Y89.918 E.10243
G1 X89.826 Y90.456 E.01693
G1 X92.128 Y92.757 E.1024
G1 X92.13 Y93.295 E.01693
G1 X89.828 Y90.993 E.10243
G1 X89.831 Y91.531 E.01693
G1 X92.133 Y93.833 E.10243
G1 X92.135 Y94.37 E.0169
G1 X89.833 Y92.068 E.10243
G1 X89.836 Y92.606 E.01693
G1 X92.138 Y94.908 E.10243
G1 X92.14 Y95.446 E.01693
G1 X89.839 Y93.144 E.1024
G1 X89.841 Y93.681 E.0169
G1 X92.143 Y95.983 E.10243
G1 X92.145 Y96.521 E.01693
G1 X89.844 Y94.219 E.1024
G1 X89.846 Y94.757 E.01693
G1 X92.148 Y97.058 E.1024
G1 X92.15 Y97.596 E.01693
G1 X89.849 Y95.294 E.1024
G1 X89.851 Y95.832 E.01693
G1 X92.153 Y98.134 E.10243
G1 X92.155 Y98.671 E.0169
G1 X89.854 Y96.369 E.1024
G1 X89.856 Y96.907 E.01693
G1 X92.158 Y99.209 E.10243
G1 X92.16 Y99.746 E.0169
G1 X89.859 Y97.445 E.10238
G1 X89.861 Y97.982 E.0169
G1 X92.163 Y100.284 E.10243
