; generated by PrusaSlicer 2.7.1 on 2025-02-14 at 22:41:40 UTC


;
;

;
;
; 

; external perimeters extrusion width = 0.42mm
; perimeters extrusion width = 0.44mm
; infill extrusion width = 0.44mm
; solid infill extrusion width = 0.44mm
; top infill extrusion width = 0.40mm
; first layer extrusion width = 0.42mm



; Pre-Processed for Cancel-Object support by preprocess_cancellation v0.2.0
; 1 known objects
EXCLUDE_OBJECT_DEFINE NAME=bottom_plate_v1_stl_id_0_copy_0 CENTER=109.571,140.037 POLYGON=[[81.727,91.294],[81.727,188.874],[137.307,188.874],[137.307,91.294]]
M201 X500 Y500 Z100 E5000 ; sets maximum accelerations, mm/sec^2
M203 X500 Y500 Z10 E60 ; sets maximum feedrates, mm / sec
M204 S500 T1000 ; sets acceleration (S) and retract acceleration (R), mm/sec^2
M205 X8.00 Y8.00 Z0.40 E5.00 ; sets the jerk limits, mm/sec
M205 S0 T0 ; sets the minimum extruding and travel feed rate, mm/sec

; printing object bottom plate v1.stl id:0 copy 0
EXCLUDE_OBJECT_START NAME=bottom_plate_v1_stl_id_0_copy_0
; stop printing object bottom plate v1.stl id:0 copy 0
EXCLUDE_OBJECT_END NAME=bottom_plate_v1_stl_id_0_copy_0

;TYPE:Custom
G90 ; use absolute coordinates
M83 ; extruder relative mode
G28
M109 S0
M190 S0
start_print EXTRUDER_TEMP=210 BED_TEMP=60

M104 S150 ; set temporary nozzle temp to prevent oozing during homing
M140 S60 ; set final bed temp
G4 S30 ; allow partial nozzle warmup
G28 ; home all axis and restore leveling

G1 Z50 F240
G1 X2.0 Y10 F3000
M104 S210 ; set final nozzle temp
M190 S60 ; wait for bed temp to stabilize
M109 S210 ; wait for nozzle temp to stabilize
G1 Z0.28 F240
G92 E0
G1 X2.0 Y140 E10 F1500 ; prime the nozzle
G1 X2.3 Y140 F5000
G92 E0
G1 X2.3 Y10 E10 F1200 ; prime the nozzle
G92 E0
G21 ; set units to millimeters
G90 ; use absolute coordinates
M83 ; use relative distances for extrusion
; Filament gcode
M107
;LAYER_CHANGE
;Z:0.2
;HEIGHT:0.2
;BEFORE_LAYER_CHANGE
G92 E0
;0.2


G1 E-.8 F1800
G1 Z.2 F9000
;AFTER_LAYER_CHANGE
;0.2
G1 X80.254 Y89.352
G1 Z.2
G1 E.8 F1800
M204 S500
;TYPE:Skirt/Brim
;WIDTH:0.42
G1 F1200
G1 X80.708 Y88.979 E.01842
G1 X81.285 Y88.597 E.0217
G1 X82.389 Y88.08 E.03822
G1 X83.601 Y87.78 E.03915
G1 X84.186 Y87.723 E.01843
G1 X134.848 Y87.723 E1.58847
G1 X135.434 Y87.78 E.01846
G1 X136.646 Y88.08 E.03915
G1 X137.776 Y88.611 E.03915
G1 X138.781 Y89.352 E.03915
G1 X139.622 Y90.275 E.03915
G1 X140.267 Y91.344 E.03915
G1 X140.691 Y92.518 E.03914
G1 X140.878 Y93.753 E.03916
G1 X140.895 Y186.084 E2.89497
G1 X140.691 Y187.649 E.04948
G1 X140.267 Y188.824 E.03917
G1 X139.99 Y189.342 E.01842
G1 X139.249 Y190.347 E.03915
G1 X138.327 Y191.189 E.03915
G1 X137.776 Y191.556 E.02076
G1 X136.646 Y192.087 E.03915
G1 X136.083 Y192.258 E.01845
G1 X134.849 Y192.444 E.03913
G1 X84.517 Y192.461 E1.57812
G1 X82.952 Y192.258 E.04948
G1 X81.777 Y191.834 E.03917
G1 X81.259 Y191.556 E.01843
G1 X80.254 Y190.815 E.03915
G1 X79.786 Y190.347 E.02075
G1 X79.045 Y189.342 E.03915
G1 X78.514 Y188.212 E.03915
G1 X78.343 Y187.649 E.01845
G1 X78.14 Y186.084 E.04948
G1 X78.14 Y94.084 E2.8846
G1 X78.343 Y92.518 E.04951
G1 X78.767 Y91.344 E.03914
G1 X79.468 Y90.206 E.04191
G1 X80.213 Y89.396 E.03451
; printing object bottom plate v1.stl id:0 copy 0
EXCLUDE_OBJECT_START NAME=bottom_plate_v1_stl_id_0_copy_0
;WIPE_START
G1 F7200
G1 X80.254 Y89.352 E-.01428
G1 X80.708 Y88.979 E-.13955
G1 X81.285 Y88.597 E-.16435
G1 X82.389 Y88.08 E-.28953
G1 X83.175 Y87.886 E-.19229
;WIPE_END
G1 X136.453 Y183.666 F9000
G1 E.8 F1800
;TYPE:Perimeter
;WIDTH:0.419999
G1 F1200
G1 X135.964 Y183.331 E.01859
G1 X135.187 Y183.048 E.02593
G1 X134.355 Y182.982 E.02617
G1 X133.594 Y183.114 E.02422
G1 X133.07 Y183.331 E.01778
G1 X132.857 Y183.454 E.00771
G1 X132.407 Y183.8 E.0178
G1 X132.233 Y183.974 E.00772
G1 X131.888 Y184.423 E.01775
G1 X131.765 Y184.637 E.00774
G1 X131.484 Y185.398 E.02544
G1 X131.41 Y186.207 E.02547
G1 X131.548 Y187.007 E.02545
G1 X131.765 Y187.531 E.01778
G1 X132.1 Y188.019 E.01856
G1 X86.935 Y188.02 E1.41611
G1 X87.27 Y187.531 E.01859
G1 X87.551 Y186.769 E.02546
G1 X87.625 Y185.961 E.02544
G1 X87.487 Y185.161 E.02545
G1 X87.27 Y184.637 E.01778
G1 X87.147 Y184.424 E.00771
G1 X86.802 Y183.974 E.01778
G1 X86.628 Y183.8 E.00772
G1 X86.178 Y183.454 E.0178
G1 X85.964 Y183.331 E.00774
G1 X85.44 Y183.114 E.01778
G1 X85.187 Y183.048 E.0082
G1 X84.355 Y182.982 E.02617
G1 X83.594 Y183.114 E.02422
G1 X83.07 Y183.331 E.01778
G1 X82.582 Y183.666 E.01856
G1 X82.582 Y96.501 E2.73299
G1 X83.07 Y96.836 E.01856
G1 X83.832 Y97.117 E.02546
G1 X84.641 Y97.191 E.02547
G1 X85.441 Y97.053 E.02545
G1 X85.964 Y96.836 E.01775
G1 X86.178 Y96.713 E.00774
G1 X86.628 Y96.368 E.01778
G1 X86.802 Y96.194 E.00772
G1 X87.147 Y95.744 E.01778
G1 X87.27 Y95.531 E.00771
G1 X87.551 Y94.769 E.02546
G1 X87.625 Y93.961 E.02544
G1 X87.487 Y93.161 E.02545
G1 X87.27 Y92.637 E.01778
G1 X86.935 Y92.148 E.01859
G1 X132.1 Y92.148 E1.41611
G1 X131.765 Y92.637 E.01859
G1 X131.484 Y93.398 E.02544
G1 X131.413 Y94.223 E.02596
G1 X131.563 Y95.044 E.02617
G1 X131.888 Y95.744 E.0242
G1 X132.233 Y96.194 E.01778
G1 X132.407 Y96.368 E.00772
G1 X132.857 Y96.713 E.01778
G1 X133.07 Y96.836 E.00771
G1 X133.832 Y97.117 E.02546
G1 X134.641 Y97.191 E.02547
G1 X135.441 Y97.053 E.02545
G1 X135.964 Y96.836 E.01775
G1 X136.453 Y96.501 E.01859
G1 X136.453 Y183.606 E2.73111
;WIPE_START
G1 F7200
G1 X136.453 Y183.666 E-.01425
G1 X135.964 Y183.331 E-.14078
G1 X135.187 Y183.048 E-.1964
G1 X134.355 Y182.982 E-.19822
G1 X133.594 Y183.114 E-.18344
G1 X133.334 Y183.222 E-.06691
;WIPE_END
G1 X136.831 Y184.632 F9000
G1 E.8 F1800
G1 F1200
G1 X136.398 Y184.099 E.02153
G1 X135.82 Y183.68 E.02238
G1 X135.144 Y183.423 E.02268
G1 X134.404 Y183.356 E.0233
G1 X133.739 Y183.463 E.02112
G1 X133.087 Y183.753 E.02237
G1 X132.533 Y184.203 E.02238
G1 X132.113 Y184.781 E.0224
G1 X131.858 Y185.448 E.02239
G1 X131.784 Y186.157 E.02235
G1 X131.896 Y186.862 E.02238
G1 X132.187 Y187.514 E.02239
G1 X132.637 Y188.069 E.0224
G1 X133.073 Y188.403 E.01722
G1 X85.994 Y188.397 E1.47613
G1 X85.996 Y188.377 E.00063
G1 X86.502 Y187.964 E.02048
G1 X86.921 Y187.386 E.02238
G1 X87.177 Y186.72 E.02237
G1 X87.251 Y186.01 E.02238
G1 X87.139 Y185.305 E.02238
G1 X86.848 Y184.653 E.02239
G1 X86.398 Y184.099 E.02238
G1 X85.82 Y183.68 E.02238
G1 X85.144 Y183.423 E.02268
G1 X84.404 Y183.356 E.0233
G1 X83.739 Y183.463 E.02112
G1 X83.087 Y183.753 E.02237
G1 X82.532 Y184.204 E.02242
G1 X82.198 Y184.64 E.01722
G1 X82.204 Y95.535 E2.79382
G1 X82.637 Y96.069 E.02156
G1 X83.215 Y96.488 E.02238
G1 X83.881 Y96.743 E.02236
G1 X84.591 Y96.817 E.02238
G1 X85.296 Y96.705 E.02238
G1 X85.948 Y96.414 E.02239
G1 X86.502 Y95.964 E.02238
G1 X86.921 Y95.386 E.02238
G1 X87.177 Y94.72 E.02237
G1 X87.251 Y94.01 E.02238
G1 X87.139 Y93.305 E.02238
G1 X86.848 Y92.653 E.02239
G1 X86.398 Y92.098 E.0224
G1 X85.961 Y91.764 E.01725
G1 X133.066 Y91.77 E1.47694
G1 X132.533 Y92.203 E.02153
G1 X132.113 Y92.781 E.0224
G1 X131.858 Y93.448 E.02239
G1 X131.786 Y94.167 E.02266
G1 X131.912 Y94.899 E.02329
G1 X132.187 Y95.514 E.02112
G1 X132.637 Y96.069 E.0224
G1 X133.215 Y96.488 E.02238
G1 X133.881 Y96.743 E.02236
G1 X134.591 Y96.817 E.02238
G1 X135.296 Y96.705 E.02238
G1 X135.948 Y96.414 E.02239
G1 X136.503 Y95.964 E.0224
G1 X136.837 Y95.527 E.01725
G1 X136.831 Y184.572 E2.79194
;WIPE_START
G1 F7200
G1 X136.831 Y184.632 E-.01425
G1 X136.398 Y184.099 E-.16309
G1 X135.82 Y183.68 E-.16955
G1 X135.144 Y183.423 E-.17176
G1 X134.404 Y183.356 E-.17647
G1 X133.968 Y183.426 E-.10488
;WIPE_END
G1 X137.008 Y187.136 F9000
G1 E.8 F1800
;TYPE:External perimeter
;WIDTH:0.430281
G1 F1200
G1 X136.757 Y187.601 E.01702
;WIDTH:0.427128
G1 X136.421 Y188.014 E.01701
G1 X136.005 Y188.344 E.01696
;WIDTH:0.430281
G1 X135.534 Y188.589 E.0171
G1 X135.028 Y188.741 E.01702
;WIDTH:0.427097
G1 X134.48 Y188.796 E.01759
;WIDTH:0.437393
G1 X133.232 Y188.782 E.04094
;WIDTH:0.419999
G1 X85.803 Y188.777 E1.4871
;WIDTH:0.443528
G1 X84.518 Y188.795 E.04281
;WIDTH:0.427094
G1 X83.971 Y188.733 E.01759
;WIDTH:0.430281
G1 X83.465 Y188.574 E.01708
G1 X83 Y188.323 E.01702
;WIDTH:0.427128
G1 X82.588 Y187.987 E.01698
G1 X82.257 Y187.571 E.01698
;WIDTH:0.430282
G1 X82.012 Y187.101 E.01707
G1 X81.861 Y186.594 E.01704
;WIDTH:0.427098
G1 X81.805 Y186.046 E.0176
;WIDTH:0.437416
G1 X81.819 Y184.799 E.04091
;WIDTH:0.419999
G1 X81.824 Y95.369 E2.80401
;WIDTH:0.443575
G1 X81.806 Y94.085 E.04278
;WIDTH:0.427092
G1 X81.868 Y93.537 E.01762
;WIDTH:0.430281
G1 X82.027 Y93.031 E.01708
G1 X82.278 Y92.566 E.01702
;WIDTH:0.427135
G1 X82.614 Y92.154 E.01698
G1 X83.03 Y91.824 E.01696
;WIDTH:0.430362
G1 X83.5 Y91.578 E.01709
G1 X84.007 Y91.427 E.01704
;WIDTH:0.427015
G1 X84.541 Y91.373 E.01714
;WIDTH:0.436939
G1 X85.803 Y91.385 E.04135
;WIDTH:0.419999
G1 X133.232 Y91.39 E1.4871
;WIDTH:0.443057
G1 X134.549 Y91.374 E.04382
;WIDTH:0.427846
G1 X135.064 Y91.434 E.01659
;WIDTH:0.430275
G1 X135.57 Y91.593 E.01708
G1 X136.035 Y91.844 E.01702
;WIDTH:0.427126
G1 X136.447 Y92.181 E.017
G1 X136.778 Y92.597 E.01698
;WIDTH:0.430268
G1 X137.023 Y93.066 E.01704
G1 X137.174 Y93.573 E.01704
;WIDTH:0.427092
G1 X137.23 Y94.121 E.0176
;WIDTH:0.441544
G1 X137.216 Y95.369 E.04137
;WIDTH:0.419999
G1 X137.209 Y184.654 E2.79946
G1 X137.211 Y184.798 E.00452
;WIDTH:0.443574
G1 X137.229 Y186.083 E.04281
;WIDTH:0.427092
G1 X137.167 Y186.63 E.01759
;WIDTH:0.430281
G1 X137.026 Y187.079 E.01516
;WIPE_START
G1 F7200
G1 X137.008 Y187.136 E-.0142
G1 X136.757 Y187.601 E-.1255
;WIPE_END
G1 E-.6603 F1800
G1 X136.793 Y185.45 F9000
G1 E.8 F1800
;WIDTH:0.436621
G1 F1200
G1 X136.852 Y186.066 E.02026
;WIDTH:0.421277
G1 X136.772 Y186.664 E.01898
;WIDTH:0.417912
G1 X136.545 Y187.226 E.0189
;WIDTH:0.418821
G1 X136.185 Y187.715 E.01898
G1 X135.702 Y188.088 E.01907
;WIDTH:0.417929
G1 X135.143 Y188.325 E.01893
;WIDTH:0.418699
G1 X134.544 Y188.416 E.01893
;WIDTH:0.444703
G1 X133.938 Y188.377 E.02029
G1 X133.361 Y188.14 E.02084
;WIDTH:0.419999
G1 X132.882 Y187.782 E.01875
G1 X132.486 Y187.285 E.01992
G1 X132.245 Y186.718 E.01932
G1 X132.158 Y186.108 E.01932
G1 X132.232 Y185.497 E.0193
G1 X132.462 Y184.925 E.01933
G1 X132.832 Y184.433 E.0193
G1 X133.316 Y184.053 E.01929
G1 X133.883 Y183.811 E.01933
G1 X134.453 Y183.729 E.01806
G1 X135.101 Y183.798 E.02043
G1 X135.676 Y184.028 E.01942
G1 X136.168 Y184.398 E.0193
G1 X136.502 Y184.823 E.01695
;WIDTH:0.436621
G1 X136.768 Y185.395 E.02065
;WIPE_START
G1 F7200
G1 X136.793 Y185.45 E-.01435
G1 X136.852 Y186.066 E-.14697
;WIPE_END
G1 E-.63868 F1800
G1 X111.06 Y159.099 F9000
G1 E.8 F1800
;TYPE:Perimeter
;WIDTH:0.419999
G1 F1200
G1 X111.29 Y159.37 E.01114
G1 X111.531 Y159.868 E.01735
G1 X111.635 Y160.412 E.01737
G1 X111.595 Y160.964 E.01735
G1 X111.413 Y161.487 E.01736
G1 X111.102 Y161.945 E.01736
G1 X110.683 Y162.307 E.01736
G1 X110.184 Y162.549 E.01739
G1 X109.641 Y162.653 E.01733
G1 X109.088 Y162.612 E.01739
G1 X108.565 Y162.43 E.01736
G1 X108.107 Y162.119 E.01736
G1 X107.745 Y161.7 E.01736
G1 X107.514 Y161.227 E.0165
G1 X107.403 Y160.678 E.01756
G1 X107.4 Y160.412 E.00834
G1 X107.504 Y159.868 E.01737
G1 X107.723 Y159.411 E.01589
G1 X108.057 Y158.992 E.0168
G1 X108.508 Y158.666 E.01745
G1 X109.027 Y158.468 E.01742
G1 X109.554 Y158.415 E.01661
G1 X110.032 Y158.473 E.0151
G1 X110.526 Y158.665 E.01662
G1 X110.944 Y158.964 E.01611
G1 X111.021 Y159.053 E.00369
G1 X110.744 Y159.306 F9000
G1 F1200
G1 X110.803 Y159.354 E.00238
G1 X111.064 Y159.727 E.01427
G1 X111.221 Y160.155 E.01429
G1 X111.261 Y160.609 E.01429
G1 X111.183 Y161.058 E.01429
G1 X110.991 Y161.471 E.01428
G1 X110.698 Y161.82 E.01429
G1 X110.325 Y162.082 E.01429
G1 X109.897 Y162.238 E.01428
G1 X109.444 Y162.279 E.01426
G1 X108.995 Y162.2 E.01429
G1 X108.582 Y162.008 E.01428
G1 X108.232 Y161.716 E.01429
G1 X107.97 Y161.343 E.01429
G1 X107.826 Y160.952 E.01306
G1 X107.774 Y160.461 E.01548
G1 X107.852 Y160.012 E.01429
G1 X108.027 Y159.634 E.01306
G1 X108.337 Y159.25 E.01547
G1 X108.71 Y158.988 E.01429
G1 X109.137 Y158.832 E.01425
G1 X109.552 Y158.794 E.01307
G1 X109.949 Y158.841 E.01253
G1 X110.43 Y159.045 E.01638
G1 X110.698 Y159.268 E.01093
G1 X110.504 Y159.584 F9000
;TYPE:External perimeter
G1 F1200
G1 X110.716 Y159.871 E.01119
G1 X110.847 Y160.204 E.01122
G1 X110.887 Y160.56 E.01123
G1 X110.834 Y160.913 E.01119
G1 X110.691 Y161.241 E.01122
G1 X110.469 Y161.521 E.0112
G1 X110.181 Y161.734 E.01123
G1 X109.848 Y161.865 E.01122
G1 X109.493 Y161.905 E.0112
G1 X109.139 Y161.852 E.01122
G1 X108.811 Y161.709 E.01122
G1 X108.531 Y161.486 E.01122
G1 X108.319 Y161.199 E.01119
G1 X108.199 Y160.895 E.01025
G1 X108.148 Y160.511 E.01215
G1 X108.201 Y160.157 E.01122
G1 X108.331 Y159.857 E.01025
G1 X108.566 Y159.549 E.01215
G1 X108.854 Y159.336 E.01123
G1 X109.187 Y159.206 E.01121
G1 X109.511 Y159.168 E.01023
G1 X109.865 Y159.209 E.01117
G1 X110.224 Y159.361 E.01222
G1 X110.457 Y159.546 E.00933
;WIPE_START
G1 F7200
G1 X110.504 Y159.584 E-.01435
G1 X110.716 Y159.871 E-.08474
G1 X110.847 Y160.204 E-.08499
G1 X110.887 Y160.56 E-.08508
G1 X110.834 Y160.913 E-.08478
G1 X110.691 Y161.241 E-.08498
G1 X110.469 Y161.521 E-.08487
G1 X110.181 Y161.734 E-.08507
G1 X109.848 Y161.865 E-.08499
G1 X109.493 Y161.905 E-.08485
G1 X109.404 Y161.892 E-.0213
;WIPE_END
G1 X96.271 Y137.359 F9000
G1 E.8 F1800
;TYPE:Perimeter
G1 F1200
G1 X96.331 Y137.407 E.00241
G1 X96.649 Y137.833 E.01667
G1 X96.854 Y138.335 E.017
G1 X96.925 Y138.882 E.01729
G1 X96.861 Y139.395 E.01621
G1 X96.652 Y139.922 E.01778
G1 X96.354 Y140.327 E.01577
G1 X95.965 Y140.653 E.01591
G1 X95.466 Y140.894 E.01737
G1 X94.922 Y140.998 E.01737
G1 X94.37 Y140.958 E.01735
G1 X93.847 Y140.776 E.01736
G1 X93.389 Y140.465 E.01736
G1 X93.027 Y140.046 E.01736
G1 X92.786 Y139.547 E.01737
G1 X92.682 Y139.004 E.01733
G1 X92.722 Y138.451 E.01738
G1 X92.904 Y137.928 E.01736
G1 X93.215 Y137.47 E.01736
G1 X93.634 Y137.108 E.01736
G1 X94.132 Y136.867 E.01735
G1 X94.649 Y136.766 E.01652
G1 X95.208 Y136.801 E.01756
G1 X95.466 Y136.867 E.00835
G1 X95.941 Y137.09 E.01645
G1 X96.225 Y137.321 E.01148
G1 X96.027 Y137.652 F9000
G1 F1200
G1 X96.084 Y137.7 E.00234
G1 X96.346 Y138.073 E.01429
G1 X96.509 Y138.546 E.01569
G1 X96.537 Y139 E.01426
G1 X96.464 Y139.403 E.01284
G1 X96.321 Y139.742 E.01154
G1 X96.01 Y140.141 E.01586
G1 X95.607 Y140.427 E.01549
G1 X95.179 Y140.584 E.01429
G1 X94.725 Y140.624 E.01429
G1 X94.277 Y140.546 E.01426
G1 X93.864 Y140.354 E.01428
G1 X93.514 Y140.061 E.01431
G1 X93.252 Y139.688 E.01429
G1 X93.096 Y139.26 E.01428
G1 X93.056 Y138.807 E.01426
G1 X93.134 Y138.358 E.01429
G1 X93.326 Y137.945 E.01428
G1 X93.619 Y137.595 E.01431
G1 X93.991 Y137.333 E.01427
G1 X94.419 Y137.177 E.01428
G1 X94.834 Y137.139 E.01307
G1 X95.322 Y137.215 E.01549
G1 X95.735 Y137.407 E.01428
G1 X95.981 Y137.613 E.01006
G1 X95.785 Y137.929 F9000
;TYPE:External perimeter
G1 F1200
G1 X95.998 Y138.217 E.01123
G1 X96.135 Y138.595 E.01261
G1 X96.163 Y138.95 E.01117
G1 X96.116 Y139.259 E.0098
G1 X95.989 Y139.562 E.0103
G1 X95.751 Y139.866 E.01211
G1 X95.463 Y140.079 E.01123
G1 X95.13 Y140.21 E.01122
G1 X94.775 Y140.25 E.0112
G1 X94.421 Y140.197 E.01122
G1 X94.093 Y140.054 E.01122
G1 X93.813 Y139.832 E.0112
G1 X93.601 Y139.544 E.01121
G1 X93.47 Y139.211 E.01122
G1 X93.429 Y138.856 E.0112
G1 X93.483 Y138.502 E.01123
G1 X93.625 Y138.174 E.01121
G1 X93.848 Y137.894 E.01122
G1 X94.136 Y137.682 E.01121
G1 X94.469 Y137.551 E.01122
G1 X94.793 Y137.514 E.01022
G1 X95.177 Y137.564 E.01214
G1 X95.506 Y137.706 E.01124
G1 X95.738 Y137.892 E.00932
;WIPE_START
G1 F7200
G1 X95.785 Y137.929 E-.01421
G1 X95.998 Y138.217 E-.08507
G1 X96.135 Y138.595 E-.09549
G1 X96.163 Y138.95 E-.08457
G1 X96.116 Y139.259 E-.07423
G1 X95.989 Y139.562 E-.07803
G1 X95.751 Y139.866 E-.09169
G1 X95.463 Y140.079 E-.08507
G1 X95.13 Y140.21 E-.08499
G1 X94.775 Y140.25 E-.08485
G1 X94.684 Y140.236 E-.0218
;WIPE_END
G1 X107.504 Y116.873 F9000
G1 E.8 F1800
;TYPE:Perimeter
G1 F1200
G1 X107.666 Y116.477 E.01342
G1 X107.968 Y116.066 E.01599
G1 X108.401 Y115.712 E.01754
G1 X108.907 Y115.485 E.01739
G1 X109.424 Y115.4 E.01643
G1 X109.927 Y115.44 E.01582
G1 X110.184 Y115.506 E.00832
G1 X110.683 Y115.747 E.01737
G1 X111.102 Y116.109 E.01736
