; generated by PrusaSlicer 2.7.1 on 2024-02-22 at 17:26:00 UTC

; 

; external perimeters extrusion width = 0.42mm
; perimeters extrusion width = 0.44mm
; infill extrusion width = 0.44mm
; solid infill extrusion width = 0.44mm
; top infill extrusion width = 0.40mm
; first layer extrusion width = 0.42mm



; Pre-Processed for Cancel-Object support by preprocess_cancellation v0.2.0
; 1 known objects
EXCLUDE_OBJECT_DEFINE NAME=BedCalibration_stl_id_0_copy_0 CENTER=109.054,115.150 POLYGON=[[25.265,30.265],[25.265,189.735],[194.735,189.735],[194.735,30.265]]
M201 X500 Y500 Z100 E5000 ; sets maximum accelerations, mm/sec^2
M203 X500 Y500 Z10 E60 ; sets maximum feedrates, mm / sec
M204 S500 T1000 ; sets acceleration (S) and retract acceleration (R), mm/sec^2
M205 X8.00 Y8.00 Z0.40 E5.00 ; sets the jerk limits, mm/sec
M205 S0 T0 ; sets the minimum extruding and travel feed rate, mm/sec

; printing object BedCalibration.stl id:0 copy 0
EXCLUDE_OBJECT_START NAME=BedCalibration_stl_id_0_copy_0
; stop printing object BedCalibration.stl id:0 copy 0
EXCLUDE_OBJECT_END NAME=BedCalibration_stl_id_0_copy_0

;TYPE:Custom
G90 ; use absolute coordinates
M83 ; extruder relative mode
G28
M109 S0
M190 S0
start_print EXTRUDER_TEMP=210 BED_TEMP=60

M104 S150 ; set temporary nozzle temp to prevent oozing during homing
M140 S60 ; set final bed temp
G4 S30 ; allow partial nozzle warmup
G28 ; home all axis and restore leveling

G1 Z50 F240
G1 X2.0 Y10 F3000
M104 S210 ; set final nozzle temp
M190 S60 ; wait for bed temp to stabilize
M109 S210 ; wait for nozzle temp to stabilize
G1 Z0.28 F240
G92 E0
G1 X2.0 Y140 E10 F1500 ; prime the nozzle
G1 X2.3 Y140 F5000
G92 E0
G1 X2.3 Y10 E10 F1200 ; prime the nozzle
G92 E0
G21 ; set units to millimeters
G90 ; use absolute coordinates
M83 ; use relative distances for extrusion
; Filament gcode
M107
;LAYER_CHANGE
;Z:0.2
;HEIGHT:0.2
;BEFORE_LAYER_CHANGE
G92 E0
;0.2


G1 E-.8 F1800
G1 Z.2 F9000
;AFTER_LAYER_CHANGE
;0.2
G1 X21.884 Y25.712
G1 Z.2
G1 E.8 F1800
M204 S500
;TYPE:Skirt/Brim
;WIDTH:0.42
G1 F1200
G1 X23.282 Y24.871 E.05115
G1 X24.272 Y24.723 E.03139
G1 X195.728 Y24.723 E5.37588
G1 X197.312 Y25.117 E.05118
G1 X198.116 Y25.712 E.03136
G1 X199.288 Y26.884 E.05197
G1 X200.129 Y28.282 E.05115
G1 X200.277 Y29.272 E.03139
G1 X200.277 Y190.728 E5.06234
G1 X199.883 Y192.312 E.05118
G1 X199.288 Y193.116 E.03136
G1 X198.116 Y194.288 E.05197
G1 X196.718 Y195.129 E.05115
G1 X195.728 Y195.277 E.03139
G1 X24.272 Y195.277 E5.37588
G1 X22.688 Y194.883 E.05118
G1 X21.884 Y194.288 E.03136
G1 X20.712 Y193.116 E.05197
G1 X19.871 Y191.718 E.05115
G1 X19.723 Y190.728 E.03139
G1 X19.723 Y29.272 E5.06234
G1 X20.117 Y27.688 E.05118
G1 X20.712 Y26.884 E.03136
G1 X21.841 Y25.754 E.05008
;WIPE_START
G1 F7200
G1 X21.884 Y25.712 E-.01428
G1 X23.282 Y24.871 E-.38747
G1 X24.272 Y24.723 E-.23774
G1 X24.948 Y24.723 E-.16051
;WIPE_END
G1 X24.102 Y28.698 F9000
G1 E.8 F1800
G1 F1200
G1 X24.798 Y28.403 E.0237
G1 X195.224 Y28.407 E5.34359
G1 X195.782 Y28.613 E.01865
G1 X196.301 Y29.101 E.02234
G1 X196.597 Y29.798 E.02374
G1 X196.597 Y190.201 E5.02932
G1 X196.412 Y190.746 E.01805
G1 X195.898 Y191.302 E.02374
G1 X195.202 Y191.597 E.0237
G1 X193.63 Y191.567 E.0493
G1 X193.113 Y191.313 E.01806
G1 X192.698 Y190.898 E.0184
G1 X192.403 Y190.202 E.0237
G1 X192.403 Y32.597 E4.94159
G1 X27.597 Y32.597 E5.16738
G1 X27.597 Y187.403 E4.85383
G1 X172.403 Y187.403 E4.54029
G1 X172.403 Y52.597 E4.22675
G1 X47.597 Y52.597 E3.9132
G1 X47.597 Y177.403 E3.9132
G1 X162.403 Y177.403 E3.59966
G1 X162.403 Y62.597 E3.59966
G1 X57.597 Y62.597 E3.28612
G1 X57.597 Y167.403 E3.28612
G1 X152.403 Y167.403 E2.97258
G1 X152.403 Y72.597 E2.97258
G1 X67.597 Y72.597 E2.65903
G1 X67.597 Y157.403 E2.65903
G1 X142.403 Y157.403 E2.34549
G1 X142.403 Y82.597 E2.34549
G1 X77.597 Y82.597 E2.03195
G1 X77.597 Y147.403 E2.03195
G1 X132.403 Y147.403 E1.7184
G1 X132.403 Y92.597 E1.7184
G1 X87.597 Y92.597 E1.40486
G1 X87.597 Y137.403 E1.40486
G1 X122.403 Y137.403 E1.09132
G1 X122.403 Y102.597 E1.09132
G1 X97.597 Y102.597 E.77777
G1 X97.597 Y127.403 E.77777
G1 X117.403 Y127.403 E.621
G1 X117.403 Y107.597 E.621
G1 X102.597 Y107.597 E.46423
G1 X102.597 Y122.403 E.46423
G1 X112.403 Y122.403 E.30746
G1 X112.403 Y112.597 E.30746
G1 X104.814 Y112.597 E.23795
G1 X104.534 Y112.536 E.00899
G1 X104.161 Y112.348 E.0131
G1 X103.652 Y111.839 E.02257
G1 X103.407 Y111.223 E.02079
G1 X103.425 Y109.672 E.04863
G1 X103.648 Y109.164 E.0174
G1 X104.102 Y108.698 E.0204
G1 X104.798 Y108.403 E.0237
G1 X115.202 Y108.403 E.32621
G1 X115.836 Y108.648 E.02131
G1 X116.352 Y109.164 E.02288
G1 X116.597 Y109.798 E.02131
G1 X116.597 Y125.201 E.48295
G1 X116.412 Y125.746 E.01805
G1 X115.898 Y126.302 E.02374
G1 X115.202 Y126.597 E.0237
G1 X99.798 Y126.597 E.48298
G1 X99.164 Y126.352 E.02131
G1 X98.648 Y125.836 E.02288
G1 X98.403 Y125.202 E.02131
G1 X98.403 Y104.799 E.63972
G1 X98.588 Y104.254 E.01805
G1 X99.102 Y103.698 E.02374
G1 X99.798 Y103.403 E.0237
G1 X120.201 Y103.403 E.63972
G1 X120.746 Y103.588 E.01805
G1 X121.302 Y104.102 E.02374
G1 X121.597 Y104.798 E.0237
G1 X121.597 Y130.202 E.79652
G1 X121.302 Y130.898 E.0237
G1 X120.746 Y131.412 E.02374
G1 X120.201 Y131.597 E.01805
G1 X94.798 Y131.597 E.79649
G1 X94.342 Y131.456 E.01497
G1 X93.696 Y130.896 E.02681
G1 X93.403 Y130.201 E.02365
G1 X93.403 Y99.798 E.95326
G1 X93.544 Y99.342 E.01497
G1 X94.104 Y98.696 E.02681
G1 X94.799 Y98.403 E.02365
G1 X125.202 Y98.403 E.95326
G1 X125.658 Y98.544 E.01497
G1 X126.304 Y99.104 E.02681
G1 X126.597 Y99.799 E.02365
G1 X126.597 Y140.202 E1.26681
G1 X126.456 Y140.658 E.01497
G1 X125.896 Y141.304 E.02681
G1 X125.201 Y141.597 E.02365
G1 X84.798 Y141.597 E1.26681
G1 X84.342 Y141.456 E.01497
G1 X83.696 Y140.896 E.02681
G1 X83.403 Y140.201 E.02365
G1 X83.403 Y89.798 E1.58035
G1 X83.544 Y89.342 E.01497
G1 X84.104 Y88.696 E.02681
G1 X84.799 Y88.403 E.02365
G1 X135.202 Y88.403 E1.58035
G1 X135.658 Y88.544 E.01497
G1 X136.304 Y89.104 E.02681
G1 X136.597 Y89.799 E.02365
G1 X136.597 Y150.202 E1.89389
G1 X136.456 Y150.658 E.01497
G1 X135.896 Y151.304 E.02681
G1 X135.201 Y151.597 E.02365
G1 X74.798 Y151.597 E1.89389
G1 X74.342 Y151.456 E.01497
G1 X73.696 Y150.896 E.02681
G1 X73.403 Y150.201 E.02365
G1 X73.403 Y79.798 E2.20744
G1 X73.544 Y79.342 E.01497
G1 X74.104 Y78.696 E.02681
G1 X74.799 Y78.403 E.02365
G1 X145.202 Y78.403 E2.20744
G1 X145.658 Y78.544 E.01497
G1 X146.304 Y79.104 E.02681
G1 X146.597 Y79.799 E.02365
G1 X146.597 Y160.202 E2.52098
G1 X146.456 Y160.658 E.01497
G1 X145.896 Y161.304 E.02681
G1 X145.201 Y161.597 E.02365
G1 X64.798 Y161.597 E2.52098
G1 X64.342 Y161.456 E.01497
G1 X63.696 Y160.896 E.02681
G1 X63.403 Y160.201 E.02365
G1 X63.403 Y69.798 E2.83452
G1 X63.544 Y69.342 E.01497
G1 X64.104 Y68.696 E.02681
G1 X64.799 Y68.403 E.02365
G1 X155.202 Y68.403 E2.83452
G1 X155.658 Y68.544 E.01497
G1 X156.304 Y69.104 E.02681
G1 X156.597 Y69.799 E.02365
G1 X156.597 Y170.202 E3.14807
G1 X156.456 Y170.658 E.01497
G1 X155.896 Y171.304 E.02681
G1 X155.201 Y171.597 E.02365
G1 X54.798 Y171.597 E3.14807
G1 X54.342 Y171.456 E.01497
G1 X53.696 Y170.896 E.02681
G1 X53.403 Y170.201 E.02365
G1 X53.403 Y59.798 E3.46161
G1 X53.544 Y59.342 E.01497
G1 X54.104 Y58.696 E.02681
G1 X54.799 Y58.403 E.02365
G1 X165.202 Y58.403 E3.46161
G1 X165.658 Y58.544 E.01497
G1 X166.304 Y59.104 E.02681
G1 X166.597 Y59.799 E.02365
G1 X166.597 Y180.202 E3.77515
G1 X166.456 Y180.658 E.01497
G1 X165.896 Y181.304 E.02681
G1 X165.201 Y181.597 E.02365
G1 X44.798 Y181.597 E3.77515
G1 X44.342 Y181.456 E.01497
G1 X43.696 Y180.896 E.02681
G1 X43.403 Y180.201 E.02365
G1 X43.403 Y49.798 E4.08869
G1 X43.544 Y49.342 E.01497
G1 X44.104 Y48.696 E.02681
G1 X44.799 Y48.403 E.02365
G1 X175.202 Y48.403 E4.08869
G1 X175.658 Y48.544 E.01497
G1 X176.304 Y49.104 E.02681
G1 X176.597 Y49.799 E.02365
G1 X176.597 Y190.202 E4.40224
G1 X176.456 Y190.658 E.01497
G1 X175.896 Y191.304 E.02681
G1 X175.201 Y191.597 E.02365
G1 X24.799 Y191.597 E4.71575
G1 X24.254 Y191.412 E.01805
G1 X23.698 Y190.898 E.02374
G1 X23.403 Y190.202 E.0237
G1 X23.403 Y29.799 E5.02932
G1 X23.588 Y29.254 E.01805
G1 X24.062 Y28.742 E.02188
G1 X24.327 Y29.007 F9000
G1 F1200
G1 X24.356 Y28.978 E.00129
G1 X24.829 Y28.78 E.01608
G1 X195.202 Y28.784 E5.34193
G1 X195.592 Y28.94 E.01317
G1 X196.023 Y29.357 E.0188
G1 X196.22 Y29.829 E.01604
G1 X196.22 Y190.169 E5.02735
G1 X196.025 Y190.642 E.01604
G1 X195.644 Y191.022 E.01687
G1 X195.171 Y191.22 E.01608
G1 X193.829 Y191.22 E.04208
G1 X193.357 Y191.024 E.01602
G1 X192.978 Y190.644 E.01683
G1 X192.78 Y190.171 E.01608
G1 X192.78 Y32.22 E4.95244
G1 X27.22 Y32.22 E5.19102
G1 X27.22 Y187.78 E4.87747
G1 X172.78 Y187.78 E4.56393
G1 X172.78 Y52.22 E4.25039
G1 X47.22 Y52.22 E3.93685
G1 X47.22 Y177.78 E3.93685
G1 X162.78 Y177.78 E3.6233
G1 X162.78 Y62.22 E3.6233
G1 X57.22 Y62.22 E3.30976
G1 X57.22 Y167.78 E3.30976
G1 X152.78 Y167.78 E2.99622
G1 X152.78 Y72.22 E2.99622
G1 X67.22 Y72.22 E2.68267
G1 X67.22 Y157.78 E2.68267
G1 X142.78 Y157.78 E2.36913
G1 X142.78 Y82.22 E2.36913
G1 X77.22 Y82.22 E2.05559
G1 X77.22 Y147.78 E2.05559
G1 X132.78 Y147.78 E1.74204
G1 X132.78 Y92.22 E1.74204
G1 X87.22 Y92.22 E1.4285
G1 X87.22 Y137.78 E1.4285
G1 X122.78 Y137.78 E1.11496
G1 X122.78 Y102.22 E1.11496
G1 X97.22 Y102.22 E.80142
G1 X97.22 Y127.78 E.80142
G1 X117.78 Y127.78 E.64464
G1 X117.78 Y107.22 E.64464
G1 X102.22 Y107.22 E.48787
G1 X102.22 Y122.78 E.48787
G1 X112.78 Y122.78 E.3311
G1 X112.78 Y112.22 E.3311
G1 X104.682 Y112.188 E.25391
G1 X104.358 Y112.025 E.01137
G1 X103.975 Y111.642 E.01698
G1 X103.784 Y111.202 E.01504
G1 X103.791 Y109.768 E.04496
G1 X103.956 Y109.382 E.01316
G1 X104.356 Y108.977 E.01785
G1 X104.829 Y108.78 E.01607
G1 X115.171 Y108.78 E.32427
G1 X115.617 Y108.956 E.01503
G1 X116.044 Y109.383 E.01893
G1 X116.22 Y109.829 E.01503
G1 X116.22 Y125.169 E.48097
G1 X116.088 Y125.552 E.0127
G1 X115.644 Y126.022 E.02027
G1 X115.171 Y126.22 E.01608
G1 X99.829 Y126.22 E.48104
G1 X99.383 Y126.044 E.01503
G1 X98.956 Y125.617 E.01893
G1 X98.78 Y125.171 E.01503
G1 X98.78 Y104.831 E.63775
G1 X98.912 Y104.448 E.0127
G1 X99.356 Y103.978 E.02027
G1 X99.829 Y103.78 E.01608
G1 X120.169 Y103.78 E.63775
G1 X120.552 Y103.912 E.0127
G1 X121.022 Y104.356 E.02027
G1 X121.22 Y104.829 E.01608
G1 X121.22 Y130.171 E.79458
G1 X121.022 Y130.644 E.01608
G1 X120.552 Y131.088 E.02027
G1 X120.169 Y131.22 E.0127
G1 X94.829 Y131.22 E.79452
G1 X94.356 Y131.022 E.01608
G1 X93.975 Y130.642 E.01687
G1 X93.78 Y130.169 E.01604
G1 X93.78 Y99.829 E.95129
G1 X93.978 Y99.356 E.01608
G1 X94.358 Y98.975 E.01687
G1 X94.831 Y98.78 E.01604
G1 X125.171 Y98.78 E.95129
G1 X125.644 Y98.978 E.01608
G1 X126.025 Y99.358 E.01687
G1 X126.22 Y99.831 E.01604
G1 X126.22 Y140.171 E1.26483
G1 X126.022 Y140.644 E.01608
G1 X125.642 Y141.025 E.01687
G1 X125.169 Y141.22 E.01604
G1 X84.829 Y141.22 E1.26483
G1 X84.356 Y141.022 E.01608
G1 X83.975 Y140.642 E.01687
G1 X83.78 Y140.169 E.01604
G1 X83.78 Y89.829 E1.57838
G1 X83.978 Y89.356 E.01608
G1 X84.358 Y88.975 E.01687
G1 X84.831 Y88.78 E.01604
G1 X135.171 Y88.78 E1.57838
G1 X135.644 Y88.978 E.01608
G1 X136.025 Y89.358 E.01687
G1 X136.22 Y89.831 E.01604
G1 X136.22 Y150.171 E1.89192
G1 X136.022 Y150.644 E.01608
G1 X135.642 Y151.025 E.01687
G1 X135.169 Y151.22 E.01604
G1 X74.829 Y151.22 E1.89192
G1 X74.356 Y151.022 E.01608
G1 X73.975 Y150.642 E.01687
G1 X73.78 Y150.169 E.01604
G1 X73.78 Y79.829 E2.20546
G1 X73.978 Y79.356 E.01608
G1 X74.358 Y78.975 E.01687
G1 X74.831 Y78.78 E.01604
G1 X145.171 Y78.78 E2.20546
G1 X145.644 Y78.978 E.01608
G1 X146.025 Y79.358 E.01687
G1 X146.22 Y79.831 E.01604
G1 X146.22 Y160.171 E2.519
G1 X146.022 Y160.644 E.01608
G1 X145.642 Y161.025 E.01687
G1 X145.169 Y161.22 E.01604
G1 X64.829 Y161.22 E2.519
G1 X64.356 Y161.022 E.01608
G1 X63.975 Y160.642 E.01687
G1 X63.78 Y160.169 E.01604
G1 X63.78 Y69.829 E2.83255
G1 X63.978 Y69.356 E.01608
G1 X64.358 Y68.975 E.01687
G1 X64.831 Y68.78 E.01604
G1 X155.171 Y68.78 E2.83255
G1 X155.644 Y68.978 E.01608
G1 X156.025 Y69.358 E.01687
G1 X156.22 Y69.831 E.01604
G1 X156.22 Y170.171 E3.14609
G1 X156.022 Y170.644 E.01608
G1 X155.642 Y171.025 E.01687
G1 X155.169 Y171.22 E.01604
G1 X54.829 Y171.22 E3.14609
G1 X54.356 Y171.022 E.01608
G1 X53.975 Y170.642 E.01687
G1 X53.78 Y170.169 E.01604
G1 X53.78 Y59.829 E3.45963
G1 X53.978 Y59.356 E.01608
G1 X54.358 Y58.975 E.01687
G1 X54.831 Y58.78 E.01604
G1 X165.171 Y58.78 E3.45963
G1 X165.644 Y58.978 E.01608
G1 X166.025 Y59.358 E.01687
G1 X166.22 Y59.831 E.01604
G1 X166.22 Y180.171 E3.77318
G1 X166.022 Y180.644 E.01608
G1 X165.642 Y181.025 E.01687
G1 X165.169 Y181.22 E.01604
G1 X44.829 Y181.22 E3.77318
G1 X44.356 Y181.022 E.01608
G1 X43.975 Y180.642 E.01687
G1 X43.78 Y180.169 E.01604
G1 X43.78 Y49.829 E4.08672
G1 X43.978 Y49.356 E.01608
G1 X44.358 Y48.975 E.01687
G1 X44.831 Y48.78 E.01604
G1 X175.171 Y48.78 E4.08672
G1 X175.644 Y48.978 E.01608
G1 X176.025 Y49.358 E.01687
G1 X176.22 Y49.831 E.01604
G1 X176.22 Y190.171 E4.40026
G1 X176.022 Y190.644 E.01608
G1 X175.642 Y191.025 E.01687
G1 X175.169 Y191.22 E.01604
G1 X24.831 Y191.22 E4.71374
G1 X24.358 Y191.025 E.01604
G1 X23.978 Y190.644 E.01687
G1 X23.78 Y190.171 E.01608
G1 X23.78 Y29.831 E5.02735
G1 X23.975 Y29.358 E.01604
G1 X24.284 Y29.049 E.0137
G1 X24.551 Y29.316 F9000
G1 F1200
G1 X24.61 Y29.257 E.00262
G1 X24.864 Y29.157 E.00856
G1 X195.182 Y29.164 E5.3402
G1 X195.4 Y29.267 E.00756
G1 X195.743 Y29.61 E.01521
G1 X195.843 Y29.864 E.00856
G1 X195.843 Y190.136 E5.02522
G1 X195.743 Y190.39 E.00856
G1 X195.39 Y190.743 E.01565
G1 X195.136 Y190.843 E.00856
G1 X193.818 Y190.836 E.04133
G1 X193.6 Y190.733 E.00756
G1 X193.257 Y190.39 E.01521
G1 X193.157 Y190.136 E.00856
G1 X193.157 Y31.843 E4.96317
G1 X26.843 Y31.843 E5.21466
G1 X26.843 Y188.157 E4.90112
G1 X173.157 Y188.157 E4.58757
G1 X173.157 Y51.843 E4.27403
G1 X46.843 Y51.843 E3.96049
G1 X46.843 Y178.157 E3.96049
G1 X163.157 Y178.157 E3.64694
G1 X163.157 Y61.843 E3.64694
G1 X56.843 Y61.843 E3.3334
G1 X56.843 Y168.157 E3.3334
G1 X153.157 Y168.157 E3.01986
G1 X153.157 Y71.843 E3.01986
G1 X66.843 Y71.843 E2.70631
G1 X66.843 Y158.157 E2.70631
G1 X143.157 Y158.157 E2.39277
G1 X143.157 Y81.843 E2.39277
G1 X76.843 Y81.843 E2.07923
G1 X76.843 Y148.157 E2.07923
G1 X133.157 Y148.157 E1.76569
G1 X133.157 Y91.843 E1.76569
G1 X86.843 Y91.843 E1.45214
G1 X86.843 Y138.157 E1.45214
G1 X123.157 Y138.157 E1.1386
G1 X123.157 Y101.843 E1.1386
G1 X96.843 Y101.843 E.82506
G1 X96.843 Y128.157 E.82506
G1 X118.157 Y128.157 E.66829
G1 X118.157 Y106.843 E.66829
G1 X101.843 Y106.843 E.51151
G1 X101.843 Y123.157 E.51151
G1 X113.157 Y123.157 E.35474
G1 X113.157 Y111.843 E.35474
G1 X104.818 Y111.836 E.26146
G1 X104.6 Y111.733 E.00756
G1 X104.267 Y111.4 E.01477
G1 X104.164 Y111.182 E.00756
G1 X104.157 Y109.864 E.04133
G1 X104.257 Y109.61 E.00856
G1 X104.61 Y109.257 E.01565
G1 X104.864 Y109.157 E.00856
G1 X115.136 Y109.157 E.32207
G1 X115.39 Y109.257 E.00856
G1 X115.743 Y109.61 E.01565
G1 X115.843 Y109.864 E.00856
G1 X115.843 Y125.136 E.47884
G1 X115.743 Y125.39 E.00856
G1 X115.39 Y125.743 E.01565
G1 X115.136 Y125.843 E.00856
G1 X99.864 Y125.843 E.47884
G1 X99.61 Y125.743 E.00856
G1 X99.257 Y125.39 E.01565
G1 X99.157 Y125.136 E.00856
G1 X99.157 Y104.864 E.63561
G1 X99.257 Y104.61 E.00856
G1 X99.61 Y104.257 E.01565
G1 X99.864 Y104.157 E.00856
G1 X120.136 Y104.157 E.63561
G1 X120.39 Y104.257 E.00856
G1 X120.743 Y104.61 E.01565
G1 X120.843 Y104.864 E.00856
G1 X120.843 Y130.136 E.79239
G1 X120.743 Y130.39 E.00856
G1 X120.39 Y130.743 E.01565
G1 X120.136 Y130.843 E.00856
G1 X94.864 Y130.843 E.79239
G1 X94.61 Y130.743 E.00856
G1 X94.257 Y130.39 E.01565
G1 X94.157 Y130.136 E.00856
G1 X94.157 Y99.864 E.94916
G1 X94.257 Y99.61 E.00856
G1 X94.61 Y99.257 E.01565
G1 X94.864 Y99.157 E.00856
G1 X125.136 Y99.157 E.94916
G1 X125.39 Y99.257 E.00856
G1 X125.743 Y99.61 E.01565
G1 X125.843 Y99.864 E.00856
G1 X125.843 Y140.136 E1.2627
G1 X125.743 Y140.39 E.00856
G1 X125.39 Y140.743 E.01565
G1 X125.136 Y140.843 E.00856
G1 X84.864 Y140.843 E1.2627
G1 X84.61 Y140.743 E.00856
G1 X84.257 Y140.39 E.01565
G1 X84.157 Y140.136 E.00856
G1 X84.157 Y89.864 E1.57624
