; generated by PrusaSlicer 2.7.1 on 2024-02-19 at 23:24:44 UTC

; 

; external perimeters extrusion width = 0.42mm
; perimeters extrusion width = 0.44mm
; infill extrusion width = 0.44mm
; solid infill extrusion width = 0.44mm
; top infill extrusion width = 0.40mm
; first layer extrusion width = 0.42mm


; printing object 20x20x15_mm_hollow_cube.stl id:0 copy 0
; stop printing object 20x20x15_mm_hollow_cube.stl id:0 copy 0

;TYPE:Custom


; Pre-Processed for Cancel-Object support by preprocess_cancellation v0.2.0
; 1 known objects
EXCLUDE_OBJECT_DEFINE NAME=20x20x15_mm_hollow_cube_stl_id_0_copy_0 CENTER=110.258,109.802 POLYGON=[[100.21,100.21],[100.21,119.79],[119.79,119.79],[119.79,100.21]]
G90 ; use absolute coordinates
M83 ; extruder relative mode
M104 S150 ; set temporary nozzle temp to prevent oozing during homing
M140 S60 ; set final bed temp
G4 S30 ; allow partial nozzle warmup
G28 ; home all axis and restore leveling
M109 S0
M190 S0
start_print EXTRUDER_TEMP=210 BED_TEMP=60
G1 Z50 F240
G1 X2.0 Y10 F3000
M104 S210 ; set final nozzle temp
M190 S60 ; wait for bed temp to stabilize
M109 S210 ; wait for nozzle temp to stabilize
G1 Z0.28 F240
G92 E0
G1 X2.0 Y140 E10 F1500 ; prime the nozzle
G1 X2.3 Y140 F5000
G92 E0
G1 X2.3 Y10 E10 F1200 ; prime the nozzle
G92 E0
G21 ; set units to millimeters
G90 ; use absolute coordinates
M83 ; use relative distances for extrusion
; Filament gcode
M107
;LAYER_CHANGE
;Z:0.2
;HEIGHT:0.2
;BEFORE_LAYER_CHANGE
G92 E0
;0.2


G1 E-.8 F1800
G1 Z.2 F9000
;AFTER_LAYER_CHANGE
;0.2
G1 X97.742 Y97.001
G1 Z.2
G1 E.8 F1800
M204 S500
;TYPE:Skirt/Brim
;WIDTH:0.42
G1 F1200
G1 X100 Y96.246 E.07465
G1 X120 Y96.246 E.62709
G1 X121.676 Y96.641 E.05399
G1 X122.999 Y97.742 E.05397
G1 X123.754 Y100 E.07465
G1 X123.754 Y120 E.62709
G1 X123.359 Y121.676 E.05399
G1 X122.258 Y122.999 E.05397
G1 X120 Y123.754 E.07465
G1 X100 Y123.754 E.62709
G1 X98.324 Y123.359 E.05399
G1 X97.001 Y122.258 E.05397
G1 X96.246 Y120 E.07465
G1 X96.246 Y100 E.62709
G1 X96.641 Y98.324 E.05399
G1 X97.703 Y97.047 E.05208
G1 X98.004 Y97.318 F9000
G1 F1200
G1 X98.107 Y97.203 E.00484
G1 X100 Y96.623 E.06208
G1 X120 Y96.623 E.62709
G1 X121.583 Y97.017 E.05115
G1 X122.797 Y98.107 E.05116
G1 X123.377 Y100 E.06208
G1 X123.377 Y120 E.62709
G1 X122.983 Y121.583 E.05115
G1 X121.893 Y122.797 E.05116
G1 X120 Y123.377 E.06208
G1 X100 Y123.377 E.62709
G1 X98.417 Y122.983 E.05115
G1 X97.203 Y121.893 E.05116
G1 X96.623 Y120 E.06208
G1 X96.623 Y100 E.62709
G1 X97.017 Y98.417 E.05115
G1 X97.964 Y97.362 E.04445
; printing object 20x20x15_mm_hollow_cube.stl id:0 copy 0
EXCLUDE_OBJECT_START NAME=20x20x15_mm_hollow_cube_stl_id_0_copy_0
;WIPE_START
G1 F7200
G1 X98.004 Y97.318 E-.01412
G1 X98.107 Y97.203 E-.03667
G1 X100 Y96.623 E-.47022
G1 X101.175 Y96.623 E-.27899
;WIPE_END
G1 X101.064 Y101.064 F9000
G1 E.8 F1800
;TYPE:Perimeter
;WIDTH:0.419999
G1 F1200
G1 X118.936 Y101.064 E.56036
G1 X118.936 Y110 E.28018
G1 X118.936 Y118.936 E.28018
G1 X101.064 Y118.936 E.56036
G1 X101.064 Y101.124 E.55848
G1 X100.687 Y100.687 F9000
G1 F1200
G1 X119.313 Y100.687 E.584
G1 X119.313 Y110 E.292
G1 X119.313 Y119.313 E.292
G1 X100.687 Y119.313 E.584
G1 X100.687 Y100.747 E.58212
G1 X100.31 Y100.31 F9000
;TYPE:External perimeter
G1 F1200
G1 X119.69 Y100.31 E.60765
G1 X119.69 Y110 E.30382
G1 X119.69 Y119.69 E.30382
G1 X100.31 Y119.69 E.60765
G1 X100.31 Y100.37 E.60576
;WIPE_START
G1 F7200
G1 X100.31 Y100.31 E-.01425
G1 X103.618 Y100.31 E-.78575
;WIPE_END
G1 X118.815 Y101.95 F9000
G1 E.8 F1800
;TYPE:Solid infill
;WIDTH:0.421502
G1 F1200
G1 X118.219 Y101.355 E.02651
G1 X117.684 Y101.355 E.01684
G1 X118.645 Y102.316 E.04278
G1 X118.645 Y102.851 E.01684
G1 X117.149 Y101.355 E.0666
G1 X116.613 Y101.355 E.01687
G1 X118.645 Y103.387 E.09046
G1 X118.645 Y103.922 E.01684
G1 X116.078 Y101.355 E.11428
G1 X115.542 Y101.355 E.01687
G1 X118.645 Y104.458 E.13814
G1 X118.645 Y104.993 E.01684
G1 X115.007 Y101.355 E.16196
G1 X114.472 Y101.355 E.01684
G1 X118.645 Y105.528 E.18578
G1 X118.645 Y106.064 E.01687
G1 X113.936 Y101.355 E.20964
G1 X113.401 Y101.355 E.01684
G1 X118.645 Y106.599 E.23345
G1 X118.645 Y107.135 E.01687
G1 X112.865 Y101.355 E.25732
G1 X112.33 Y101.355 E.01684
G1 X118.645 Y107.67 E.28113
G1 X118.645 Y108.205 E.01684
G1 X111.795 Y101.355 E.30495
G1 X111.259 Y101.355 E.01687
G1 X118.645 Y108.741 E.32881
G1 X118.645 Y109.276 E.01684
G1 X110.724 Y101.355 E.35263
G1 X110.188 Y101.355 E.01687
G1 X118.645 Y109.812 E.37649
G1 X118.645 Y110.347 E.01684
G1 X109.653 Y101.355 E.40031
G1 X109.118 Y101.355 E.01684
G1 X118.645 Y110.882 E.42413
G1 X118.645 Y111.418 E.01687
G1 X108.582 Y101.355 E.44799
G1 X108.047 Y101.355 E.01684
G1 X118.645 Y111.953 E.47181
G1 X118.645 Y112.489 E.01687
G1 X107.511 Y101.355 E.49567
G1 X106.976 Y101.355 E.01684
G1 X118.645 Y113.024 E.51948
G1 X118.645 Y113.559 E.01684
G1 X106.441 Y101.355 E.5433
G1 X105.905 Y101.355 E.01687
G1 X118.645 Y114.095 E.56716
G1 X118.645 Y114.63 E.01684
G1 X105.37 Y101.355 E.59098
G1 X104.835 Y101.355 E.01684
G1 X118.645 Y115.165 E.6148
G1 X118.645 Y115.701 E.01687
G1 X104.299 Y101.355 E.63866
G1 X103.764 Y101.355 E.01684
G1 X118.645 Y116.236 E.66248
G1 X118.645 Y116.772 E.01687
G1 X103.228 Y101.355 E.68634
G1 X102.693 Y101.355 E.01684
G1 X118.645 Y117.307 E.71016
G1 X118.645 Y117.842 E.01684
G1 X102.158 Y101.355 E.73397
G1 X101.622 Y101.355 E.01687
G1 X118.645 Y118.378 E.75784
G1 X118.645 Y118.645 E.0084
G1 X118.378 Y118.645 E.0084
G1 X101.355 Y101.622 E.75784
G1 X101.355 Y102.158 E.01687
G1 X117.842 Y118.645 E.73397
G1 X117.307 Y118.645 E.01684
G1 X101.355 Y102.693 E.71016
G1 X101.355 Y103.228 E.01684
G1 X116.772 Y118.645 E.68634
G1 X116.236 Y118.645 E.01687
G1 X101.355 Y103.764 E.66248
G1 X101.355 Y104.299 E.01684
G1 X115.701 Y118.645 E.63866
G1 X115.165 Y118.645 E.01687
G1 X101.355 Y104.835 E.6148
G1 X101.355 Y105.37 E.01684
G1 X114.63 Y118.645 E.59098
G1 X114.095 Y118.645 E.01684
G1 X101.355 Y105.905 E.56716
G1 X101.355 Y106.441 E.01687
G1 X113.559 Y118.645 E.5433
G1 X113.024 Y118.645 E.01684
G1 X101.355 Y106.976 E.51948
G1 X101.355 Y107.512 E.01687
G1 X112.488 Y118.645 E.49562
G1 X111.953 Y118.645 E.01684
G1 X101.355 Y108.047 E.47181
G1 X101.355 Y108.582 E.01684
G1 X111.418 Y118.645 E.44799
G1 X110.882 Y118.645 E.01687
G1 X101.355 Y109.118 E.42413
G1 X101.355 Y109.653 E.01684
G1 X110.347 Y118.645 E.40031
G1 X109.811 Y118.645 E.01687
G1 X101.355 Y110.189 E.37645
G1 X101.355 Y110.724 E.01684
G1 X109.276 Y118.645 E.35263
G1 X108.741 Y118.645 E.01684
G1 X101.355 Y111.259 E.32881
G1 X101.355 Y111.795 E.01687
G1 X108.205 Y118.645 E.30495
G1 X107.67 Y118.645 E.01684
G1 X101.355 Y112.33 E.28113
G1 X101.355 Y112.866 E.01687
G1 X107.134 Y118.645 E.25727
G1 X106.599 Y118.645 E.01684
G1 X101.355 Y113.401 E.23345
G1 X101.355 Y113.936 E.01684
G1 X106.064 Y118.645 E.20964
G1 X105.528 Y118.645 E.01687
G1 X101.355 Y114.472 E.18578
G1 X101.355 Y115.007 E.01684
G1 X104.993 Y118.645 E.16196
G1 X104.457 Y118.645 E.01687
G1 X101.355 Y115.543 E.1381
G1 X101.355 Y116.078 E.01684
G1 X103.922 Y118.645 E.11428
G1 X103.387 Y118.645 E.01684
G1 X101.355 Y116.613 E.09046
G1 X101.355 Y117.149 E.01687
G1 X102.851 Y118.645 E.0666
G1 X102.316 Y118.645 E.01684
G1 X101.355 Y117.684 E.04278
G1 X101.355 Y118.22 E.01687
G1 X101.95 Y118.815 E.02649
; stop printing object 20x20x15_mm_hollow_cube.stl id:0 copy 0
EXCLUDE_OBJECT_END NAME=20x20x15_mm_hollow_cube_stl_id_0_copy_0
M106 S255
;LAYER_CHANGE
;Z:0.48
;HEIGHT:0.28
;BEFORE_LAYER_CHANGE
G92 E0
;0.48


;WIPE_START
G1 F7200
G1 X101.355 Y118.22 E-.19985
G1 X101.355 Y117.684 E-.1273
G1 X102.316 Y118.645 E-.32278
G1 X102.851 Y118.645 E-.12706
G1 X102.782 Y118.576 E-.02301
;WIPE_END
G1 Z.48 F9000
;AFTER_LAYER_CHANGE
;0.48
M104 S205 ; set temperature
G1 X102.782 Y123.754
G1 E.8 F1800
;TYPE:Skirt/Brim
;WIDTH:0.42
G1 F2400
G1 X100 Y123.754 E.11656
G1 X98.324 Y123.359 E.07214
G1 X97.001 Y122.258 E.07211
G1 X96.246 Y120 E.09975
G1 X96.246 Y100 E.83795
G1 X96.641 Y98.324 E.07214
G1 X97.742 Y97.001 E.07211
G1 X100 Y96.246 E.09975
G1 X120 Y96.246 E.83795
G1 X121.676 Y96.641 E.07214
G1 X122.999 Y97.742 E.07211
G1 X123.754 Y100 E.09975
G1 X123.754 Y120 E.83795
G1 X123.359 Y121.676 E.07214
G1 X122.258 Y122.999 E.07211
G1 X120 Y123.754 E.09975
G1 X102.842 Y123.754 E.71888
G1 X102.842 Y123.377 F9000
G1 F2400
G1 X100 Y123.377 E.11907
G1 X98.417 Y122.983 E.06835
G1 X97.203 Y121.893 E.06836
G1 X96.623 Y120 E.08295
G1 X96.623 Y100 E.83795
G1 X97.017 Y98.417 E.06835
G1 X98.107 Y97.203 E.06836
G1 X100 Y96.623 E.08295
G1 X120 Y96.623 E.83795
G1 X121.583 Y97.017 E.06835
G1 X122.797 Y98.107 E.06836
G1 X123.377 Y100 E.08295
G1 X123.377 Y120 E.83795
G1 X122.983 Y121.583 E.06835
G1 X121.893 Y122.797 E.06836
G1 X120 Y123.377 E.08295
G1 X102.902 Y123.377 E.71636
; printing object 20x20x15_mm_hollow_cube.stl id:0 copy 0
EXCLUDE_OBJECT_START NAME=20x20x15_mm_hollow_cube_stl_id_0_copy_0
;WIPE_START
G1 F7200
G1 X102.842 Y123.377 E-.01425
G1 X100 Y123.377 E-.67497
G1 X99.547 Y123.264 E-.11078
;WIPE_END
G1 X100.96 Y119.04 F9000
G1 E.8 F1800
;TYPE:Perimeter
;WIDTH:0.44
G1 F3600
G1 X100.96 Y100.96 E.7996
G1 X119.04 Y100.96 E.7996
G1 X119.04 Y110 E.3998
G1 X119.04 Y119.04 E.3998
G1 X101.02 Y119.04 E.79695
G1 X100.58 Y119.42 F9000
G1 F3600
G1 X100.58 Y100.58 E.83321
G1 X119.42 Y100.58 E.83321
G1 X119.42 Y110 E.41661
G1 X119.42 Y119.42 E.41661
G1 X100.64 Y119.42 E.83056
G1 X100.21 Y119.79 F9000
;TYPE:External perimeter
;WIDTH:0.42
G1 F1800
G1 X100.21 Y100.21 E.82035
G1 X119.79 Y100.21 E.82035
G1 X119.79 Y110 E.41018
G1 X119.79 Y119.79 E.41018
G1 X100.27 Y119.79 E.81784
;WIPE_START
G1 F7200
G1 X100.21 Y119.79 E-.01425
G1 X100.21 Y116.482 E-.78575
;WIPE_END
G1 X101.355 Y101.283 F9000
G1 E.8 F1800
;TYPE:Solid infill
;WIDTH:0.532175
G1 F3600
G1 X101.314 Y101.241 E.00323
G1 X101.257 Y101.257 E.00325
G1 X101.241 Y101.314 E.00325
G1 X101.283 Y101.355 E.00323
G1 X101.34 Y101.34 E.00324
;WIDTH:0.44
G1 X101.252 Y101.947 E.02713
G1 X101.947 Y101.252 E.04347
G1 X102.484 Y101.252 E.02375
G1 X101.252 Y102.484 E.07705
G1 X101.252 Y103.022 E.02379
G1 X103.022 Y101.252 E.1107
G1 X103.559 Y101.252 E.02375
G1 X101.252 Y103.559 E.14429
G1 X101.252 Y104.096 E.02375
G1 X104.096 Y101.252 E.17788
G1 X104.633 Y101.252 E.02375
G1 X101.252 Y104.633 E.21146
G1 X101.252 Y105.171 E.02379
G1 X105.171 Y101.252 E.24511
G1 X105.708 Y101.252 E.02375
G1 X101.252 Y105.708 E.2787
G1 X101.252 Y106.245 E.02375
G1 X106.245 Y101.252 E.31228
G1 X106.782 Y101.252 E.02375
G1 X101.252 Y106.782 E.34587
G1 X101.252 Y107.32 E.02379
G1 X107.32 Y101.252 E.37952
G1 X107.857 Y101.252 E.02375
G1 X101.252 Y107.857 E.41311
G1 X101.252 Y108.394 E.02375
G1 X108.394 Y101.252 E.44669
G1 X108.932 Y101.252 E.02379
G1 X101.252 Y108.932 E.48034
G1 X101.252 Y109.469 E.02375
G1 X109.469 Y101.252 E.51393
G1 X110.006 Y101.252 E.02375
G1 X101.252 Y110.006 E.54751
G1 X101.252 Y110.543 E.02375
G1 X110.543 Y101.252 E.5811
G1 X111.081 Y101.252 E.02379
G1 X101.252 Y111.081 E.61475
G1 X101.252 Y111.618 E.02375
G1 X111.618 Y101.252 E.64834
G1 X112.155 Y101.252 E.02375
G1 X101.252 Y112.155 E.68192
G1 X101.252 Y112.692 E.02375
G1 X112.693 Y101.252 E.71554
G1 X113.23 Y101.252 E.02375
G1 X101.252 Y113.23 E.74916
G1 X101.252 Y113.767 E.02375
G1 X113.767 Y101.252 E.78274
G1 X114.304 Y101.252 E.02375
G1 X101.252 Y114.304 E.81633
G1 X101.252 Y114.842 E.02379
G1 X114.842 Y101.252 E.84998
G1 X115.379 Y101.252 E.02375
G1 X101.252 Y115.379 E.88357
G1 X101.252 Y115.916 E.02375
G1 X115.916 Y101.252 E.91715
G1 X116.453 Y101.252 E.02375
G1 X101.252 Y116.453 E.95074
G1 X101.252 Y116.991 E.02379
G1 X116.991 Y101.252 E.98439
G1 X117.528 Y101.252 E.02375
G1 X101.252 Y117.528 E1.01797
G1 X101.252 Y118.065 E.02375
G1 X118.065 Y101.252 E1.05156
G1 X118.888 Y101.142 F9000
;WIDTH:0.400089
G1 F3600
G1 X118.817 Y101.123 E.00291
G1 X118.836 Y101.194 E.00291
G1 X118.877 Y101.183 E.00168
;WIDTH:0.44
G1 X118.603 Y101.252 E.0125
G1 X101.252 Y118.603 E1.08521
G1 X101.183 Y118.877 E.0125
;WIDTH:0.400089
G1 X101.142 Y118.888 E.00168
G1 X101.123 Y118.817 E.00291
G1 X101.194 Y118.836 E.00291
;WIDTH:0.44
G1 X101.645 Y118.748 E.02032
G1 X118.748 Y101.645 E1.0697
G1 X118.748 Y102.182 E.02375
G1 X102.182 Y118.748 E1.03611
G1 X102.719 Y118.748 E.02375
G1 X118.748 Y102.719 E1.00253
G1 X118.748 Y103.256 E.02375
G1 X103.256 Y118.748 E.96894
G1 X103.794 Y118.748 E.02379
G1 X118.748 Y103.794 E.93529
G1 X118.748 Y104.331 E.02375
G1 X104.331 Y118.748 E.9017
G1 X104.868 Y118.748 E.02375
G1 X118.748 Y104.868 E.86812
G1 X118.748 Y105.405 E.02375
G1 X105.405 Y118.748 E.83453
G1 X105.943 Y118.748 E.02379
G1 X118.748 Y105.943 E.80088
G1 X118.748 Y106.48 E.02375
G1 X106.48 Y118.748 E.7673
G1 X107.017 Y118.748 E.02375
G1 X118.748 Y107.017 E.73371
G1 X118.748 Y107.555 E.02379
G1 X107.555 Y118.748 E.70006
G1 X108.092 Y118.748 E.02375
G1 X118.748 Y108.092 E.66647
G1 X118.748 Y108.629 E.02375
G1 X108.629 Y118.748 E.63289
G1 X109.166 Y118.748 E.02375
G1 X118.748 Y109.166 E.5993
G1 X118.748 Y109.704 E.02379
G1 X109.704 Y118.748 E.56565
G1 X110.241 Y118.748 E.02375
G1 X118.748 Y110.241 E.53207
G1 X118.748 Y110.778 E.02375
G1 X110.778 Y118.748 E.49848
G1 X111.315 Y118.748 E.02375
G1 X118.748 Y111.315 E.46489
G1 X118.748 Y111.853 E.02379
G1 X111.853 Y118.748 E.43124
G1 X112.39 Y118.748 E.02375
G1 X118.748 Y112.39 E.39766
G1 X118.748 Y112.927 E.02375
G1 X112.927 Y118.748 E.36407
G1 X113.465 Y118.748 E.02379
G1 X118.748 Y113.465 E.33042
G1 X118.748 Y114.002 E.02375
G1 X114.002 Y118.748 E.29684
G1 X114.539 Y118.748 E.02375
G1 X118.748 Y114.539 E.26325
G1 X118.748 Y115.076 E.02375
G1 X115.076 Y118.748 E.22966
G1 X115.614 Y118.748 E.02379
G1 X118.748 Y115.614 E.19601
G1 X118.748 Y116.151 E.02375
G1 X116.151 Y118.748 E.16243
G1 X116.688 Y118.748 E.02375
G1 X118.748 Y116.688 E.12884
G1 X118.748 Y117.225 E.02375
G1 X117.225 Y118.748 E.09526
G1 X117.763 Y118.748 E.02379
G1 X118.748 Y117.763 E.06161
G1 X118.951 Y118.143 E.01905
;WIDTH:0.400089
G1 X118.88 Y118.124 E.00291
G1 X118.899 Y118.195 E.00291
G1 X118.94 Y118.184 E.00168
;WIDTH:0.44
G1 X118.748 Y118.3 E.00992
G1 X118.3 Y118.748 E.02802
G1 X118.184 Y118.94 E.00992
;WIDTH:0.400089
G1 X118.143 Y118.951 E.00168
G1 X118.124 Y118.88 E.00291
G1 X118.195 Y118.899 E.00291
; stop printing object 20x20x15_mm_hollow_cube.stl id:0 copy 0
EXCLUDE_OBJECT_END NAME=20x20x15_mm_hollow_cube_stl_id_0_copy_0
;LAYER_CHANGE
;Z:0.76
;HEIGHT:0.28
;BEFORE_LAYER_CHANGE
G92 E0
;0.76


;WIPE_START
G1 F7200
G1 X118.124 Y118.88 E-.01746
G1 X118.143 Y118.951 E-.01746
G1 X118.184 Y118.94 E-.01008
;WIPE_END
G1 E-.755 F1800
G1 Z.76 F9000
;AFTER_LAYER_CHANGE
;0.76
; printing object 20x20x15_mm_hollow_cube.stl id:0 copy 0
EXCLUDE_OBJECT_START NAME=20x20x15_mm_hollow_cube_stl_id_0_copy_0
G1 X119.04 Y119.04
G1 E.8 F1800
;TYPE:Perimeter
;WIDTH:0.44
G1 F3468
G1 X100.96 Y119.04 E.7996
G1 X100.96 Y100.96 E.7996
G1 X119.04 Y100.96 E.7996
G1 X119.04 Y110 E.3998
G1 X119.04 Y118.98 E.39715
G1 X119.42 Y119.42 F9000
G1 F3468
G1 X100.58 Y119.42 E.83321
G1 X100.58 Y100.58 E.83321
G1 X119.42 Y100.58 E.83321
G1 X119.42 Y110 E.41661
G1 X119.42 Y119.36 E.41395
G1 X119.79 Y119.79 F9000
;TYPE:External perimeter
;WIDTH:0.42
G1 F1800
G1 X100.21 Y119.79 E.82035
G1 X100.21 Y100.21 E.82035
G1 X119.79 Y100.21 E.82035
G1 X119.79 Y110 E.41018
G1 X119.79 Y119.73 E.40766
;WIPE_START
G1 F7200
G1 X119.79 Y119.79 E-.01425
G1 X116.482 Y119.79 E-.78575
;WIPE_END
G1 X101.283 Y118.645 F9000
G1 E.8 F1800
;TYPE:Solid infill
;WIDTH:0.532175
G1 F3468
G1 X101.241 Y118.686 E.00323
G1 X101.257 Y118.743 E.00325
G1 X101.314 Y118.759 E.00325
G1 X101.355 Y118.717 E.00323
G1 X101.34 Y118.66 E.00324
;WIDTH:0.44
G1 X101.252 Y118.053 E.02713
G1 X101.947 Y118.748 E.04347
G1 X102.484 Y118.748 E.02375
G1 X101.252 Y117.516 E.07705
G1 X101.252 Y116.978 E.02379
G1 X103.022 Y118.748 E.1107
G1 X103.559 Y118.748 E.02375
G1 X101.252 Y116.441 E.14429
G1 X101.252 Y115.904 E.02375
G1 X104.096 Y118.748 E.17788
G1 X104.633 Y118.748 E.02375
G1 X101.252 Y115.367 E.21146
G1 X101.252 Y114.829 E.02379
G1 X105.171 Y118.748 E.24511
G1 X105.708 Y118.748 E.02375
G1 X101.252 Y114.292 E.2787
G1 X101.252 Y113.755 E.02375
