; HEADER_BLOCK_START
; generated by OrcaSlicer 1.9.1 on 2024-02-19 at 22:04:10
; total layer number: 4
; filament_density: 1.24
; filament_diameter: 1.75
; max_z_height: 0.85
; HEADER_BLOCK_END

; THUMBNAIL_BLOCK_START

;
; THUMBNAIL_BLOCK_END

; external perimeters extrusion width = 0.45mm
; perimeters extrusion width = 0.45mm
; infill extrusion width = 0.45mm
; solid infill extrusion width = 0.45mm
; top infill extrusion width = 0.40mm
; first layer extrusion width = 0.56mm

; EXECUTABLE_BLOCK_START


; Pre-Processed for Cancel-Object support by preprocess_cancellation v0.2.0
; 1 known objects
EXCLUDE_OBJECT_DEFINE NAME=Cube_id_94094206570576_copy_0 CENTER=73.163,80.005 POLYGON=[[70.686,77.732],[70.686,82.282],[75.236,82.282],[75.236,77.732]]
M73 P0 R10
M201 X500 Y500 Z100 E5000
M203 X500 Y500 Z10 E60
M204 P500 R1000 T500
M205 X8.00 Y8.00 Z0.40 E5.00 ; sets the jerk limits, mm/sec
;TYPE:Custom
G90 ; use absolute coordinates
M83 ; extruder relative mode
M140 S60 ; set final bed temp
M104 S150 ; set temporary nozzle temp to prevent oozing during homing
G4 S10 ; allow partial nozzle warmup
G28 ; home all axis
G1 Z50 F240
G1 X2 Y10 F3000
M104 S220 ; set final nozzle temp
M190 S60 ; wait for bed temp to stabilize
M109 S220 ; wait for nozzle temp to stabilize
M73 P2 R9
G1 Z0.28 F240
G92 E0
G1 Y140 E10 F1500 ; prime the nozzle
M73 P4 R9
G1 X2.3 F5000
G92 E0
M73 P5 R9
G1 Y10 E10 F1200 ; prime the nozzle
G92 E0
G90
G21
M83 ; use relative distances for extrusion
; filament start gcode
M106 S0
;LAYER_CHANGE
;Z:0.25
;HEIGHT:0.25
;BEFORE_LAYER_CHANGE
;0.25
G92 E0

;_SET_FAN_SPEED_CHANGING_LAYER
;CUSTOM_GCODE
; start pressure advance pattern for layer
G1 E-1 F3600
M73 P6 R9
G1 X70.461 Y84.507 F9000
G1 E1 F2400
G1 Z.25 F9000
M900 K0; Override pressure advance value
G1 E-1 F3600
G1 X70.461 Y84.507 F9000
G1 E1 F2400
G1 F1800
G1 X70.461 Y126.933 E2.1882

G1 X154.539 Y126.933 E4.33647

G1 X154.539 Y84.507 E2.1882

M73 P7 R9
G1 X70.461 Y84.507 E4.33647
G1 E-1 F3600
G1 X70.967 Y85.013 F9000
G1 E1 F2400
G1 F1800
G1 X70.967 Y126.427 E2.13597

G1 X154.033 Y126.427 E4.28424

G1 X154.033 Y85.013 E2.13597

M73 P8 R9
G1 X70.967 Y85.013 E4.28424
G1 E-1 F3600
M73 P9 R9
G1 X71.473 Y85.519 F9000
G1 E1 F2400
G1 F1800
G1 X71.473 Y125.921 E2.08374

G1 X153.527 Y125.921 E4.23201

G1 X153.527 Y85.519 E2.08374

G1 X71.473 Y85.519 E4.23201
M73 P10 R9
G1 E-1 F3600
G1 X70.461 Y127.44 F9000
G1 E1 F2400
G1 F1800
G1 X70.461 Y140.946 E.69661

G1 X134.73 Y140.946 E3.3148

G1 X134.73 Y127.44 E.69661

M73 P11 R8
G1 X70.461 Y127.44 E3.3148
G1 E-1 F3600
G1 X70.967 Y127.946 F9000
G1 E1 F2400
G1 F1800
G1 X70.967 Y140.44 E.64438

G1 X134.224 Y140.44 E3.26257

G1 X134.224 Y127.946 E.64438

G1 X70.967 Y127.946 E3.26257
M73 P12 R8
G1 E-1 F3600
G1 X71.473 Y128.452 F9000
G1 E1 F2400
G1 F1800
G1 X71.473 Y139.933 E.59215

G1 X133.718 Y139.933 E3.21034

G1 X133.718 Y128.452 E.59215

G1 X71.473 Y128.452 E3.21034
G1 E-1 F3600
M73 P13 R8
G1 X71.847 Y128.826 F9000
G1 E1 F2400
G1 E-1 F3600
G1 X72.563 Y128.826 F9000
G1 E1 F2400
G1 F1800
G1 X71.847 Y129.542 E.05223
G1 E-1 F3600
G1 X71.847 Y130.258 F9000
G1 E1 F2400
G1 F1800
G1 X73.279 Y128.826 E.10446
G1 E-1 F3600
G1 X73.995 Y128.826 F9000
G1 E1 F2400
G1 F1800
G1 X71.847 Y130.974 E.15669
G1 E-1 F3600
G1 X71.847 Y131.69 F9000
G1 E1 F2400
G1 F1800
G1 X74.711 Y128.826 E.20893
G1 E-1 F3600
G1 X75.427 Y128.826 F9000
G1 E1 F2400
G1 F1800
G1 X71.847 Y132.406 E.26116
G1 E-1 F3600
G1 X71.847 Y133.122 F9000
G1 E1 F2400
G1 F1800
G1 X76.143 Y128.826 E.31339
G1 E-1 F3600
G1 X76.859 Y128.826 F9000
G1 E1 F2400
G1 F1800
G1 X71.847 Y133.838 E.36562
G1 E-1 F3600
G1 X71.847 Y134.554 F9000
G1 E1 F2400
G1 F1800
G1 X77.575 Y128.826 E.41785
G1 E-1 F3600
G1 X78.291 Y128.826 F9000
G1 E1 F2400
G1 F1800
G1 X71.847 Y135.27 E.47008
G1 E-1 F3600
G1 X71.847 Y135.986 F9000
G1 E1 F2400
G1 F1800
G1 X79.008 Y128.826 E.52231
G1 E-1 F3600
G1 X79.724 Y128.826 F9000
G1 E1 F2400
G1 F1800
G1 X71.847 Y136.703 E.57454
G1 E-1 F3600
M73 P14 R8
G1 X71.847 Y137.419 F9000
G1 E1 F2400
G1 F1800
G1 X80.44 Y128.826 E.62678
G1 E-1 F3600
G1 X81.156 Y128.826 F9000
G1 E1 F2400
G1 F1800
G1 X71.847 Y138.135 E.67901
G1 E-1 F3600
G1 X71.847 Y138.851 F9000
G1 E1 F2400
G1 F1800
G1 X81.872 Y128.826 E.73124
G1 E-1 F3600
G1 X82.588 Y128.826 F9000
G1 E1 F2400
G1 F1800
G1 X71.854 Y139.56 E.78296
G1 E-1 F3600
G1 X72.57 Y139.56 F9000
G1 E1 F2400
G1 F1800
G1 X83.304 Y128.826 E.78296
G1 E-1 F3600
G1 X84.02 Y128.826 F9000
G1 E1 F2400
G1 F1800
G1 X73.286 Y139.56 E.78296
G1 E-1 F3600
G1 X74.002 Y139.56 F9000
G1 E1 F2400
G1 F1800
G1 X84.736 Y128.826 E.78296
G1 E-1 F3600
G1 X85.452 Y128.826 F9000
G1 E1 F2400
G1 F1800
G1 X74.718 Y139.56 E.78296
G1 E-1 F3600
G1 X75.434 Y139.56 F9000
G1 E1 F2400
G1 F1800
G1 X86.168 Y128.826 E.78296
G1 E-1 F3600
M73 P15 R8
G1 X86.885 Y128.826 F9000
G1 E1 F2400
G1 F1800
G1 X76.15 Y139.56 E.78296
G1 E-1 F3600
G1 X76.866 Y139.56 F9000
G1 E1 F2400
G1 F1800
G1 X87.601 Y128.826 E.78296
G1 E-1 F3600
G1 X88.317 Y128.826 F9000
G1 E1 F2400
G1 F1800
G1 X77.582 Y139.56 E.78296
G1 E-1 F3600
G1 X78.298 Y139.56 F9000
G1 E1 F2400
G1 F1800
G1 X89.033 Y128.826 E.78296
G1 E-1 F3600
G1 X89.749 Y128.826 F9000
G1 E1 F2400
G1 F1800
G1 X79.015 Y139.56 E.78296
G1 E-1 F3600
G1 X79.731 Y139.56 F9000
G1 E1 F2400
G1 F1800
G1 X90.465 Y128.826 E.78296
G1 E-1 F3600
G1 X91.181 Y128.826 F9000
G1 E1 F2400
G1 F1800
G1 X80.447 Y139.56 E.78296
G1 E-1 F3600
G1 X81.163 Y139.56 F9000
G1 E1 F2400
G1 F1800
G1 X91.897 Y128.826 E.78296
G1 E-1 F3600
G1 X92.613 Y128.826 F9000
G1 E1 F2400
G1 F1800
G1 X81.879 Y139.56 E.78296
G1 E-1 F3600
M73 P16 R8
G1 X82.595 Y139.56 F9000
G1 E1 F2400
G1 F1800
G1 X93.329 Y128.826 E.78296
G1 E-1 F3600
G1 X94.045 Y128.826 F9000
G1 E1 F2400
G1 F1800
G1 X83.311 Y139.56 E.78296
G1 E-1 F3600
G1 X84.027 Y139.56 F9000
G1 E1 F2400
G1 F1800
G1 X94.761 Y128.826 E.78296
G1 E-1 F3600
G1 X95.478 Y128.826 F9000
G1 E1 F2400
G1 F1800
G1 X84.743 Y139.56 E.78296
G1 E-1 F3600
G1 X85.459 Y139.56 F9000
G1 E1 F2400
G1 F1800
G1 X96.194 Y128.826 E.78296
G1 E-1 F3600
G1 X96.91 Y128.826 F9000
G1 E1 F2400
G1 F1800
G1 X86.175 Y139.56 E.78296
G1 E-1 F3600
G1 X86.892 Y139.56 F9000
G1 E1 F2400
G1 F1800
G1 X97.626 Y128.826 E.78296
G1 E-1 F3600
G1 X98.342 Y128.826 F9000
G1 E1 F2400
G1 F1800
G1 X87.608 Y139.56 E.78296
G1 E-1 F3600
M73 P17 R8
G1 X88.324 Y139.56 F9000
G1 E1 F2400
G1 F1800
G1 X99.058 Y128.826 E.78296
G1 E-1 F3600
G1 X99.774 Y128.826 F9000
G1 E1 F2400
G1 F1800
G1 X89.04 Y139.56 E.78296
G1 E-1 F3600
G1 X89.756 Y139.56 F9000
G1 E1 F2400
G1 F1800
G1 X100.49 Y128.826 E.78296
G1 E-1 F3600
G1 X101.206 Y128.826 F9000
G1 E1 F2400
G1 F1800
G1 X90.472 Y139.56 E.78296
G1 E-1 F3600
G1 X91.188 Y139.56 F9000
G1 E1 F2400
G1 F1800
G1 X101.922 Y128.826 E.78296
G1 E-1 F3600
G1 X102.638 Y128.826 F9000
G1 E1 F2400
G1 F1800
G1 X91.904 Y139.56 E.78296
G1 E-1 F3600
G1 X92.62 Y139.56 F9000
G1 E1 F2400
G1 F1800
G1 X103.354 Y128.826 E.78296
G1 E-1 F3600
G1 X104.071 Y128.826 F9000
G1 E1 F2400
G1 F1800
G1 X93.336 Y139.56 E.78296
G1 E-1 F3600
G1 X94.052 Y139.56 F9000
G1 E1 F2400
G1 F1800
G1 X104.787 Y128.826 E.78296
G1 E-1 F3600
M73 P18 R8
G1 X105.503 Y128.826 F9000
G1 E1 F2400
G1 F1800
G1 X94.768 Y139.56 E.78296
G1 E-1 F3600
G1 X95.485 Y139.56 F9000
G1 E1 F2400
G1 F1800
G1 X106.219 Y128.826 E.78296
G1 E-1 F3600
G1 X106.935 Y128.826 F9000
G1 E1 F2400
G1 F1800
G1 X96.201 Y139.56 E.78296
G1 E-1 F3600
G1 X96.917 Y139.56 F9000
G1 E1 F2400
G1 F1800
G1 X107.651 Y128.826 E.78296
G1 E-1 F3600
G1 X108.367 Y128.826 F9000
G1 E1 F2400
G1 F1800
G1 X97.633 Y139.56 E.78296
G1 E-1 F3600
G1 X98.349 Y139.56 F9000
G1 E1 F2400
G1 F1800
G1 X109.083 Y128.826 E.78296
G1 E-1 F3600
G1 X109.799 Y128.826 F9000
G1 E1 F2400
G1 F1800
G1 X99.065 Y139.56 E.78296
G1 E-1 F3600
G1 X99.781 Y139.56 F9000
G1 E1 F2400
G1 F1800
G1 X110.515 Y128.826 E.78296
G1 E-1 F3600
G1 X111.231 Y128.826 F9000
M73 P19 R8
G1 E1 F2400
G1 F1800
G1 X100.497 Y139.56 E.78296
G1 E-1 F3600
G1 X101.213 Y139.56 F9000
G1 E1 F2400
G1 F1800
G1 X111.948 Y128.826 E.78296
G1 E-1 F3600
G1 X112.664 Y128.826 F9000
G1 E1 F2400
G1 F1800
G1 X101.929 Y139.56 E.78296
G1 E-1 F3600
G1 X102.645 Y139.56 F9000
G1 E1 F2400
G1 F1800
G1 X113.38 Y128.826 E.78296
G1 E-1 F3600
G1 X114.096 Y128.826 F9000
G1 E1 F2400
G1 F1800
G1 X103.362 Y139.56 E.78296
G1 E-1 F3600
G1 X104.078 Y139.56 F9000
G1 E1 F2400
G1 F1800
G1 X114.812 Y128.826 E.78296
G1 E-1 F3600
G1 X115.528 Y128.826 F9000
G1 E1 F2400
G1 F1800
G1 X104.794 Y139.56 E.78296
G1 E-1 F3600
G1 X105.51 Y139.56 F9000
G1 E1 F2400
G1 F1800
G1 X116.244 Y128.826 E.78296
G1 E-1 F3600
G1 X116.96 Y128.826 F9000
G1 E1 F2400
G1 F1800
G1 X106.226 Y139.56 E.78296
G1 E-1 F3600
M73 P20 R8
G1 X106.942 Y139.56 F9000
G1 E1 F2400
G1 F1800
G1 X117.676 Y128.826 E.78296
G1 E-1 F3600
G1 X118.392 Y128.826 F9000
G1 E1 F2400
G1 F1800
G1 X107.658 Y139.56 E.78296
G1 E-1 F3600
G1 X108.374 Y139.56 F9000
G1 E1 F2400
G1 F1800
G1 X119.108 Y128.826 E.78296
G1 E-1 F3600
G1 X119.824 Y128.826 F9000
G1 E1 F2400
G1 F1800
G1 X109.09 Y139.56 E.78296
G1 E-1 F3600
G1 X109.806 Y139.56 F9000
G1 E1 F2400
G1 F1800
G1 X120.541 Y128.826 E.78296
G1 E-1 F3600
G1 X121.257 Y128.826 F9000
G1 E1 F2400
G1 F1800
G1 X110.522 Y139.56 E.78296
G1 E-1 F3600
G1 X111.238 Y139.56 F9000
G1 E1 F2400
G1 F1800
G1 X121.973 Y128.826 E.78296
G1 E-1 F3600
G1 X122.689 Y128.826 F9000
G1 E1 F2400
G1 F1800
G1 X111.955 Y139.56 E.78296
G1 E-1 F3600
M73 P20 R7
G1 X112.671 Y139.56 F9000
G1 E1 F2400
G1 F1800
M73 P21 R7
G1 X123.405 Y128.826 E.78296
G1 E-1 F3600
G1 X124.121 Y128.826 F9000
G1 E1 F2400
G1 F1800
G1 X113.387 Y139.56 E.78296
G1 E-1 F3600
G1 X114.103 Y139.56 F9000
G1 E1 F2400
G1 F1800
G1 X124.837 Y128.826 E.78296
G1 E-1 F3600
G1 X125.553 Y128.826 F9000
G1 E1 F2400
G1 F1800
G1 X114.819 Y139.56 E.78296
G1 E-1 F3600
G1 X115.535 Y139.56 F9000
G1 E1 F2400
G1 F1800
G1 X126.269 Y128.826 E.78296
G1 E-1 F3600
G1 X126.985 Y128.826 F9000
G1 E1 F2400
G1 F1800
G1 X116.251 Y139.56 E.78296
G1 E-1 F3600
G1 X116.967 Y139.56 F9000
G1 E1 F2400
G1 F1800
G1 X127.701 Y128.826 E.78296
G1 E-1 F3600
G1 X128.418 Y128.826 F9000
G1 E1 F2400
G1 F1800
G1 X117.683 Y139.56 E.78296
G1 E-1 F3600
G1 X118.399 Y139.56 F9000
G1 E1 F2400
G1 F1800
G1 X129.134 Y128.826 E.78296
G1 E-1 F3600
M73 P22 R7
G1 X129.85 Y128.826 F9000
G1 E1 F2400
G1 F1800
G1 X119.115 Y139.56 E.78296
G1 E-1 F3600
G1 X119.831 Y139.56 F9000
G1 E1 F2400
G1 F1800
G1 X130.566 Y128.826 E.78296
G1 E-1 F3600
G1 X131.282 Y128.826 F9000
G1 E1 F2400
G1 F1800
G1 X120.548 Y139.56 E.78296
G1 E-1 F3600
G1 X121.264 Y139.56 F9000
G1 E1 F2400
G1 F1800
G1 X131.998 Y128.826 E.78296
G1 E-1 F3600
G1 X132.714 Y128.826 F9000
G1 E1 F2400
G1 F1800
G1 X121.98 Y139.56 E.78296
G1 E-1 F3600
G1 X122.696 Y139.56 F9000
G1 E1 F2400
G1 F1800
G1 X133.344 Y128.911 E.77671
G1 E-1 F3600
G1 X133.344 Y129.627 F9000
G1 E1 F2400
G1 F1800
G1 X123.412 Y139.56 E.72448
G1 E-1 F3600
G1 X124.128 Y139.56 F9000
G1 E1 F2400
G1 F1800
G1 X133.344 Y130.343 E.67225
G1 E-1 F3600
G1 X133.344 Y131.06 F9000
G1 E1 F2400
G1 F1800
G1 X124.844 Y139.56 E.62001
G1 E-1 F3600
M73 P23 R7
G1 X125.56 Y139.56 F9000
G1 E1 F2400
G1 F1800
G1 X133.344 Y131.776 E.56778
G1 E-1 F3600
G1 X133.344 Y132.492 F9000
G1 E1 F2400
G1 F1800
G1 X126.276 Y139.56 E.51555
G1 E-1 F3600
G1 X126.992 Y139.56 F9000
G1 E1 F2400
G1 F1800
G1 X133.344 Y133.208 E.46332
G1 E-1 F3600
G1 X133.344 Y133.924 F9000
G1 E1 F2400
G1 F1800
G1 X127.708 Y139.56 E.41109
G1 E-1 F3600
G1 X128.425 Y139.56 F9000
G1 E1 F2400
G1 F1800
G1 X133.344 Y134.64 E.35886
G1 E-1 F3600
G1 X133.344 Y135.356 F9000
G1 E1 F2400
G1 F1800
G1 X129.141 Y139.56 E.30663
G1 E-1 F3600
G1 X129.857 Y139.56 F9000
G1 E1 F2400
G1 F1800
G1 X133.344 Y136.072 E.2544
G1 E-1 F3600
G1 X133.344 Y136.788 F9000
G1 E1 F2400
G1 F1800
G1 X130.573 Y139.56 E.20216
G1 E-1 F3600
G1 X131.289 Y139.56 F9000
G1 E1 F2400
G1 F1800
G1 X133.344 Y137.504 E.14993
G1 E-1 F3600
G1 X133.344 Y138.22 F9000
G1 E1 F2400
G1 F1800
G1 X132.005 Y139.56 E.0977
G1 E-1 F3600
G1 X132.721 Y139.56 F9000
G1 E1 F2400
G1 F1800
G1 X133.344 Y138.936 E.04547
G1 Z.45 F9000
G1 E-1 F3600
G1 X74.419 Y85.893 F9000
G1 E1 F2400
G1 Z.25 F9000
M900 K0; Override pressure advance value
G1 F1800
G1 X94.247 Y105.72 E1.13202

G1 X74.419 Y125.547 E1.13202
M73 P24 R7
G1 Z.45 F9000
G1 E-1 F3600
G1 X74.995 Y85.893 F9000
G1 E1 F2400
G1 Z.25 F9000
G1 F1800
G1 X94.822 Y105.72 E1.13202

G1 X74.995 Y125.547 E1.13202
G1 Z.45 F9000
G1 E-1 F3600
G1 X75.571 Y85.893 F9000
G1 E1 F2400
G1 Z.25 F9000
G1 F1800
G1 X95.398 Y105.72 E1.13202

G1 X75.571 Y125.547 E1.13202
G1 Z.45 F9000
M73 P25 R7
G1 E-1 F3600
G1 X78.021 Y85.893 F9000
G1 E1 F2400
G1 Z.25 F9000
M900 K0.005; Override pressure advance value
G1 F1800
G1 X97.848 Y105.72 E1.13202

G1 X78.021 Y125.547 E1.13202
G1 Z.45 F9000
G1 E-1 F3600
G1 X78.596 Y85.893 F9000
G1 E1 F2400
G1 Z.25 F9000
G1 F1800
G1 X98.424 Y105.72 E1.13202

G1 X78.596 Y125.547 E1.13202
G1 Z.45 F9000
M73 P26 R7
G1 E-1 F3600
G1 X79.172 Y85.893 F9000
G1 E1 F2400
G1 Z.25 F9000
G1 F1800
G1 X98.999 Y105.72 E1.13202

G1 X79.172 Y125.547 E1.13202
G1 Z.45 F9000
G1 E-1 F3600
G1 X81.622 Y85.893 F9000
G1 E1 F2400
G1 Z.25 F9000
M900 K0.01; Override pressure advance value
G1 F1800
G1 X101.449 Y105.72 E1.13202

G1 X81.622 Y125.547 E1.13202
G1 Z.45 F9000
G1 E-1 F3600
G1 X82.198 Y85.893 F9000
G1 E1 F2400
M73 P27 R7
G1 Z.25 F9000
G1 F1800
G1 X102.025 Y105.72 E1.13202

G1 X82.198 Y125.547 E1.13202
G1 Z.45 F9000
G1 E-1 F3600
G1 X82.774 Y85.893 F9000
G1 E1 F2400
G1 Z.25 F9000
G1 F1800
G1 X102.601 Y105.72 E1.13202

G1 X82.774 Y125.547 E1.13202
G1 Z.45 F9000
G1 E-1 F3600
G1 X85.224 Y85.893 F9000
G1 E1 F2400
G1 Z.25 F9000
M900 K0.015; Override pressure advance value
G1 F1800
G1 X105.051 Y105.72 E1.13202

G1 X85.224 Y125.547 E1.13202
M73 P28 R7
G1 Z.45 F9000
G1 E-1 F3600
G1 X85.799 Y85.893 F9000
G1 E1 F2400
G1 Z.25 F9000
G1 F1800
G1 X105.626 Y105.72 E1.13202

G1 X85.799 Y125.547 E1.13202
G1 Z.45 F9000
G1 E-1 F3600
G1 X86.375 Y85.893 F9000
G1 E1 F2400
G1 Z.25 F9000
G1 F1800
G1 X106.202 Y105.72 E1.13202

G1 X86.375 Y125.547 E1.13202
M73 P29 R7
G1 Z.45 F9000
G1 E-1 F3600
G1 X88.825 Y85.893 F9000
G1 E1 F2400
G1 Z.25 F9000
M900 K0.02; Override pressure advance value
G1 F1800
G1 X108.652 Y105.72 E1.13202

G1 X88.825 Y125.547 E1.13202
G1 Z.45 F9000
G1 E-1 F3600
G1 X89.401 Y85.893 F9000
G1 E1 F2400
G1 Z.25 F9000
G1 F1800
G1 X109.228 Y105.72 E1.13202

G1 X89.401 Y125.547 E1.13202
G1 Z.45 F9000
M73 P30 R7
G1 E-1 F3600
G1 X89.976 Y85.893 F9000
G1 E1 F2400
G1 Z.25 F9000
G1 F1800
G1 X109.804 Y105.72 E1.13202

G1 X89.976 Y125.547 E1.13202
G1 Z.45 F9000
G1 E-1 F3600
G1 X92.426 Y85.893 F9000
G1 E1 F2400
G1 Z.25 F9000
M900 K0.025; Override pressure advance value
G1 F1800
G1 X112.254 Y105.72 E1.13202

G1 X92.426 Y125.547 E1.13202
M73 P30 R6
G1 Z.45 F9000
M73 P31 R6
G1 E-1 F3600
G1 X93.002 Y85.893 F9000
G1 E1 F2400
G1 Z.25 F9000
G1 F1800
G1 X112.829 Y105.72 E1.13202

G1 X93.002 Y125.547 E1.13202
G1 Z.45 F9000
G1 E-1 F3600
G1 X93.578 Y85.893 F9000
G1 E1 F2400
G1 Z.25 F9000
G1 F1800
G1 X113.405 Y105.72 E1.13202

G1 X93.578 Y125.547 E1.13202
G1 Z.45 F9000
G1 E-1 F3600
G1 X96.028 Y85.893 F9000
G1 E1 F2400
M73 P32 R6
G1 Z.25 F9000
M900 K0.03; Override pressure advance value
G1 F1800
G1 X115.855 Y105.72 E1.13202

G1 X96.028 Y125.547 E1.13202
G1 Z.45 F9000
G1 E-1 F3600
G1 X96.603 Y85.893 F9000
G1 E1 F2400
G1 Z.25 F9000
G1 F1800
G1 X116.431 Y105.72 E1.13202

G1 X96.603 Y125.547 E1.13202
G1 Z.45 F9000
G1 E-1 F3600
G1 X97.179 Y85.893 F9000
G1 E1 F2400
G1 Z.25 F9000
G1 F1800
G1 X117.006 Y105.72 E1.13202

G1 X97.179 Y125.547 E1.13202
M73 P33 R6
G1 Z.45 F9000
G1 E-1 F3600
G1 X99.629 Y85.893 F9000
G1 E1 F2400
G1 Z.25 F9000
M900 K0.035; Override pressure advance value
G1 F1800
G1 X119.456 Y105.72 E1.13202

G1 X99.629 Y125.547 E1.13202
G1 Z.45 F9000
G1 E-1 F3600
G1 X100.205 Y85.893 F9000
G1 E1 F2400
G1 Z.25 F9000
G1 F1800
G1 X120.032 Y105.72 E1.13202

G1 X100.205 Y125.547 E1.13202
G1 Z.45 F9000
M73 P34 R6
G1 E-1 F3600
G1 X100.781 Y85.893 F9000
G1 E1 F2400
G1 Z.25 F9000
G1 F1800
G1 X120.608 Y105.72 E1.13202

G1 X100.781 Y125.547 E1.13202
G1 Z.45 F9000
G1 E-1 F3600
G1 X103.231 Y85.893 F9000
G1 E1 F2400
G1 Z.25 F9000
M900 K0.04; Override pressure advance value
