; generated by PrusaSlicer 2.7.1 on 2024-03-13 at 19:18:30 UTC


;
;

;
;
; 

; external perimeters extrusion width = 0.42mm
; perimeters extrusion width = 0.44mm
; infill extrusion width = 0.44mm
; solid infill extrusion width = 0.44mm
; top infill extrusion width = 0.40mm
; first layer extrusion width = 0.42mm

; external perimeters extrusion width = 0.42mm
; perimeters extrusion width = 0.44mm
; infill extrusion width = 0.44mm
; solid infill extrusion width = 0.44mm
; top infill extrusion width = 0.40mm
; first layer extrusion width = 0.42mm

; external perimeters extrusion width = 0.42mm
; perimeters extrusion width = 0.44mm
; infill extrusion width = 0.44mm
; solid infill extrusion width = 0.44mm
; top infill extrusion width = 0.40mm
; first layer extrusion width = 0.42mm



; Pre-Processed for Cancel-Object support by preprocess_cancellation v0.2.0
; 6 known objects
EXCLUDE_OBJECT_DEFINE NAME=emax_goggles_button_v1_stl_id_2_copy_0 CENTER=126.051,147.432 POLYGON=[[122.727,144.128],[122.727,150.706],[129.304,150.706],[129.304,144.128]]
EXCLUDE_OBJECT_DEFINE NAME=emax_goggles_button_v1_stl_id_2_copy_1 CENTER=125.873,157.473 POLYGON=[[122.546,154.169],[122.546,160.746],[129.122,160.746],[129.122,154.169]]
EXCLUDE_OBJECT_DEFINE NAME=emax_goggles_button_v1_stl_id_2_copy_2 CENTER=113.802,157.819 POLYGON=[[110.473,154.523],[110.473,161.1],[117.05,161.1],[117.05,154.523]]
EXCLUDE_OBJECT_DEFINE NAME=emax_goggles_button_v1_stl_id_2_copy_3 CENTER=113.227,147.252 POLYGON=[[109.9,143.948],[109.9,150.525],[116.477,150.525],[116.477,143.948]]
EXCLUDE_OBJECT_DEFINE NAME=emax_goggles_front_v1_stl_id_0_copy_0 CENTER=119.322,154.117 POLYGON=[[53.522,116.057],[53.522,191.637],[185.102,191.637],[185.102,116.057]]
EXCLUDE_OBJECT_DEFINE NAME=emax_goggles_back_v1_stl_id_1_copy_0 CENTER=114.731,76.262 POLYGON=[[48.802,35.92],[48.802,111.5],[180.382,111.5],[180.382,35.92]]
M201 X500 Y500 Z100 E5000 ; sets maximum accelerations, mm/sec^2
M203 X500 Y500 Z10 E60 ; sets maximum feedrates, mm / sec
M204 S500 T1000 ; sets acceleration (S) and retract acceleration (R), mm/sec^2
M205 X8.00 Y8.00 Z0.40 E5.00 ; sets the jerk limits, mm/sec
M205 S0 T0 ; sets the minimum extruding and travel feed rate, mm/sec

; printing object emax_goggles_button_v1.stl id:2 copy 0
EXCLUDE_OBJECT_START NAME=emax_goggles_button_v1_stl_id_2_copy_0
; stop printing object emax_goggles_button_v1.stl id:2 copy 0
EXCLUDE_OBJECT_END NAME=emax_goggles_button_v1_stl_id_2_copy_0
; printing object emax_goggles_button_v1.stl id:2 copy 1
EXCLUDE_OBJECT_START NAME=emax_goggles_button_v1_stl_id_2_copy_1
; stop printing object emax_goggles_button_v1.stl id:2 copy 1
EXCLUDE_OBJECT_END NAME=emax_goggles_button_v1_stl_id_2_copy_1
; printing object emax_goggles_button_v1.stl id:2 copy 2
EXCLUDE_OBJECT_START NAME=emax_goggles_button_v1_stl_id_2_copy_2
; stop printing object emax_goggles_button_v1.stl id:2 copy 2
EXCLUDE_OBJECT_END NAME=emax_goggles_button_v1_stl_id_2_copy_2
; printing object emax_goggles_button_v1.stl id:2 copy 3
EXCLUDE_OBJECT_START NAME=emax_goggles_button_v1_stl_id_2_copy_3
; stop printing object emax_goggles_button_v1.stl id:2 copy 3
EXCLUDE_OBJECT_END NAME=emax_goggles_button_v1_stl_id_2_copy_3
; printing object emax_goggles_front_v1.stl id:0 copy 0
EXCLUDE_OBJECT_START NAME=emax_goggles_front_v1_stl_id_0_copy_0
; stop printing object emax_goggles_front_v1.stl id:0 copy 0
EXCLUDE_OBJECT_END NAME=emax_goggles_front_v1_stl_id_0_copy_0
; printing object emax_goggles_back_v1.stl id:1 copy 0
EXCLUDE_OBJECT_START NAME=emax_goggles_back_v1_stl_id_1_copy_0
; stop printing object emax_goggles_back_v1.stl id:1 copy 0
EXCLUDE_OBJECT_END NAME=emax_goggles_back_v1_stl_id_1_copy_0

;TYPE:Custom
G90 ; use absolute coordinates
M83 ; extruder relative mode
G28
M109 S0
M190 S0
start_print EXTRUDER_TEMP=210 BED_TEMP=60

M104 S150 ; set temporary nozzle temp to prevent oozing during homing
M140 S60 ; set final bed temp
G4 S30 ; allow partial nozzle warmup
G28 ; home all axis and restore leveling

G1 Z50 F240
G1 X2.0 Y10 F3000
M104 S210 ; set final nozzle temp
M190 S60 ; wait for bed temp to stabilize
M109 S210 ; wait for nozzle temp to stabilize
G1 Z0.28 F240
G92 E0
G1 X2.0 Y140 E10 F1500 ; prime the nozzle
G1 X2.3 Y140 F5000
G92 E0
G1 X2.3 Y10 E10 F1200 ; prime the nozzle
G92 E0
G21 ; set units to millimeters
G90 ; use absolute coordinates
M83 ; use relative distances for extrusion
; Filament gcode
M107
;LAYER_CHANGE
;Z:0.2
;HEIGHT:0.2
;BEFORE_LAYER_CHANGE
G92 E0
;0.2


G1 E-.8 F1800
G1 Z.2 F9000
;AFTER_LAYER_CHANGE
;0.2
G1 X46.864 Y39.095
G1 Z.2
G1 E.8 F1800
M204 S500
;TYPE:Skirt/Brim
;WIDTH:0.42
G1 F1200
G1 X51.978 Y33.982 E.22674
G1 X53.376 Y33.141 E.05115
G1 X54.366 Y32.993 E.03139
G1 X174.819 Y32.993 E3.77672
G1 X176.402 Y33.387 E.05115
G1 X177.207 Y33.982 E.03139
G1 X182.32 Y39.095 E.22672
G1 X183.304 Y41.285 E.07528
G1 X188.029 Y121.62 E2.5232
G1 X188.029 Y186.074 E2.02091
G1 X187.635 Y187.657 E.05115
G1 X187.04 Y188.462 E.03139
G1 X181.926 Y193.575 E.22674
G1 X180.528 Y194.416 E.05115
G1 X179.538 Y194.564 E.03139
G1 X58.152 Y194.564 E3.80597
G1 X56.569 Y194.17 E.05115
G1 X55.764 Y193.575 E.03139
G1 X51.584 Y189.395 E.18535
G1 X50.6 Y187.203 E.07534
G1 X45.881 Y106.133 E2.5462
G1 X45.875 Y41.483 E2.02706
G1 X46.269 Y39.9 E.05115
G1 X46.829 Y39.144 E.0295
;WIPE_START
G1 F7200
G1 X46.864 Y39.095 E-.0143
G1 X49.203 Y36.756 E-.7857
;WIPE_END
G1 X111.129 Y144.297 F9000
G1 E.8 F1800
G1 F1200
G1 X111.749 Y143.949 E.02229
G1 X112.419 Y143.731 E.02209
G1 X113.125 Y143.648 E.02229
G1 X113.834 Y143.706 E.0223
G1 X114.517 Y143.903 E.02229
G1 X115.148 Y144.23 E.02228
G1 X115.702 Y144.676 E.0223
G1 X116.157 Y145.221 E.02226
G1 X116.496 Y145.846 E.02229
G1 X116.705 Y146.526 E.02231
G1 X116.776 Y147.233 E.02228
G1 X116.706 Y147.94 E.02228
G1 X116.498 Y148.62 E.0223
G1 X116.161 Y149.246 E.02229
G1 X115.706 Y149.792 E.02228
G1 X115.153 Y150.239 E.0223
G1 X114.522 Y150.567 E.0223
G1 X113.362 Y150.82 E.03723
G1 X112.652 Y150.784 E.02229
G1 X111.963 Y150.609 E.02229
G1 X111.323 Y150.302 E.02226
G1 X110.755 Y149.874 E.0223
G1 X110.283 Y149.343 E.02228
G1 X109.924 Y148.729 E.0223
G1 X109.694 Y148.056 E.0223
G1 X109.601 Y147.352 E.02227
G1 X109.649 Y146.642 E.02231
G1 X109.835 Y145.956 E.02229
G1 X110.153 Y145.321 E.02227
G1 X110.59 Y144.76 E.0223
G1 X111.084 Y144.336 E.02041
G1 X110.882 Y144.03 F9000
G1 F1200
G1 X111.342 Y143.727 E.01727
G1 X111.856 Y143.501 E.01761
G1 X112.618 Y143.312 E.02462
G1 X113.403 Y143.277 E.02464
G1 X114.179 Y143.397 E.02462
G1 X114.916 Y143.667 E.02461
G1 X115.586 Y144.078 E.02464
G1 X116.161 Y144.613 E.02463
G1 X116.62 Y145.251 E.02464
G1 X116.944 Y145.966 E.02461
G1 X117.121 Y146.732 E.02465
G1 X117.143 Y147.517 E.02462
G1 X117.01 Y148.291 E.02462
G1 X116.727 Y149.024 E.02464
G1 X116.305 Y149.686 E.02462
G1 X115.761 Y150.253 E.02464
G1 X115.116 Y150.701 E.02462
G1 X114.146 Y151.084 E.0327
G1 X112.879 Y151.189 E.03986
G1 X112.106 Y151.051 E.02462
G1 X111.375 Y150.763 E.02463
G1 X110.715 Y150.336 E.02465
G1 X110.153 Y149.788 E.02461
G1 X109.709 Y149.14 E.02463
G1 X109.402 Y148.417 E.02463
G1 X109.244 Y147.647 E.02465
G1 X109.24 Y146.862 E.02461
G1 X109.391 Y146.091 E.02463
G1 X109.691 Y145.365 E.02463
G1 X110.129 Y144.713 E.02463
G1 X110.686 Y144.159 E.02463
G1 X110.832 Y144.063 E.00548
G1 X110.583 Y143.775 F9000
G1 F1200
G1 X110.69 Y143.683 E.00442
G1 X111.434 Y143.263 E.02679
G1 X112.265 Y142.992 E.02741
G1 X113.081 Y142.895 E.02577
G1 X113.977 Y142.966 E.02818
G1 X114.804 Y143.205 E.02699
G1 X115.566 Y143.603 E.02695
G1 X116.236 Y144.143 E.02698
G1 X116.786 Y144.805 E.02699
G1 X117.195 Y145.562 E.02698
G1 X117.446 Y146.384 E.02695
G1 X117.53 Y147.202 E.02578
G1 X117.444 Y148.096 E.02816
G1 X117.191 Y148.919 E.027
G1 X116.781 Y149.675 E.02697
G1 X116.257 Y150.308 E.02577
G1 X115.559 Y150.874 E.02818
G1 X114.826 Y151.258 E.02595
G1 X114.226 Y151.453 E.01978
G1 X113.407 Y151.573 E.02595
G1 X112.548 Y151.532 E.02696
G1 X111.714 Y151.321 E.02697
G1 X110.937 Y150.951 E.02698
G1 X110.249 Y150.434 E.02698
G1 X109.677 Y149.792 E.02696
G1 X109.242 Y149.05 E.02697
G1 X108.962 Y148.237 E.02696
G1 X108.847 Y147.384 E.02699
G1 X108.903 Y146.525 E.02699
G1 X109.127 Y145.695 E.02696
G1 X109.511 Y144.925 E.02698
G1 X110.039 Y144.245 E.02699
G1 X110.538 Y143.815 E.02065
G1 X110.327 Y143.5 F9000
G1 F1200
G1 X110.964 Y143.073 E.02404
G1 X111.631 Y142.781 E.02283
G1 X112.538 Y142.562 E.02926
G1 X113.473 Y142.525 E.02934
G1 X114.397 Y142.674 E.02935
G1 X115.272 Y143.002 E.0293
G1 X116.066 Y143.496 E.02932
G1 X116.747 Y144.137 E.02932
G1 X117.288 Y144.899 E.0293
G1 X117.668 Y145.753 E.02931
G1 X117.872 Y146.664 E.02927
G1 X117.893 Y147.599 E.02932
G1 X117.729 Y148.521 E.02936
G1 X117.386 Y149.39 E.02929
G1 X116.88 Y150.175 E.02928
G1 X116.228 Y150.845 E.02931
G1 X115.761 Y151.193 E.01826
G1 X114.977 Y151.604 E.02775
G1 X113.783 Y151.918 E.03871
G1 X112.85 Y151.943 E.02926
G1 X111.929 Y151.784 E.0293
G1 X111.057 Y151.447 E.02931
G1 X110.269 Y150.944 E.02931
G1 X109.595 Y150.296 E.02932
G1 X109.062 Y149.528 E.02931
G1 X108.691 Y148.67 E.02931
G1 X108.497 Y147.756 E.0293
G1 X108.487 Y146.821 E.02932
G1 X108.661 Y145.902 E.02933
G1 X109.012 Y145.036 E.0293
G1 X109.528 Y144.256 E.02932
G1 X110.187 Y143.593 E.02931
G1 X110.277 Y143.533 E.00339
G1 X110.037 Y143.255 F9000
G1 F1200
G1 X110.247 Y143.072 E.00873
G1 X111.117 Y142.579 E.03135
G1 X112.115 Y142.253 E.03292
G1 X113.038 Y142.142 E.02915
G1 X114.125 Y142.226 E.03418
G1 X115.094 Y142.509 E.03165
G1 X115.988 Y142.977 E.03164
G1 X116.759 Y143.6 E.03108
G1 X117.417 Y144.391 E.03226
G1 X117.895 Y145.28 E.03165
G1 X118.188 Y146.246 E.03165
G1 X118.284 Y147.171 E.02916
G1 X118.182 Y148.256 E.03417
G1 X117.89 Y149.203 E.03107
G1 X117.399 Y150.107 E.03226
G1 X116.808 Y150.823 E.02911
G1 X115.979 Y151.501 E.03358
G1 X115.129 Y151.949 E.03013
G1 X114.387 Y152.19 E.02446
G1 X113.456 Y152.326 E.0295
G1 X112.447 Y152.279 E.03167
G1 X111.468 Y152.034 E.03164
G1 X110.556 Y151.601 E.03165
G1 X109.747 Y150.997 E.03166
G1 X109.073 Y150.245 E.03166
G1 X108.561 Y149.375 E.03165
G1 X108.23 Y148.421 E.03166
G1 X108.094 Y147.42 E.03167
G1 X108.157 Y146.412 E.03167
G1 X108.418 Y145.437 E.03165
G1 X108.867 Y144.532 E.03168
G1 X109.484 Y143.734 E.03163
G1 X109.991 Y143.294 E.02105
;WIPE_START
G1 F7200
G1 X110.037 Y143.255 E-.01432
G1 X110.247 Y143.072 E-.06616
G1 X111.117 Y142.579 E-.23749
G1 X112.115 Y142.253 E-.24935
G1 X113.038 Y142.142 E-.22079
G1 X113.088 Y142.146 E-.01189
;WIPE_END
G1 X119.363 Y146.445 F9000
G1 E.8 F1800
G1 F1200
G1 X119.863 Y146.456 E.01568
G1 X119.789 Y147.6 E.03594
G1 X119.839 Y148.203 E.01897
G1 X119.331 Y148.201 E.01593
G1 X119.415 Y147.161 E.03271
G1 X119.368 Y146.505 E.02062
G1 X118.967 Y146.551 F9000
G1 F1200
G1 X118.902 Y145.999 E.01743
G1 X119.104 Y146.062 E.00663
G1 X120.083 Y146.084 E.0307
G1 X120.343 Y146.018 E.00841
G1 X120.185 Y146.927 E.02893
G1 X120.166 Y147.601 E.02114
G1 X120.301 Y148.658 E.03341
G1 X120.026 Y148.581 E.00895
G1 X118.864 Y148.639 E.03648
G1 X119.038 Y147.158 E.04676
G1 X118.974 Y146.611 E.01727
G1 X118.607 Y146.65 F9000
G1 F1200
G1 X118.555 Y146.16 E.01545
G1 X118.282 Y145.24 E.03009
G1 X118.785 Y145.567 E.01881
G1 X119.19 Y145.694 E.01331
G1 X120.06 Y145.707 E.02728
G1 X120.476 Y145.587 E.01358
G1 X120.987 Y145.273 E.01881
G1 X120.615 Y146.519 E.04077
G1 X120.544 Y147.601 E.034
G1 X120.687 Y148.676 E.034
G1 X120.926 Y149.41 E.0242
G1 X120.42 Y149.091 E.01875
G1 X119.997 Y148.958 E.0139
G1 X119.125 Y148.955 E.02734
G1 X118.712 Y149.076 E.01349
G1 X118.224 Y149.378 E.01799
G1 X118.55 Y148.337 E.0342
G1 X118.66 Y147.155 E.03722
G1 X118.613 Y146.71 E.01403
;WIPE_START
G1 F7200
G1 X118.607 Y146.65 E-.01432
G1 X118.555 Y146.16 E-.11703
G1 X118.282 Y145.24 E-.22792
G1 X118.785 Y145.567 E-.14249
G1 X119.19 Y145.694 E-.10081
G1 X120.021 Y145.706 E-.19743
;WIPE_END
G1 X119.441 Y150.828 F9000
G1 E.8 F1800
G1 F1200
G1 X119.657 Y150.828 E.00677
G1 X120.143 Y151.605 E.02874
G1 X120.68 Y152.267 E.02673
G1 X120.677 Y152.414 E.00461
G1 X119.773 Y153.548 E.04547
G1 X119.577 Y153.551 E.00615
G1 X118.451 Y152.333 E.05201
G1 X118.443 Y152.172 E.00505
G1 X119.405 Y150.876 E.05061
G1 X119.094 Y150.657 F9000
G1 F1200
G1 X119.172 Y150.546 E.00425
G1 X119.343 Y150.451 E.00613
G1 X119.758 Y150.451 E.01301
G1 X119.932 Y150.551 E.00629
G1 X120.451 Y151.386 E.03083
G1 X121.01 Y152.072 E.02775
G1 X121.053 Y152.488 E.01311
G1 X120.026 Y153.842 E.05328
G1 X119.868 Y153.924 E.00558
G1 X119.496 Y153.93 E.01167
G1 X119.339 Y153.856 E.00544
G1 X118.822 Y153.218 E.02575
G1 X118.142 Y152.562 E.02963
G1 X118.063 Y152.119 E.01411
G1 X119.06 Y150.706 E.05422
G1 X118.764 Y150.483 F9000
G1 F1200
G1 X118.946 Y150.24 E.00952
G1 X119.295 Y150.074 E.01212
G1 X119.807 Y150.074 E.01605
G1 X120.233 Y150.318 E.01539
G1 X120.758 Y151.167 E.0313
G1 X121.317 Y151.851 E.0277
G1 X121.435 Y152.175 E.01081
G1 X121.43 Y152.528 E.01107
G1 X121.307 Y152.841 E.01054
G1 X120.305 Y154.099 E.05043
G1 X119.918 Y154.3 E.01367
G1 X119.46 Y154.307 E.01436
G1 X119.073 Y154.127 E.01338
G1 X118.539 Y153.469 E.02657
G1 X117.861 Y152.816 E.02951
G1 X117.703 Y152.482 E.01158
G1 X117.684 Y152.102 E.01193
G1 X117.799 Y151.765 E.01116
G1 X118.728 Y150.531 E.04843
G1 X118.417 Y150.325 F9000
G1 F1200
G1 X118.599 Y150.051 E.01031
G1 X119.039 Y149.757 E.01659
G1 X119.881 Y149.703 E.02645
G1 X120.411 Y149.963 E.01851
G1 X120.546 Y150.106 E.00617
G1 X121.065 Y150.948 E.03101
G1 X121.621 Y151.626 E.02749
G1 X121.81 Y152.129 E.01685
G1 X121.793 Y152.634 E.01584
G1 X121.611 Y153.067 E.01473
G1 X120.567 Y154.371 E.05238
G1 X119.99 Y154.671 E.02039
G1 X119.445 Y154.685 E.01709
G1 X118.824 Y154.411 E.02128
G1 X118.257 Y153.719 E.02805
G1 X117.583 Y153.073 E.02927
G1 X117.328 Y152.52 E.01909
G1 X117.313 Y152.027 E.01546
G1 X117.48 Y151.563 E.01546
G1 X118.025 Y150.919 E.02645
G1 X118.384 Y150.376 E.02041
G1 X118.073 Y150.168 F9000
G1 F1200
G1 X118.327 Y149.788 E.01433
G1 X118.876 Y149.416 E.02079
G1 X119.2 Y149.325 E.01055
G1 X119.964 Y149.334 E.02396
G1 X120.667 Y149.685 E.02464
G1 X121.954 Y151.446 E.06839
G1 X122.184 Y152.076 E.02103
G1 X122.154 Y152.749 E.02112
G1 X121.913 Y153.295 E.01871
G1 X120.824 Y154.648 E.05446
G1 X120.315 Y154.966 E.01882
G1 X120.023 Y155.047 E.0095
G1 X119.186 Y155.021 E.02626
G1 X118.582 Y154.701 E.02143
G1 X117.975 Y153.97 E.02979
G1 X117.27 Y153.286 E.0308
G1 X116.957 Y152.594 E.02381
G1 X116.943 Y151.95 E.0202
G1 X117.179 Y151.335 E.02065
G1 X117.727 Y150.687 E.02661
G1 X118.04 Y150.218 E.01768
;WIPE_START
G1 F7200
G1 X118.073 Y150.168 E-.01423
G1 X118.327 Y149.788 E-.10855
G1 X118.876 Y149.416 E-.1575
G1 X119.2 Y149.325 E-.07993
G1 X119.964 Y149.334 E-.18146
G1 X120.667 Y149.685 E-.18662
G1 X120.845 Y149.929 E-.07171
;WIPE_END
G1 X116.195 Y152.249 F9000
G1 E.8 F1800
G1 F1200
G1 X116.201 Y152.498 E.00781
G1 X115.959 Y152.388 E.00833
G1 X116.144 Y152.279 E.00673
G1 X115.926 Y151.96 F9000
G1 F1200
G1 X116.703 Y151.431 E.02947
G1 X116.565 Y151.93 E.01623
G1 X116.581 Y152.627 E.02186
G1 X116.836 Y153.286 E.02216
G1 X115.813 Y152.736 E.03642
G1 X114.827 Y152.444 E.03224
G1 X115.799 Y152.046 E.03293
G1 X115.877 Y151.993 E.00296
;WIPE_START
G1 F7200
G1 X115.926 Y151.96 E-.01403
G1 X116.703 Y151.431 E-.22325
G1 X116.565 Y151.93 E-.12296
G1 X116.581 Y152.627 E-.16558
G1 X116.836 Y153.286 E-.16782
G1 X116.442 Y153.074 E-.10636
;WIPE_END
G1 X115.09 Y154.478 F9000
G1 E.8 F1800
G1 F1200
G1 X115.721 Y154.805 E.02228
G1 X116.275 Y155.25 E.02228
G1 X116.73 Y155.796 E.02228
G1 X117.069 Y156.421 E.02229
G1 X117.278 Y157.101 E.02231
G1 X117.349 Y157.808 E.02228
G1 X117.279 Y158.515 E.02228
G1 X117.071 Y159.195 E.0223
G1 X116.733 Y159.82 E.02228
G1 X116.279 Y160.367 E.02229
G1 X115.726 Y160.813 E.02228
G1 X115.095 Y161.142 E.02231
G1 X113.935 Y161.395 E.03723
G1 X113.225 Y161.359 E.02229
G1 X112.536 Y161.184 E.02229
G1 X111.895 Y160.877 E.02228
G1 X111.328 Y160.449 E.02227
G1 X110.855 Y159.918 E.0223
G1 X110.497 Y159.304 E.02228
G1 X110.267 Y158.631 E.0223
G1 X110.174 Y157.926 E.0223
G1 X110.221 Y157.217 E.02228
G1 X110.408 Y156.531 E.02229
