; generated by PrusaSlicer 2.7.1 on 2024-02-16 at 20:39:33 UTC

; 

; external perimeters extrusion width = 0.42mm
; perimeters extrusion width = 0.44mm
; infill extrusion width = 0.44mm
; solid infill extrusion width = 0.44mm
; top infill extrusion width = 0.40mm
; first layer extrusion width = 0.42mm

; external perimeters extrusion width = 0.42mm
; perimeters extrusion width = 0.44mm
; infill extrusion width = 0.44mm
; solid infill extrusion width = 0.44mm
; top infill extrusion width = 0.40mm
; first layer extrusion width = 0.42mm


; printing object 20x20x15_mm_hollow_cube.stl id:1 copy 0
; stop printing object 20x20x15_mm_hollow_cube.stl id:1 copy 0
; printing object 20x20x15_mm_hollow_cube.stl id:0 copy 0
; stop printing object 20x20x15_mm_hollow_cube.stl id:0 copy 0

;TYPE:Custom


; Pre-Processed for Cancel-Object support by preprocess_cancellation v0.2.0
; 2 known objects
EXCLUDE_OBJECT_DEFINE NAME=20x20x15_mm_hollow_cube_stl_id_1_copy_0 CENTER=137.885,107.324 POLYGON=[[127.836,97.732],[127.836,117.312],[147.416,117.312],[147.416,97.732]]
EXCLUDE_OBJECT_DEFINE NAME=20x20x15_mm_hollow_cube_stl_id_0_copy_0 CENTER=110.455,109.800 POLYGON=[[100.21,100.21],[100.21,119.79],[119.79,119.79],[119.79,100.21]]
G90 ; use absolute coordinates
M83 ; extruder relative mode
M104 S150 ; set temporary nozzle temp to prevent oozing during homing
M140 S60 ; set final bed temp
M109 S0
M190 S0
start_print EXTRUDER_TEMP=210 BED_TEMP=60
G4 S30 ; allow partial nozzle warmup
G28 ; home all axis and restore leveling
G1 Z50 F240
G1 X2.0 Y10 F3000
M104 S210 ; set final nozzle temp
M190 S60 ; wait for bed temp to stabilize
M109 S210 ; wait for nozzle temp to stabilize
G1 Z0.28 F240
G92 E0
G1 X2.0 Y140 E10 F1500 ; prime the nozzle
G1 X2.3 Y140 F5000
G92 E0
G1 X2.3 Y10 E10 F1200 ; prime the nozzle
G92 E0
G21 ; set units to millimeters
G90 ; use absolute coordinates
M83 ; use relative distances for extrusion
; Filament gcode
M107
;LAYER_CHANGE
;Z:0.2
;HEIGHT:0.2
;BEFORE_LAYER_CHANGE
G92 E0
;0.2


G1 E-.8 F1800
G1 Z.2 F9000
;AFTER_LAYER_CHANGE
;0.2
G1 X98.107 Y97.203
G1 Z.2
G1 E.8 F1800
M204 S500
;TYPE:Skirt/Brim
;WIDTH:0.42
G1 F1200
G1 X99.698 Y96.636 E.05296
G1 X127.325 Y94.159 E.8697
G1 X147.626 Y94.145 E.63652
G1 X149.209 Y94.539 E.05115
G1 X150.423 Y95.63 E.05118
G1 X151.003 Y97.522 E.06205
G1 X151.003 Y117.522 E.62709
G1 X150.609 Y119.105 E.05115
G1 X149.519 Y120.319 E.05116
G1 X147.928 Y120.886 E.05296
G1 X120 Y123.377 E.87914
G1 X100 Y123.377 E.62709
G1 X98.417 Y122.983 E.05115
G1 X97.203 Y121.893 E.05116
G1 X96.623 Y120 E.06208
G1 X96.623 Y100 E.62709
G1 X97.017 Y98.417 E.05115
G1 X98.067 Y97.248 E.04927
; printing object 20x20x15_mm_hollow_cube.stl id:0 copy 0
EXCLUDE_OBJECT_START NAME=20x20x15_mm_hollow_cube_stl_id_0_copy_0
;WIPE_START
G1 F7200
G1 X98.107 Y97.203 E-.0143
G1 X99.698 Y96.636 E-.40114
G1 X101.311 Y96.491 E-.38456
;WIPE_END
G1 X101.064 Y101.064 F9000
G1 E.8 F1800
;TYPE:Perimeter
;WIDTH:0.419999
G1 F1200
G1 X118.936 Y101.064 E.56036
G1 X118.936 Y110 E.28018
G1 X118.936 Y118.936 E.28018
G1 X101.064 Y118.936 E.56036
G1 X101.064 Y101.124 E.55848
G1 X100.687 Y100.687 F9000
G1 F1200
G1 X119.313 Y100.687 E.584
G1 X119.313 Y110 E.292
G1 X119.313 Y119.313 E.292
G1 X100.687 Y119.313 E.584
G1 X100.687 Y100.747 E.58212
G1 X100.31 Y100.31 F9000
;TYPE:External perimeter
G1 F1200
G1 X119.69 Y100.31 E.60765
G1 X119.69 Y110 E.30382
G1 X119.69 Y119.69 E.30382
G1 X100.31 Y119.69 E.60765
G1 X100.31 Y100.37 E.60576
;WIPE_START
G1 F7200
G1 X100.31 Y100.31 E-.01425
G1 X103.618 Y100.31 E-.78575
;WIPE_END
G1 X118.815 Y101.95 F9000
G1 E.8 F1800
;TYPE:Solid infill
;WIDTH:0.421502
G1 F1200
G1 X118.219 Y101.355 E.02651
G1 X117.684 Y101.355 E.01684
G1 X118.645 Y102.316 E.04278
G1 X118.645 Y102.851 E.01684
G1 X117.149 Y101.355 E.0666
G1 X116.613 Y101.355 E.01687
G1 X118.645 Y103.387 E.09046
G1 X118.645 Y103.922 E.01684
G1 X116.078 Y101.355 E.11428
G1 X115.542 Y101.355 E.01687
G1 X118.645 Y104.458 E.13814
G1 X118.645 Y104.993 E.01684
G1 X115.007 Y101.355 E.16196
G1 X114.472 Y101.355 E.01684
G1 X118.645 Y105.528 E.18578
G1 X118.645 Y106.064 E.01687
G1 X113.936 Y101.355 E.20964
G1 X113.401 Y101.355 E.01684
G1 X118.645 Y106.599 E.23345
G1 X118.645 Y107.135 E.01687
G1 X112.865 Y101.355 E.25732
G1 X112.33 Y101.355 E.01684
G1 X118.645 Y107.67 E.28113
G1 X118.645 Y108.205 E.01684
G1 X111.795 Y101.355 E.30495
G1 X111.259 Y101.355 E.01687
G1 X118.645 Y108.741 E.32881
G1 X118.645 Y109.276 E.01684
G1 X110.724 Y101.355 E.35263
G1 X110.188 Y101.355 E.01687
G1 X118.645 Y109.812 E.37649
G1 X118.645 Y110.347 E.01684
G1 X109.653 Y101.355 E.40031
G1 X109.118 Y101.355 E.01684
G1 X118.645 Y110.882 E.42413
G1 X118.645 Y111.418 E.01687
G1 X108.582 Y101.355 E.44799
G1 X108.047 Y101.355 E.01684
G1 X118.645 Y111.953 E.47181
G1 X118.645 Y112.489 E.01687
G1 X107.511 Y101.355 E.49567
G1 X106.976 Y101.355 E.01684
G1 X118.645 Y113.024 E.51948
G1 X118.645 Y113.559 E.01684
G1 X106.441 Y101.355 E.5433
G1 X105.905 Y101.355 E.01687
G1 X118.645 Y114.095 E.56716
G1 X118.645 Y114.63 E.01684
G1 X105.37 Y101.355 E.59098
G1 X104.835 Y101.355 E.01684
G1 X118.645 Y115.165 E.6148
G1 X118.645 Y115.701 E.01687
G1 X104.299 Y101.355 E.63866
G1 X103.764 Y101.355 E.01684
G1 X118.645 Y116.236 E.66248
G1 X118.645 Y116.772 E.01687
G1 X103.228 Y101.355 E.68634
G1 X102.693 Y101.355 E.01684
G1 X118.645 Y117.307 E.71016
G1 X118.645 Y117.842 E.01684
G1 X102.158 Y101.355 E.73397
G1 X101.622 Y101.355 E.01687
G1 X118.645 Y118.378 E.75784
G1 X118.645 Y118.645 E.0084
G1 X118.378 Y118.645 E.0084
G1 X101.355 Y101.622 E.75784
G1 X101.355 Y102.158 E.01687
G1 X117.842 Y118.645 E.73397
G1 X117.307 Y118.645 E.01684
G1 X101.355 Y102.693 E.71016
G1 X101.355 Y103.228 E.01684
G1 X116.772 Y118.645 E.68634
G1 X116.236 Y118.645 E.01687
G1 X101.355 Y103.764 E.66248
G1 X101.355 Y104.299 E.01684
G1 X115.701 Y118.645 E.63866
G1 X115.165 Y118.645 E.01687
G1 X101.355 Y104.835 E.6148
G1 X101.355 Y105.37 E.01684
G1 X114.63 Y118.645 E.59098
G1 X114.095 Y118.645 E.01684
G1 X101.355 Y105.905 E.56716
G1 X101.355 Y106.441 E.01687
G1 X113.559 Y118.645 E.5433
G1 X113.024 Y118.645 E.01684
G1 X101.355 Y106.976 E.51948
G1 X101.355 Y107.512 E.01687
G1 X112.488 Y118.645 E.49562
G1 X111.953 Y118.645 E.01684
G1 X101.355 Y108.047 E.47181
G1 X101.355 Y108.582 E.01684
G1 X111.418 Y118.645 E.44799
G1 X110.882 Y118.645 E.01687
G1 X101.355 Y109.118 E.42413
G1 X101.355 Y109.653 E.01684
G1 X110.347 Y118.645 E.40031
G1 X109.811 Y118.645 E.01687
G1 X101.355 Y110.189 E.37645
G1 X101.355 Y110.724 E.01684
G1 X109.276 Y118.645 E.35263
G1 X108.741 Y118.645 E.01684
G1 X101.355 Y111.259 E.32881
G1 X101.355 Y111.795 E.01687
G1 X108.205 Y118.645 E.30495
G1 X107.67 Y118.645 E.01684
G1 X101.355 Y112.33 E.28113
G1 X101.355 Y112.866 E.01687
G1 X107.134 Y118.645 E.25727
G1 X106.599 Y118.645 E.01684
G1 X101.355 Y113.401 E.23345
G1 X101.355 Y113.936 E.01684
G1 X106.064 Y118.645 E.20964
G1 X105.528 Y118.645 E.01687
G1 X101.355 Y114.472 E.18578
G1 X101.355 Y115.007 E.01684
G1 X104.993 Y118.645 E.16196
G1 X104.457 Y118.645 E.01687
G1 X101.355 Y115.543 E.1381
G1 X101.355 Y116.078 E.01684
G1 X103.922 Y118.645 E.11428
G1 X103.387 Y118.645 E.01684
G1 X101.355 Y116.613 E.09046
G1 X101.355 Y117.149 E.01687
G1 X102.851 Y118.645 E.0666
G1 X102.316 Y118.645 E.01684
G1 X101.355 Y117.684 E.04278
G1 X101.355 Y118.22 E.01687
G1 X101.95 Y118.815 E.02649
; stop printing object 20x20x15_mm_hollow_cube.stl id:0 copy 0
EXCLUDE_OBJECT_END NAME=20x20x15_mm_hollow_cube_stl_id_0_copy_0
; printing object 20x20x15_mm_hollow_cube.stl id:1 copy 0
EXCLUDE_OBJECT_START NAME=20x20x15_mm_hollow_cube_stl_id_1_copy_0
;WIPE_START
G1 F7200
G1 X101.355 Y118.22 E-.19985
G1 X101.355 Y117.684 E-.1273
G1 X102.316 Y118.645 E-.32278
G1 X102.851 Y118.645 E-.12706
G1 X102.782 Y118.576 E-.02301
;WIPE_END
G1 X128.69 Y116.458 F9000
G1 E.8 F1800
;TYPE:Perimeter
;WIDTH:0.419999
G1 F1200
G1 X128.69 Y98.586 E.56036
G1 X146.562 Y98.586 E.56036
G1 X146.562 Y107.522 E.28018
G1 X146.562 Y116.458 E.28018
G1 X128.75 Y116.458 E.55848
G1 X128.313 Y116.835 F9000
G1 F1200
G1 X128.313 Y98.209 E.584
G1 X146.939 Y98.209 E.584
G1 X146.939 Y107.522 E.292
G1 X146.939 Y116.835 E.292
G1 X128.373 Y116.835 E.58212
G1 X127.936 Y117.212 F9000
;TYPE:External perimeter
G1 F1200
G1 X127.936 Y97.832 E.60765
G1 X147.316 Y97.832 E.60765
G1 X147.316 Y107.522 E.30382
G1 X147.316 Y117.212 E.30382
G1 X127.996 Y117.212 E.60576
;WIPE_START
G1 F7200
G1 X127.936 Y117.212 E-.01425
G1 X127.936 Y113.904 E-.78575
;WIPE_END
G1 X146.441 Y99.473 F9000
G1 E.8 F1800
;TYPE:Solid infill
;WIDTH:0.421502
G1 F1200
G1 X145.846 Y98.877 E.02651
G1 X145.31 Y98.877 E.01687
G1 X146.272 Y99.838 E.0428
G1 X146.272 Y100.374 E.01687
G1 X144.775 Y98.877 E.06664
G1 X144.24 Y98.877 E.01684
G1 X146.272 Y100.909 E.09046
G1 X146.272 Y101.445 E.01687
G1 X143.704 Y98.877 E.11432
G1 X143.169 Y98.877 E.01684
G1 X146.272 Y101.98 E.13814
G1 X146.272 Y102.515 E.01684
G1 X142.633 Y98.877 E.16198
G1 X142.098 Y98.877 E.01684
G1 X146.272 Y103.051 E.18582
G1 X146.272 Y103.586 E.01684
G1 X141.563 Y98.877 E.20964
G1 X141.027 Y98.877 E.01687
G1 X146.272 Y104.121 E.23348
G1 X146.272 Y104.657 E.01687
G1 X140.492 Y98.877 E.25732
G1 X139.956 Y98.877 E.01687
G1 X146.272 Y105.192 E.28116
G1 X146.272 Y105.728 E.01687
G1 X139.421 Y98.877 E.305
G1 X138.886 Y98.877 E.01684
G1 X146.272 Y106.263 E.32881
G1 X146.272 Y106.798 E.01684
G1 X138.35 Y98.877 E.35265
G1 X137.815 Y98.877 E.01684
G1 X146.272 Y107.334 E.37649
G1 X146.272 Y107.869 E.01684
G1 X137.279 Y98.877 E.40033
G1 X136.744 Y98.877 E.01684
G1 X146.272 Y108.405 E.42417
G1 X146.272 Y108.94 E.01684
G1 X136.209 Y98.877 E.44799
G1 X135.673 Y98.877 E.01687
G1 X146.272 Y109.475 E.47183
G1 X146.272 Y110.011 E.01687
G1 X135.138 Y98.877 E.49567
G1 X134.602 Y98.877 E.01687
G1 X146.272 Y110.546 E.51951
G1 X146.272 Y111.082 E.01687
G1 X134.067 Y98.877 E.54335
G1 X133.532 Y98.877 E.01684
G1 X146.272 Y111.617 E.56716
G1 X146.272 Y112.152 E.01684
G1 X132.996 Y98.877 E.591
G1 X132.461 Y98.877 E.01684
G1 X146.272 Y112.688 E.61484
G1 X146.272 Y113.223 E.01684
G1 X131.925 Y98.877 E.63868
G1 X131.39 Y98.877 E.01684
G1 X146.272 Y113.759 E.66252
G1 X146.272 Y114.294 E.01684
G1 X130.855 Y98.877 E.68634
G1 X130.319 Y98.877 E.01687
G1 X146.272 Y114.829 E.71018
G1 X146.272 Y115.365 E.01687
G1 X129.784 Y98.877 E.73402
G1 X129.248 Y98.877 E.01687
G1 X146.272 Y115.9 E.75786
G1 X146.272 Y116.168 E.00844
G1 X146.004 Y116.168 E.00844
G1 X128.981 Y99.145 E.75784
G1 X128.981 Y99.68 E.01684
G1 X145.469 Y116.168 E.73402
G1 X144.933 Y116.168 E.01687
G1 X128.981 Y100.215 E.71018
G1 X128.981 Y100.751 E.01687
G1 X144.398 Y116.168 E.68634
G1 X143.862 Y116.168 E.01687
G1 X128.981 Y101.286 E.6625
G1 X128.981 Y101.822 E.01687
G1 X143.327 Y116.168 E.63866
G1 X142.792 Y116.168 E.01684
G1 X128.981 Y102.357 E.61484
G1 X128.981 Y102.892 E.01684
G1 X142.256 Y116.168 E.591
G1 X141.721 Y116.168 E.01684
G1 X128.981 Y103.428 E.56716
G1 X128.981 Y103.963 E.01684
G1 X141.185 Y116.168 E.54332
G1 X140.65 Y116.168 E.01684
G1 X128.981 Y104.499 E.51948
G1 X128.981 Y105.034 E.01684
G1 X140.115 Y116.168 E.49567
G1 X139.579 Y116.168 E.01687
G1 X128.981 Y105.569 E.47183
G1 X128.981 Y106.105 E.01687
G1 X139.044 Y116.168 E.44799
G1 X138.508 Y116.168 E.01687
G1 X128.981 Y106.64 E.42415
G1 X128.981 Y107.176 E.01687
G1 X137.973 Y116.168 E.40031
G1 X137.438 Y116.168 E.01684
G1 X128.981 Y107.711 E.37649
G1 X128.981 Y108.246 E.01684
G1 X136.902 Y116.168 E.35265
G1 X136.367 Y116.168 E.01684
G1 X128.981 Y108.782 E.32881
G1 X128.981 Y109.317 E.01684
G1 X135.831 Y116.168 E.30497
G1 X135.296 Y116.168 E.01684
G1 X128.981 Y109.853 E.28113
G1 X128.981 Y110.388 E.01684
G1 X134.761 Y116.168 E.25732
G1 X134.225 Y116.168 E.01687
G1 X128.981 Y110.923 E.23348
G1 X128.981 Y111.459 E.01687
G1 X133.69 Y116.168 E.20964
G1 X133.155 Y116.168 E.01684
G1 X128.981 Y111.994 E.18582
G1 X128.981 Y112.53 E.01687
G1 X132.619 Y116.168 E.16196
G1 X132.084 Y116.168 E.01684
G1 X128.981 Y113.065 E.13814
G1 X128.981 Y113.6 E.01684
G1 X131.548 Y116.168 E.1143
G1 X131.013 Y116.168 E.01684
G1 X128.981 Y114.136 E.09046
G1 X128.981 Y114.671 E.01684
G1 X130.478 Y116.168 E.06664
G1 X129.942 Y116.168 E.01687
G1 X128.981 Y115.206 E.0428
G1 X128.981 Y115.742 E.01687
G1 X129.576 Y116.338 E.02651
; stop printing object 20x20x15_mm_hollow_cube.stl id:1 copy 0
EXCLUDE_OBJECT_END NAME=20x20x15_mm_hollow_cube_stl_id_1_copy_0
M106 S255
;LAYER_CHANGE
;Z:0.48
;HEIGHT:0.28
;BEFORE_LAYER_CHANGE
G92 E0
;0.48


;WIPE_START
G1 F7200
G1 X128.981 Y115.742 E-.20001
G1 X128.981 Y115.206 E-.1273
G1 X129.942 Y116.168 E-.32294
G1 X130.478 Y116.168 E-.1273
G1 X130.411 Y116.101 E-.02245
;WIPE_END
G1 Z.48 F9000
;AFTER_LAYER_CHANGE
;0.48
M104 S205 ; set temperature
G1 X130.973 Y122.398
G1 E.8 F1800
;TYPE:Skirt/Brim
;WIDTH:0.42
G1 F2400
G1 X120 Y123.377 E.46157
G1 X100 Y123.377 E.83795
G1 X98.417 Y122.983 E.06835
G1 X97.203 Y121.893 E.06836
G1 X96.623 Y120 E.08295
G1 X96.623 Y100 E.83795
G1 X97.017 Y98.417 E.06835
G1 X98.107 Y97.203 E.06836
G1 X99.698 Y96.636 E.07077
G1 X127.325 Y94.159 E1.16214
G1 X147.626 Y94.145 E.85056
G1 X149.209 Y94.539 E.06835
G1 X150.423 Y95.63 E.06839
G1 X151.003 Y97.522 E.08291
G1 X151.003 Y117.522 E.83795
G1 X150.609 Y119.105 E.06835
G1 X149.519 Y120.319 E.06836
G1 X147.928 Y120.886 E.07077
G1 X131.032 Y122.393 E.71071
; printing object 20x20x15_mm_hollow_cube.stl id:0 copy 0
EXCLUDE_OBJECT_START NAME=20x20x15_mm_hollow_cube_stl_id_0_copy_0
;WIPE_START
G1 F7200
G1 X130.973 Y122.398 E-.01406
G1 X127.677 Y122.692 E-.78594
;WIPE_END
G1 X119.04 Y119.04 F9000
G1 E.8 F1800
;TYPE:Perimeter
;WIDTH:0.44
G1 F3600
G1 X100.96 Y119.04 E.7996
G1 X100.96 Y100.96 E.7996
G1 X119.04 Y100.96 E.7996
G1 X119.04 Y110 E.3998
G1 X119.04 Y118.98 E.39715
G1 X119.42 Y119.42 F9000
G1 F3600
G1 X100.58 Y119.42 E.83321
G1 X100.58 Y100.58 E.83321
G1 X119.42 Y100.58 E.83321
G1 X119.42 Y110 E.41661
G1 X119.42 Y119.36 E.41395
G1 X119.79 Y119.79 F9000
;TYPE:External perimeter
;WIDTH:0.42
G1 F1800
G1 X100.21 Y119.79 E.82035
G1 X100.21 Y100.21 E.82035
G1 X119.79 Y100.21 E.82035
G1 X119.79 Y110 E.41018
G1 X119.79 Y119.73 E.40766
;WIPE_START
G1 F7200
G1 X119.79 Y119.79 E-.01425
G1 X116.482 Y119.79 E-.78575
;WIPE_END
G1 X101.355 Y101.283 F9000
G1 E.8 F1800
;TYPE:Solid infill
;WIDTH:0.532175
G1 F3600
G1 X101.314 Y101.241 E.00323
G1 X101.257 Y101.257 E.00325
G1 X101.241 Y101.314 E.00325
G1 X101.283 Y101.355 E.00323
G1 X101.34 Y101.34 E.00324
;WIDTH:0.44
G1 X101.252 Y101.947 E.02713
G1 X101.947 Y101.252 E.04347
G1 X102.484 Y101.252 E.02375
G1 X101.252 Y102.484 E.07705
G1 X101.252 Y103.022 E.02379
G1 X103.022 Y101.252 E.1107
G1 X103.559 Y101.252 E.02375
G1 X101.252 Y103.559 E.14429
G1 X101.252 Y104.096 E.02375
G1 X104.096 Y101.252 E.17788
G1 X104.633 Y101.252 E.02375
G1 X101.252 Y104.633 E.21146
G1 X101.252 Y105.171 E.02379
G1 X105.171 Y101.252 E.24511
G1 X105.708 Y101.252 E.02375
G1 X101.252 Y105.708 E.2787
G1 X101.252 Y106.245 E.02375
G1 X106.245 Y101.252 E.31228
G1 X106.782 Y101.252 E.02375
G1 X101.252 Y106.782 E.34587
G1 X101.252 Y107.32 E.02379
G1 X107.32 Y101.252 E.37952
G1 X107.857 Y101.252 E.02375
G1 X101.252 Y107.857 E.41311
G1 X101.252 Y108.394 E.02375
G1 X108.394 Y101.252 E.44669
G1 X108.932 Y101.252 E.02379
G1 X101.252 Y108.932 E.48034
G1 X101.252 Y109.469 E.02375
G1 X109.469 Y101.252 E.51393
G1 X110.006 Y101.252 E.02375
G1 X101.252 Y110.006 E.54751
G1 X101.252 Y110.543 E.02375
G1 X110.543 Y101.252 E.5811
G1 X111.081 Y101.252 E.02379
G1 X101.252 Y111.081 E.61475
G1 X101.252 Y111.618 E.02375
G1 X111.618 Y101.252 E.64834
G1 X112.155 Y101.252 E.02375
G1 X101.252 Y112.155 E.68192
G1 X101.252 Y112.692 E.02375
G1 X112.693 Y101.252 E.71554
G1 X113.23 Y101.252 E.02375
G1 X101.252 Y113.23 E.74916
G1 X101.252 Y113.767 E.02375
G1 X113.767 Y101.252 E.78274
G1 X114.304 Y101.252 E.02375
G1 X101.252 Y114.304 E.81633
G1 X101.252 Y114.842 E.02379
G1 X114.842 Y101.252 E.84998
G1 X115.379 Y101.252 E.02375
G1 X101.252 Y115.379 E.88357
G1 X101.252 Y115.916 E.02375
G1 X115.916 Y101.252 E.91715
G1 X116.453 Y101.252 E.02375
G1 X101.252 Y116.453 E.95074
G1 X101.252 Y116.991 E.02379
