; generated by PrusaSlicer 2.7.1 on 2024-07-12 at 16:55:16 UTC


;
;

;
;
; 

; external perimeters extrusion width = 0.42mm
; perimeters extrusion width = 0.44mm
; infill extrusion width = 0.44mm
; solid infill extrusion width = 0.44mm
; top infill extrusion width = 0.40mm
; first layer extrusion width = 0.42mm



; Pre-Processed for Cancel-Object support by preprocess_cancellation v0.2.0
; 1 known objects
EXCLUDE_OBJECT_DEFINE NAME=flexbatterAAx2_stl_id_0_copy_0 CENTER=100.047,110.144 POLYGON=[[78.209,91.89],[78.209,128.11],[141.793,128.11],[141.793,91.89]]
M201 X500 Y500 Z100 E5000 ; sets maximum accelerations, mm/sec^2
M203 X500 Y500 Z10 E60 ; sets maximum feedrates, mm / sec
M204 S500 T1000 ; sets acceleration (S) and retract acceleration (R), mm/sec^2
M205 X8.00 Y8.00 Z0.40 E5.00 ; sets the jerk limits, mm/sec
M205 S0 T0 ; sets the minimum extruding and travel feed rate, mm/sec

; printing object flexbatterAAx2.stl id:0 copy 0
EXCLUDE_OBJECT_START NAME=flexbatterAAx2_stl_id_0_copy_0
; stop printing object flexbatterAAx2.stl id:0 copy 0
EXCLUDE_OBJECT_END NAME=flexbatterAAx2_stl_id_0_copy_0

;TYPE:Custom
G90 ; use absolute coordinates
M83 ; extruder relative mode
G28
M109 S0
M190 S0
start_print EXTRUDER_TEMP=210 BED_TEMP=60

M104 S150 ; set temporary nozzle temp to prevent oozing during homing
M140 S60 ; set final bed temp
G4 S30 ; allow partial nozzle warmup
G28 ; home all axis and restore leveling

G1 Z50 F240
G1 X2.0 Y10 F3000
M104 S210 ; set final nozzle temp
M190 S60 ; wait for bed temp to stabilize
M109 S210 ; wait for nozzle temp to stabilize
G1 Z0.28 F240
G92 E0
G1 X2.0 Y140 E10 F1500 ; prime the nozzle
G1 X2.3 Y140 F5000
G92 E0
G1 X2.3 Y10 E10 F1200 ; prime the nozzle
G92 E0
G21 ; set units to millimeters
G90 ; use absolute coordinates
M83 ; use relative distances for extrusion
; Filament gcode
M107
;LAYER_CHANGE
;Z:0.2
;HEIGHT:0.2
;BEFORE_LAYER_CHANGE
G92 E0
;0.2


G1 E-.8 F1800
G1 Z.2 F9000
;AFTER_LAYER_CHANGE
;0.2
G1 X77.263 Y90.343
G1 Z.2
G1 E.8 F1800
M204 S500
;TYPE:Skirt/Brim
;WIDTH:0.42
G1 F1200
G1 X78.189 Y89.629 E.03666
G1 X78.978 Y89.169 E.02864
G1 X80.066 Y88.718 E.03693
G1 X80.907 Y88.491 E.02731
G1 X82.082 Y88.333 E.03717
G1 X89.336 Y88.303 E.22745
G1 X140.936 Y89.123 E1.61809
G1 X142.513 Y89.543 E.05117
G1 X143.57 Y90.412 E.0429
G1 X144.411 Y91.81 E.05115
G1 X144.56 Y92.8 E.03139
G1 X144.56 Y127.2 E1.07859
G1 X144.166 Y128.783 E.05115
G1 X143.57 Y129.588 E.03141
G1 X143.27 Y129.888 E.0133
G1 X141.872 Y130.729 E.05115
G1 X140.936 Y130.877 E.02971
G1 X89.336 Y131.697 E1.61809
G1 X82.088 Y131.668 E.22726
G1 X80.922 Y131.513 E.03688
G1 X80.074 Y131.285 E.02753
G1 X78.978 Y130.831 E.0372
G1 X78.214 Y130.39 E.02766
G1 X77.273 Y129.668 E.03719
G1 X76.649 Y129.045 E.02765
G1 X75.927 Y128.103 E.03721
G1 X75.486 Y127.34 E.02763
G1 X75.032 Y126.244 E.0372
G1 X74.804 Y125.392 E.02765
G1 X74.649 Y124.216 E.03719
G1 X74.62 Y96.225 E.87764
G1 X74.803 Y94.616 E.05077
G1 X75.029 Y93.771 E.02743
G1 X75.481 Y92.674 E.0372
G1 X75.92 Y91.91 E.02763
G1 X76.64 Y90.967 E.0372
G1 X77.22 Y90.385 E.02576
; printing object flexbatterAAx2.stl id:0 copy 0
EXCLUDE_OBJECT_START NAME=flexbatterAAx2_stl_id_0_copy_0
;WIPE_START
G1 F7200
G1 X77.263 Y90.343 E-.01428
G1 X78.189 Y89.629 E-.27771
G1 X78.978 Y89.169 E-.21691
G1 X80.066 Y88.718 E-.27972
G1 X80.112 Y88.706 E-.01138
;WIPE_END
G1 X98.919 Y125.572 F9000
G1 E.8 F1800
;TYPE:Perimeter
;WIDTH:0.512699
G1 F1200
G1 X98.919 Y126.19 E.02414
G1 X98.425 Y126.21 E.01931
;WIDTH:0.471391
G1 X98.167 Y126.231 E.00922
;WIDTH:0.430105
G1 X97.663 Y126.245 E.01623
G1 X96.497 Y126.236 E.03754
;WIDTH:0.419999
G1 X95.03 Y126.236 E.046
G1 X95.227 Y126.002 E.00959
G1 X95.227 Y124.655 E.04223
;WIDTH:0.465739
G1 X95.25 Y124.52 E.00481
;WIDTH:0.511478
G1 X95.272 Y124.385 E.00533
;WIDTH:0.557217
G1 X95.295 Y124.249 E.0059
;WIDTH:0.602956
G1 X95.318 Y124.114 E.00638
G1 X95.385 Y124.231 E.00628
;WIDTH:0.557217
G1 X95.452 Y124.349 E.0058
;WIDTH:0.511478
G1 X95.518 Y124.467 E.00527
;WIDTH:0.465739
G1 X95.585 Y124.584 E.00474
;WIDTH:0.419999
G1 X95.927 Y125.101 E.01944
G1 X96.118 Y125.298 E.0086
G1 X96.615 Y125.64 E.01892
;WIDTH:0.430083
G1 X97.184 Y125.845 E.01947
G1 X97.54 Y125.88 E.01152
G1 X98.141 Y125.845 E.01938
;WIDTH:0.471391
G1 X98.368 Y125.792 E.0083
;WIDTH:0.512699
G1 X98.594 Y125.738 E.00908
G1 X98.865 Y125.599 E.0119
;WIPE_START
G1 F7200
G1 X98.919 Y125.572 E-.01434
G1 X98.919 Y126.19 E-.14677
G1 X98.425 Y126.21 E-.11742
;WIPE_END
G1 E-.52147 F1800
G1 X98.907 Y121.567 F9000
G1 E.8 F1800
;WIDTH:0.536625
G1 F1200
G1 X98.732 Y121.467 E.00827
G1 X98.394 Y121.346 E.01474
;WIDTH:0.501152
G1 X98.053 Y121.306 E.01308
;WIDTH:0.469387
G1 X97.712 Y121.267 E.01217
;WIDTH:0.460072
G1 X97.182 Y121.3 E.01842
G1 X96.944 Y121.376 E.00867
;WIDTH:0.43496
G1 X96.402 Y121.643 E.0197
;WIDTH:0.419999
G1 X95.927 Y122.059 E.0198
G1 X95.585 Y122.576 E.01944
G1 X95.402 Y123.102 E.01746
;WIDTH:0.457574
G1 X95.372 Y123.255 E.00538
;WIDTH:0.495148
G1 X95.341 Y123.407 E.00583
;WIDTH:0.532722
G1 X95.311 Y123.56 E.00635
;WIDTH:0.570296
G1 X95.281 Y123.713 E.00684
G1 X95.236 Y123.637 E.00387
;WIDTH:0.535779
G1 X95.192 Y123.561 E.0036
;WIDTH:0.501262
G1 X95.147 Y123.485 E.00337
;WIDTH:0.466744
G1 X94.851 Y123.165 E.01536
;WIDTH:0.419999
G1 X94.589 Y123.026 E.0093
G1 X94.284 Y122.976 E.00969
G1 X90.247 Y122.976 E.12658
G1 X90.247 Y120.864 E.06622
G1 X96.485 Y120.864 E.19559
;WIDTH:0.463898
G1 X97.104 Y120.886 E.02168
G1 X97.616 Y120.872 E.01793
;WIDTH:0.457967
G1 X98.135 Y120.883 E.01792
;WIDTH:0.497296
G1 X98.521 Y120.903 E.0146
;WIDTH:0.536625
G1 X98.907 Y120.923 E.01587
G1 X98.907 Y121.17 E.01014
G1 X98.907 Y121.507 E.01383
;WIPE_START
G1 F7200
G1 X98.907 Y121.567 E-.01425
G1 X98.732 Y121.467 E-.04787
G1 X98.394 Y121.346 E-.08526
;WIPE_END
G1 E-.65262 F1800
G1 X99.342 Y122.622 F9000
G1 E.8 F1800
;WIDTH:0.419999
G1 F1200
G1 X99.082 Y122.265 E.01385
G1 X98.693 Y121.943 E.01583
G1 X98.234 Y121.732 E.01584
G1 X97.673 Y121.651 E.01777
G1 X97.233 Y121.693 E.01386
G1 X96.76 Y121.869 E.01582
G1 X96.347 Y122.161 E.01586
G1 X95.997 Y122.606 E.01775
G1 X95.814 Y123.008 E.01385
G1 X95.729 Y123.506 E.01584
G1 X95.776 Y124.009 E.01584
G1 X95.934 Y124.44 E.01439
G1 X96.233 Y124.881 E.01671
G1 X96.632 Y125.217 E.01636
G1 X97.091 Y125.428 E.01584
G1 X97.589 Y125.513 E.01584
G1 X98.092 Y125.467 E.01584
G1 X98.565 Y125.291 E.01582
G1 X98.977 Y124.999 E.01583
G1 X99.342 Y124.538 E.01844
G1 X99.342 Y126.613 E.06506
G1 X95.461 Y126.613 E.12169
;WIDTH:0.447371
G1 X94.924 Y126.599 E.01807
;WIDTH:0.474742
G1 X94.386 Y126.586 E.01932
G1 X94.618 Y126.294 E.01339
;WIDTH:0.447371
G1 X94.85 Y126.002 E.01254
;WIDTH:0.419999
G1 X94.838 Y123.804 E.06892
G1 X94.685 Y123.52 E.01011
G1 X94.568 Y123.429 E.00465
G1 X94.284 Y123.353 E.00922
G1 X89.87 Y123.353 E.1384
G1 X89.87 Y120.487 E.08986
G1 X99.342 Y120.487 E.29699
G1 X99.342 Y121.17 E.02141
G1 X99.342 Y122.562 E.04365
;WIPE_START
G1 F7200
G1 X99.342 Y122.622 E-.01425
G1 X99.082 Y122.265 E-.10489
G1 X98.693 Y121.943 E-.11993
G1 X98.234 Y121.732 E-.11998
G1 X97.673 Y121.651 E-.13462
G1 X97.233 Y121.693 E-.10497
G1 X96.76 Y121.869 E-.11986
G1 X96.48 Y122.067 E-.0815
;WIPE_END
G1 X99.719 Y120.11 F9000
G1 E.8 F1800
;TYPE:External perimeter
G1 F1200
G1 X99.719 Y121.17 E.03324
G1 X99.719 Y122.535 E.0428
;WIDTH:0.462295
G1 X99.698 Y122.85 E.01101
;WIDTH:0.504589
G1 X99.677 Y123.165 E.01212
G1 X99.677 Y123.995 E.03186
G1 X99.698 Y124.236 E.00929
;WIDTH:0.462294
G1 X99.719 Y124.476 E.0084
;WIDTH:0.419999
G1 X99.719 Y126.99 E.07882
G1 X91.236 Y126.99 E.26598
G1 X90.251 Y127.023 E.0309
G1 X89.915 Y127.068 E.01063
G1 X89.392 Y127.09 E.01641
G1 X89.392 Y126.772 E.00997
G1 X89.458 Y126.185 E.01852
G1 X94.284 Y126.19 E.15132
G1 X94.472 Y126.002 E.00834
G1 X94.472 Y123.918 E.06534
G1 X94.418 Y123.785 E.0045
G1 X94.284 Y123.73 E.00454
G1 X89.492 Y123.73 E.15025
G1 X89.492 Y120.11 E.1135
G1 X99.659 Y120.11 E.31878
;WIPE_START
G1 F7200
G1 X99.719 Y120.11 E-.01425
G1 X99.719 Y121.17 E-.25175
;WIPE_END
G1 E-.534 F1800
G1 X99.217 Y123.195 F9000
G1 E.8 F1800
;WIDTH:0.50459
G1 F1200
G1 X99.252 Y123.609 E.01595
;WIDTH:0.483729
G1 X99.192 Y124.02 E.01522
G1 X99.096 Y124.2 E.00748
;WIDTH:0.451864
G1 X99.001 Y124.381 E.00695
;WIDTH:0.419999
G1 X98.748 Y124.7 E.01277
G1 X98.421 Y124.943 E.01277
G1 X98.042 Y125.093 E.01278
G1 X97.638 Y125.139 E.01275
G1 X97.235 Y125.08 E.01277
G1 X96.861 Y124.918 E.01278
G1 X96.539 Y124.661 E.01292
G1 X96.282 Y124.295 E.01402
G1 X96.15 Y123.96 E.01129
G1 X96.103 Y123.605 E.01123
G1 X96.163 Y123.153 E.0143
G1 X96.303 Y122.826 E.01115
G1 X96.577 Y122.46 E.01434
G1 X96.904 Y122.217 E.01277
G1 X97.283 Y122.067 E.01278
G1 X97.635 Y122.026 E.01111
G1 X98.09 Y122.08 E.01437
G1 X98.464 Y122.242 E.01278
G1 X98.783 Y122.495 E.01277
G1 X99.025 Y122.822 E.01276
;WIDTH:0.462295
G1 X99.121 Y123.008 E.0073
;WIDTH:0.50459
G1 X99.19 Y123.141 E.00575
;WIPE_START
G1 F7200
G1 X99.217 Y123.195 E-.01434
G1 X99.252 Y123.609 E-.09868
;WIPE_END
G1 E-.68698 F1800
G1 X95.318 Y124.114 F9000
G1 E.8 F1800
;TYPE:Perimeter
;WIDTH:0.602956
G1 F1200
G1 X95.281 Y123.713 E.01875
;WIPE_START
G1 F7200
G1 X95.318 Y124.114 E-.09564
;WIPE_END
G1 E-.70436 F1800
G1 X89.855 Y126.629 F9000
G1 E.8 F1800
;WIDTH:0.553102
G1 F1200
G1 X90.536 Y126.609 E.0289
;WIDTH:0.511444
G1 X91.216 Y126.589 E.0265
;WIDTH:0.469786
G1 X91.236 Y126.589 E.00071
;WIDTH:0.469428
G1 X94.284 Y126.59 E.1081
;WIDTH:0.474742
G1 X94.386 Y126.586 E.00367
;WIPE_START
G1 F7200
G1 X94.284 Y126.59 E-.02424
;WIPE_END
G1 E-.77576 F1800
G1 X87.45 Y120.141 F9000
G1 E.8 F1800
;TYPE:External perimeter
;WIDTH:0.48146
G1 F1200
G1 X87.437 Y122.008 E.06808
;WIDTH:0.476691
G1 X87.3 Y122.876 E.03169
G1 X86.941 Y123.687 E.03199
G1 X86.383 Y124.376 E.03198
G1 X85.667 Y124.898 E.03196
G1 X84.839 Y125.217 E.032
;WIDTH:0.48146
G1 X84.02 Y125.323 E.03011
G1 X82.829 Y125.323 E.04343
G1 X82.477 Y125.281 E.01293
;WIDTH:0.476644
G1 X82.098 Y125.148 E.01449
G1 X81.767 Y124.921 E.01447
G1 X81.505 Y124.617 E.01447
G1 X81.331 Y124.255 E.01449
G1 X81.257 Y123.86 E.01449
G1 X81.287 Y123.459 E.0145
G1 X81.42 Y123.081 E.01445
G1 X81.646 Y122.749 E.01448
G1 X81.951 Y122.487 E.0145
G1 X82.313 Y122.313 E.01449
G1 X82.73 Y122.249 E.01521
;WIDTH:0.473837
G1 X83.301 Y122.192 E.02056
;WIDTH:0.476649
G1 X83.571 Y122.09 E.01041
G1 X83.804 Y121.92 E.0104
G1 X83.986 Y121.696 E.01041
G1 X84.103 Y121.432 E.01041
G1 X84.148 Y121.147 E.01041
G1 X84.118 Y120.859 E.01044
G1 X84.014 Y120.59 E.0104
G1 X83.845 Y120.356 E.01041
G1 X83.62 Y120.175 E.01041
;WIDTH:0.477601
G1 X83.282 Y120.041 E.01314
G1 X82.506 Y120.014 E.02806
;WIDTH:0.476697
G1 X81.541 Y120.148 E.03514
G1 X80.637 Y120.531 E.03541
G1 X79.862 Y121.135 E.03544
G1 X79.27 Y121.918 E.03541
G1 X78.901 Y122.828 E.03542
G1 X78.78 Y123.803 E.03544
G1 X78.916 Y124.776 E.03544
G1 X79.298 Y125.681 E.03543
G1 X79.902 Y126.455 E.03541
G1 X80.686 Y127.048 E.03546
G1 X81.596 Y127.417 E.03542
;WIDTH:0.481463
G1 X82.579 Y127.541 E.03613
;WIDTH:0.481768
G1 X87.286 Y127.541 E.17176
;WIDTH:0.4819
G1 X87.293 Y127.54 E.00026
;WIDTH:0.502988
G1 X88.302 Y127.511 E.03862
;WIDTH:0.538798
G1 X89.013 Y127.469 E.02937
G1 X89.013 Y127.952 E.01992
G1 X88.252 Y127.971 E.03139
;WIDTH:0.498383
G1 X87.286 Y127.979 E.03659
;WIDTH:0.481768
G1 X82.579 Y127.979 E.17176
;WIDTH:0.481463
G1 X82.45 Y127.967 E.00472
;WIDTH:0.476689
G1 X81.375 Y127.803 E.03922
G1 X80.373 Y127.363 E.03947
G1 X79.518 Y126.679 E.03949
G1 X78.869 Y125.798 E.03947
G1 X78.471 Y124.778 E.03949
G1 X78.35 Y123.69 E.03948
G1 X78.515 Y122.608 E.03948
G1 X78.954 Y121.605 E.03949
G1 X79.638 Y120.75 E.03949
G1 X80.52 Y120.102 E.03947
G1 X81.539 Y119.703 E.03947
;WIDTH:0.482174
G1 X82.579 Y119.571 E.03829
G1 X83.319 Y119.608 E.02706
;WIDTH:0.477601
G1 X83.737 Y119.746 E.01591
;WIDTH:0.476656
G1 X84.068 Y119.972 E.01445
G1 X84.33 Y120.277 E.0145
G1 X84.504 Y120.639 E.01449
G1 X84.578 Y121.033 E.01446
G1 X84.548 Y121.434 E.0145
G1 X84.415 Y121.813 E.01449
G1 X84.189 Y122.144 E.01445
G1 X83.884 Y122.406 E.0145
G1 X83.522 Y122.58 E.01449
G1 X83.105 Y122.644 E.01522
;WIDTH:0.473816
G1 X82.534 Y122.701 E.02056
;WIDTH:0.476658
G1 X82.264 Y122.803 E.01041
G1 X82.031 Y122.973 E.0104
G1 X81.849 Y123.198 E.01044
G1 X81.732 Y123.461 E.01038
G1 X81.687 Y123.747 E.01044
G1 X81.717 Y124.034 E.01041
G1 X81.821 Y124.303 E.0104
G1 X81.991 Y124.537 E.01043
G1 X82.215 Y124.719 E.01041
G1 X82.479 Y124.836 E.01041
;WIDTH:0.481459
G1 X82.829 Y124.884 E.01288
G1 X84.079 Y124.88 E.04558
;WIDTH:0.476673
G1 X84.837 Y124.772 E.02761
G1 X85.55 Y124.469 E.02794
G1 X86.159 Y123.992 E.0279
G1 X86.625 Y123.374 E.02792
G1 X86.914 Y122.656 E.02791
;WIDTH:0.48146
G1 X87.011 Y121.879 E.02855
G1 X87.011 Y120.141 E.06338
G1 X87.39 Y120.141 E.01382
;WIPE_START
G1 F7200
G1 X87.45 Y120.141 E-.01425
G1 X87.437 Y122.008 E-.44342
;WIPE_END
G1 E-.34233 F1800
G1 X95.975 Y120.985 F9000
G1 E.8 F1800
;TYPE:Solid infill
;WIDTH:0.436549
G1 F1200
G1 X96.337 Y121.348 E.01678
G1 X96.011 Y121.578 E.01306
G1 X95.588 Y121.155 E.01958
G1 X95.031 Y121.155 E.01823
G1 X95.727 Y121.851 E.03222
G1 X95.489 Y122.169 E.013
G1 X94.474 Y121.155 E.04696
G1 X93.918 Y121.155 E.0182
G1 X95.292 Y122.529 E.0636
G1 X95.142 Y122.935 E.01417
G1 X93.361 Y121.155 E.08242
G1 X92.804 Y121.155 E.01823
G1 X94.34 Y122.691 E.0711
G1 X93.778 Y122.685 E.0184
G1 X92.248 Y121.155 E.07082
G1 X91.691 Y121.155 E.01823
G1 X93.222 Y122.685 E.07084
G1 X92.665 Y122.685 E.01823
G1 X91.134 Y121.155 E.07084
G1 X90.578 Y121.155 E.0182
G1 X92.108 Y122.685 E.07082
G1 X91.552 Y122.685 E.0182
G1 X90.537 Y121.671 E.04696
G1 X90.537 Y122.227 E.0182
G1 X91.165 Y122.855 E.02907
;WIPE_START
G1 F7200
G1 X90.537 Y122.227 E-.21093
G1 X90.537 Y121.671 E-.13205
G1 X91.552 Y122.685 E-.34075
G1 X92.042 Y122.685 E-.11627
;WIPE_END
G1 X96.179 Y126.111 F9000
G1 E.8 F1800
;WIDTH:0.455301
G1 F1200
G1 X95.347 Y125.279 E.04035
;WIPE_START
G1 F7200
G1 X96.179 Y126.111 E-.27945
;WIPE_END
G1 E-.52055 F1800
G1 X98.965 Y107.724 F9000
G1 E.8 F1800
;TYPE:Perimeter
;WIDTH:0.419999
G1 F1200
G1 X98.965 Y112.276 E.14272
G1 X98.378 Y111.983 E.02057
G1 X97.711 Y111.876 E.02118
G1 X97.09 Y111.937 E.01956
G1 X96.615 Y112.12 E.01596
G1 X96.327 Y112.301 E.01067
G1 X95.927 Y112.659 E.01683
G1 X95.585 Y113.176 E.01944
;WIDTH:0.464055
G1 X95.518 Y113.305 E.00509
;WIDTH:0.50811
G1 X95.45 Y113.433 E.00561
;WIDTH:0.552165
G1 X95.382 Y113.562 E.00617
;WIDTH:0.59622
G1 X95.315 Y113.69 E.00665
G1 X95.293 Y113.544 E.00679
;WIDTH:0.552165
G1 X95.271 Y113.397 E.00629
;WIDTH:0.50811
G1 X95.249 Y113.251 E.00571
;WIDTH:0.464055
G1 X95.227 Y113.105 E.00517
;WIDTH:0.419999
G1 X95.208 Y111.571 E.0481
G1 X95.119 Y111.321 E.00832
G1 X94.951 Y111.092 E.00891
G1 X94.582 Y110.864 E.0136
G1 X94.284 Y110.816 E.00946
G1 X90.247 Y110.816 E.12658
G1 X90.217 Y110.203 E.01924
G1 X90.142 Y110.007 E.00658
G1 X90.217 Y109.797 E.00699
G1 X90.247 Y109.184 E.01924
G1 X94.284 Y109.184 E.12658
G1 X94.582 Y109.136 E.00946
G1 X94.807 Y109.026 E.00785
G1 X95.038 Y108.807 E.00998
G1 X95.179 Y108.537 E.00955
G1 X95.227 Y108.242 E.00937
G1 X95.227 Y106.942 E.04076
;WIDTH:0.465739
G1 X95.25 Y106.795 E.00523
;WIDTH:0.511478
G1 X95.272 Y106.648 E.00579
;WIDTH:0.557217
G1 X95.295 Y106.501 E.00636
;WIDTH:0.602956
G1 X95.318 Y106.354 E.00693
G1 X95.356 Y106.42 E.00355
;WIDTH:0.567588
G1 X95.393 Y106.485 E.00326
;WIDTH:0.53222
G1 X95.43 Y106.551 E.00308
;WIDTH:0.496851
G1 X95.578 Y106.815 E.01142
;WIDTH:0.458425
G1 X95.726 Y107.08 E.01049
;WIDTH:0.419999
G1 X96.118 Y107.538 E.0189
G1 X96.515 Y107.831 E.01547
G1 X96.991 Y108.03 E.01618
G1 X97.511 Y108.123 E.01656
G1 X98.141 Y108.08 E.0198
G1 X98.71 Y107.88 E.01891
G1 X98.914 Y107.755 E.0075
;WIPE_START
G1 F7200
G1 X98.965 Y107.724 E-.01417
G1 X98.965 Y111.033 E-.78583
;WIPE_END
G1 X98.907 Y103.807 F9000
G1 E.8 F1800
;WIDTH:0.536608
G1 F1200
G1 X98.732 Y103.707 E.00827
G1 X98.394 Y103.586 E.01474
;WIDTH:0.501123
G1 X98.053 Y103.546 E.01308
;WIDTH:0.469367
G1 X97.712 Y103.507 E.01217
;WIDTH:0.460053
G1 X97.182 Y103.54 E.01842
G1 X96.944 Y103.616 E.00867
;WIDTH:0.434963
G1 X96.402 Y103.883 E.0197
;WIDTH:0.419999
G1 X95.944 Y104.276 E.01892
