; generated by PrusaSlicer 2.7.1 on 2024-02-29 at 23:42:18 UTC


;
;

;
;
; 

; external perimeters extrusion width = 0.42mm
; perimeters extrusion width = 0.44mm
; infill extrusion width = 0.44mm
; solid infill extrusion width = 0.44mm
; top infill extrusion width = 0.40mm
; first layer extrusion width = 0.42mm



; Pre-Processed for Cancel-Object support by preprocess_cancellation v0.2.0
; 1 known objects
EXCLUDE_OBJECT_DEFINE NAME=FujiFilm_XMount_RearCap_stl_id_0_copy_0 CENTER=109.893,110.026 POLYGON=[[82.874,82.874],[82.874,137.126],[137.126,137.126],[137.126,82.874]]
M201 X500 Y500 Z100 E5000 ; sets maximum accelerations, mm/sec^2
M203 X500 Y500 Z10 E60 ; sets maximum feedrates, mm / sec
M204 S500 T1000 ; sets acceleration (S) and retract acceleration (R), mm/sec^2
M205 X8.00 Y8.00 Z0.40 E5.00 ; sets the jerk limits, mm/sec
M205 S0 T0 ; sets the minimum extruding and travel feed rate, mm/sec

; printing object FujiFilm_XMount_RearCap.stl id:0 copy 0
EXCLUDE_OBJECT_START NAME=FujiFilm_XMount_RearCap_stl_id_0_copy_0
; stop printing object FujiFilm_XMount_RearCap.stl id:0 copy 0
EXCLUDE_OBJECT_END NAME=FujiFilm_XMount_RearCap_stl_id_0_copy_0

;TYPE:Custom
G90 ; use absolute coordinates
M83 ; extruder relative mode
G28
M109 S0
M190 S0
start_print EXTRUDER_TEMP=210 BED_TEMP=60

M104 S150 ; set temporary nozzle temp to prevent oozing during homing
M140 S60 ; set final bed temp
G4 S30 ; allow partial nozzle warmup
G28 ; home all axis and restore leveling

G1 Z50 F240
G1 X2.0 Y10 F3000
M104 S210 ; set final nozzle temp
M190 S60 ; wait for bed temp to stabilize
M109 S210 ; wait for nozzle temp to stabilize
G1 Z0.28 F240
G92 E0
G1 X2.0 Y140 E10 F1500 ; prime the nozzle
G1 X2.3 Y140 F5000
G92 E0
G1 X2.3 Y10 E10 F1200 ; prime the nozzle
G92 E0
G21 ; set units to millimeters
G90 ; use absolute coordinates
M83 ; use relative distances for extrusion
; Filament gcode
M107
;LAYER_CHANGE
;Z:0.2
;HEIGHT:0.2
;BEFORE_LAYER_CHANGE
G92 E0
;0.2


G1 E-.8 F1800
G1 Z.2 F9000
;AFTER_LAYER_CHANGE
;0.2
G1 X90.139 Y90.014
G1 Z.2
G1 E.8 F1800
M204 S500
;TYPE:Skirt/Brim
;WIDTH:0.42
G1 F1200
G1 X92.337 Y88.047 E.09248
G1 X94.728 Y86.322 E.09244
G1 X97.287 Y84.855 E.09248
G1 X99.82 Y83.727 E.08694
G1 X102.622 Y82.807 E.09247
G1 X105.505 Y82.185 E.09247
G1 X108.437 Y81.867 E.09247
G1 X110.36 Y81.831 E.0603
G1 X113.033 Y81.988 E.08395
G1 X115.944 Y82.458 E.09245
G1 X118.623 Y83.176 E.08696
G1 X121.379 Y84.224 E.09245
G1 X122.871 Y84.935 E.05182
G1 X125.42 Y86.418 E.09246
G1 X127.8 Y88.159 E.09246
G1 X129.986 Y90.139 E.09248
G1 X131.953 Y92.337 E.09248
G1 X133.678 Y94.728 E.09244
G1 X135.145 Y97.287 E.09248
G1 X136.273 Y99.82 E.08694
G1 X137.193 Y102.622 E.09247
G1 X137.815 Y105.505 E.09247
G1 X138.031 Y107.143 E.0518
G1 X138.176 Y110.088 E.09245
G1 X138.012 Y113.033 E.09248
G1 X137.542 Y115.944 E.09245
G1 X136.824 Y118.623 E.08696
G1 X135.776 Y121.379 E.09245
G1 X135.065 Y122.871 E.05182
G1 X133.582 Y125.42 E.09246
G1 X131.841 Y127.8 E.09246
G1 X129.861 Y129.986 E.09248
G1 X127.663 Y131.953 E.09248
G1 X125.272 Y133.678 E.09244
G1 X122.713 Y135.145 E.09248
G1 X120.18 Y136.273 E.08694
G1 X117.378 Y137.193 E.09247
G1 X114.495 Y137.815 E.09247
G1 X112.586 Y138.052 E.06031
G1 X109.912 Y138.176 E.08393
G1 X106.967 Y138.012 E.09248
G1 X104.056 Y137.542 E.09245
G1 X101.377 Y136.824 E.08696
G1 X98.621 Y135.776 E.09245
G1 X97.129 Y135.065 E.05182
G1 X94.58 Y133.582 E.09246
G1 X92.2 Y131.841 E.09246
G1 X90.014 Y129.861 E.09248
G1 X88.047 Y127.663 E.09248
G1 X86.322 Y125.272 E.09244
G1 X84.855 Y122.713 E.09248
G1 X83.727 Y120.18 E.08694
G1 X82.807 Y117.378 E.09247
G1 X82.185 Y114.495 E.09247
G1 X81.948 Y112.586 E.06031
G1 X81.824 Y109.912 E.08393
G1 X81.988 Y106.967 E.09248
G1 X82.458 Y104.056 E.09245
G1 X83.176 Y101.377 E.08696
G1 X84.224 Y98.621 E.09245
G1 X84.935 Y97.129 E.05182
G1 X86.418 Y94.58 E.09246
G1 X88.159 Y92.2 E.09246
G1 X90.099 Y90.059 E.09059
; printing object FujiFilm_XMount_RearCap.stl id:0 copy 0
EXCLUDE_OBJECT_START NAME=FujiFilm_XMount_RearCap_stl_id_0_copy_0
;WIPE_START
G1 F7200
G1 X90.139 Y90.014 E-.0143
G1 X92.337 Y88.047 E-.70054
G1 X92.628 Y87.837 E-.08516
;WIPE_END
G1 X91.573 Y108.22 F9000
G1 E.8 F1800
;TYPE:Perimeter
;WIDTH:0.419999
G1 F1200
G1 X91.407 Y108.636 E.01404
G1 X91.297 Y109.175 E.01725
G1 X91.1 Y109.094 E.00668
G1 X90.513 Y109.062 E.01843
;WIDTH:0.469961
G1 X90.37 Y109.03 E.0052
;WIDTH:0.519922
G1 X90.227 Y108.997 E.00582
;WIDTH:0.569883
G1 X90.084 Y108.965 E.00642
G1 X89.461 Y108.964 E.0273
;WIDTH:0.569463
G1 X89.461 Y108.438 E.02303
;WIDTH:0.569883
G1 X90.084 Y108.438 E.0273
G1 X90.233 Y108.413 E.00662
;WIDTH:0.519922
G1 X90.383 Y108.388 E.00603
;WIDTH:0.469961
G1 X90.532 Y108.363 E.00536
;WIDTH:0.419999
G1 X91.317 Y108.363 E.02461
G1 X91.521 Y108.249 E.00733
G1 X91.011 Y108.726 F9000
;WIDTH:0.39179
G1 F1200
G1 X90.532 Y108.713 E.0139
;WIPE_START
G1 F7200
G1 X91.011 Y108.726 E-.1138
;WIPE_END
G1 E-.6862 F1800
G1 X98.627 Y113.007 F9000
G1 E.8 F1800
;WIDTH:0.419999
G1 F1200
G1 X98.755 Y112.847 E.00642
G1 X98.964 Y113.157 E.01172
G1 X99.203 Y113.416 E.01105
G1 X99.739 Y113.9 E.02264
G1 X100.485 Y114.328 E.02697
G1 X101.304 Y114.588 E.02694
G1 X102.174 Y114.688 E.02746
G1 X103.095 Y114.633 E.02893
G1 X103.968 Y114.412 E.02824
G1 X104.577 Y114.128 E.02107
G1 X104.919 Y113.891 E.01305
G1 X105.023 Y114.159 E.00901
G1 X105.351 Y114.444 E.01362
G1 X105.927 Y114.622 E.0189
G1 X106.603 Y114.689 E.0213
G1 X107.266 Y114.641 E.02084
G1 X107.918 Y114.46 E.02122
G1 X108.407 Y114.215 E.01715
G1 X108.863 Y113.855 E.01822
G1 X109.302 Y113.336 E.02131
G1 X109.315 Y113.621 E.00895
G1 X109.389 Y113.986 E.01168
G1 X109.629 Y114.324 E.013
G1 X109.91 Y114.498 E.01036
G1 X110.258 Y114.564 E.01111
G1 X111.653 Y114.564 E.04374
G1 X111.933 Y114.522 E.00888
G1 X112.296 Y114.311 E.01316
G1 X112.34 Y114.22 E.00317
G1 X112.384 Y114.311 E.00317
G1 X112.748 Y114.522 E.01319
G1 X113.021 Y114.564 E.00866
G1 X114.422 Y114.564 E.04393
G1 X114.786 Y114.491 E.01164
G1 X115.104 Y114.273 E.01209
G1 X115.273 Y114.028 E.00933
G1 X115.365 Y113.621 E.01308
G1 X115.365 Y111.743 E.05888
G1 X116.726 Y111.743 E.04267
G1 X116.858 Y111.632 E.00541
G1 X116.858 Y113.621 E.06236
G1 X116.95 Y114.028 E.01308
G1 X117.119 Y114.273 E.00933
G1 X117.437 Y114.491 E.01209
G1 X117.801 Y114.564 E.01164
G1 X119.129 Y114.564 E.04164
G1 X119.481 Y114.52 E.01112
G1 X119.845 Y114.305 E.01326
G1 X119.883 Y114.226 E.00275
G1 X119.921 Y114.305 E.00275
G1 X120.285 Y114.52 E.01326
G1 X120.571 Y114.564 E.00907
G1 X123.583 Y114.559 E.09444
G1 X124.564 Y114.498 E.03082
G1 X124.903 Y114.415 E.01094
G1 X125.222 Y114.495 E.01031
G1 X126.428 Y114.562 E.03787
G1 X126.746 Y114.525 E.01004
G1 X127.097 Y114.333 E.01254
G1 X127.353 Y113.976 E.01377
G1 X127.422 Y113.49 E.01539
G1 X127.619 Y113.976 E.01644
G1 X127.875 Y114.333 E.01377
G1 X128.159 Y114.503 E.01038
G1 X128.493 Y114.564 E.01065
G1 X129.441 Y114.564 E.02972
G1 X129.821 Y114.484 E.01218
G1 X130.1 Y114.296 E.01055
G1 X130.317 Y113.971 E.01225
G1 X130.46 Y113.613 E.01209
G1 X130.547 Y113.971 E.01155
G1 X130.763 Y114.296 E.01224
G1 X131.042 Y114.484 E.01055
G1 X131.422 Y114.564 E.01218
G1 X132.817 Y114.564 E.04374
G1 X133.121 Y114.353 E.0116
G1 X133.021 Y114.893 E.01722
G1 X132.734 Y116.091 E.03863
G1 X132.384 Y117.273 E.03865
G1 X131.972 Y118.434 E.03863
G1 X131.501 Y119.573 E.03865
G1 X130.97 Y120.685 E.03864
G1 X130.382 Y121.768 E.03864
G1 X129.738 Y122.818 E.03862
G1 X129.041 Y123.834 E.03863
G1 X128.291 Y124.811 E.03862
G1 X127.49 Y125.748 E.03865
G1 X126.642 Y126.642 E.03863
G1 X125.748 Y127.49 E.03863
G1 X124.811 Y128.291 E.03865
G1 X123.834 Y129.041 E.03862
G1 X122.818 Y129.738 E.03863
G1 X121.768 Y130.382 E.03862
G1 X120.685 Y130.97 E.03864
G1 X119.573 Y131.501 E.03864
G1 X118.434 Y131.972 E.03865
G1 X117.273 Y132.384 E.03863
G1 X116.091 Y132.734 E.03865
G1 X114.893 Y133.021 E.03863
G1 X113.682 Y133.246 E.03862
G1 X112.46 Y133.407 E.03865
G1 X111.232 Y133.503 E.03862
G1 X110 Y133.535 E.03864
G1 X108.768 Y133.503 E.03864
G1 X107.54 Y133.407 E.03862
G1 X106.318 Y133.246 E.03865
G1 X105.107 Y133.021 E.03862
G1 X103.909 Y132.734 E.03863
G1 X102.727 Y132.384 E.03865
G1 X101.566 Y131.972 E.03863
G1 X100.427 Y131.501 E.03865
G1 X99.315 Y130.97 E.03864
G1 X98.232 Y130.382 E.03864
G1 X97.182 Y129.738 E.03862
G1 X96.166 Y129.041 E.03863
G1 X95.189 Y128.291 E.03862
G1 X94.252 Y127.49 E.03865
G1 X93.358 Y126.642 E.03863
G1 X92.51 Y125.748 E.03863
G1 X91.709 Y124.811 E.03865
G1 X90.959 Y123.834 E.03862
G1 X90.262 Y122.818 E.03863
G1 X89.618 Y121.768 E.03862
G1 X89.03 Y120.685 E.03864
G1 X88.499 Y119.573 E.03864
G1 X88.028 Y118.434 E.03865
G1 X87.616 Y117.273 E.03863
G1 X87.266 Y116.091 E.03865
G1 X86.979 Y114.893 E.03863
G1 X86.88 Y114.362 E.01694
G1 X87.294 Y114.555 E.01432
G1 X87.426 Y114.564 E.00415
G1 X88.439 Y114.564 E.03176
G1 X89.079 Y114.528 E.0201
G1 X89.335 Y114.412 E.00881
G1 X89.487 Y114.289 E.00613
G1 X89.683 Y114.003 E.01087
G1 X89.763 Y113.621 E.01224
G1 X89.763 Y111.741 E.05895
G1 X91.042 Y111.692 E.04013
G1 X91.214 Y112.221 E.01744
G1 X91.635 Y112.964 E.02678
G1 X92.06 Y113.469 E.02069
G1 X92.564 Y113.904 E.02087
G1 X93.036 Y114.183 E.01719
G1 X93.504 Y114.409 E.0163
G1 X94.309 Y114.624 E.02612
G1 X94.854 Y114.683 E.01719
G1 X95.391 Y114.671 E.01684
G1 X96.035 Y114.606 E.02029
G1 X96.787 Y114.412 E.02435
G1 X97.575 Y114.02 E.0276
G1 X98.004 Y113.688 E.01701
G1 X98.351 Y113.35 E.01519
G1 X98.589 Y113.054 E.01191
;WIPE_START
G1 F7200
G1 X98.627 Y113.007 E-.01435
G1 X98.755 Y112.847 E-.04866
G1 X98.964 Y113.157 E-.08879
G1 X99.203 Y113.416 E-.0837
G1 X99.739 Y113.9 E-.17152
G1 X100.485 Y114.328 E-.20426
G1 X101.243 Y114.568 E-.18872
;WIPE_END
G1 X98.766 Y109.588 F9000
G1 E.8 F1800
;TYPE:External perimeter
;WIDTH:0.639762
G1 F1200
G1 X98.751 Y110.558 E.04814
;WIDTH:0.64191
G1 X98.754 Y110.636 E.00389
;WIPE_START
G1 F7200
G1 X98.751 Y110.558 E-.01854
;WIPE_END
G1 E-.78146 F1800
G1 X117.157 Y108.24 F9000
G1 E.8 F1800
;TYPE:Perimeter
;WIDTH:0.575876
G1 F1200
G1 X117.157 Y108.708 E.02074
G1 X117.179 Y108.887 E.00799
;WIDTH:0.533356
G1 X117.2 Y109.066 E.00735
;WIDTH:0.490835
G1 X117.221 Y109.245 E.00671
;WIDTH:0.448314
G1 X117.242 Y109.424 E.00608
;WIDTH:0.405793
G1 X117.264 Y109.603 E.00544
G1 X117.179 Y109.476 E.00461
;WIDTH:0.448314
G1 X117.095 Y109.349 E.00513
;WIDTH:0.490835
G1 X117.011 Y109.223 E.00564
;WIDTH:0.533356
G1 X116.927 Y109.096 E.00621
;WIDTH:0.575876
G1 X116.843 Y108.97 E.00671
G1 X116.726 Y108.963 E.00519
;WIDTH:0.568383
G1 X115.062 Y108.963 E.0727
G1 X115.062 Y108.437 E.02298
G1 X116.726 Y108.437 E.0727
;WIDTH:0.575876
G1 X116.891 Y108.441 E.00731
G1 X117.109 Y108.276 E.01212
;WIPE_START
G1 F7200
G1 X117.157 Y108.24 E-.01425
G1 X117.157 Y108.708 E-.11115
G1 X117.179 Y108.887 E-.04283
;WIPE_END
G1 E-.63177 F1800
G1 X124.176 Y111.522 F9000
G1 E.8 F1800
;WIDTH:0.419999
G1 F1200
G1 X123.596 Y111.484 E.01822
G1 X122.908 Y111.483 E.02157
G1 X122.908 Y106.596 E.15323
G1 X122.829 Y106.217 E.01214
G1 X122.675 Y105.974 E.00902
G1 X122.537 Y105.845 E.00592
G1 X122.301 Y105.714 E.00846
G1 X121.965 Y105.652 E.01071
G1 X120.703 Y105.652 E.03957
G1 X120.288 Y105.695 E.01308
G1 X119.924 Y105.908 E.01322
G1 X119.883 Y106.004 E.00327
G1 X119.842 Y105.908 E.00327
G1 X119.478 Y105.695 E.01322
G1 X119.196 Y105.652 E.00894
G1 X117.736 Y105.654 E.04578
G1 X117.36 Y105.764 E.01228
G1 X117.17 Y105.686 E.00644
G1 X116.918 Y105.652 E.00797
G1 X113.027 Y105.652 E.122
G1 X112.75 Y105.694 E.00878
G1 X112.388 Y105.902 E.01309
G1 X112.34 Y106.011 E.00373
G1 X112.292 Y105.902 E.00373
G1 X111.93 Y105.694 E.01309
G1 X111.653 Y105.652 E.00878
G1 X110.258 Y105.652 E.04374
G1 X110 Y105.688 E.00817
G1 X109.646 Y105.878 E.0126
G1 X109.616 Y105.942 E.00222
G1 X109.587 Y105.878 E.0022
G1 X109.345 Y105.728 E.00893
G1 X108.974 Y105.652 E.01187
G1 X107.579 Y105.652 E.04374
G1 X107.264 Y105.706 E.01002
G1 X106.933 Y105.908 E.01216
G1 X106.729 Y106.187 E.01084
G1 X106.637 Y106.595 E.01311
G1 X106.648 Y109.267 E.08378
G1 X106.473 Y108.419 E.02715
G1 X106.217 Y107.793 E.02121
G1 X105.873 Y107.224 E.02085
G1 X105.669 Y106.975 E.01009
G1 X105.151 Y106.45 E.02312
G1 X104.435 Y105.979 E.02687
G1 X103.641 Y105.677 E.02664
G1 X102.83 Y105.54 E.02579
G1 X102.312 Y105.528 E.01625
G1 X101.419 Y105.621 E.02815
G1 X100.549 Y105.887 E.02852
G1 X99.948 Y106.206 E.02133
G1 X99.735 Y106.358 E.0082
G1 X99.117 Y106.922 E.02623
G1 X98.779 Y107.376 E.01775
G1 X98.455 Y106.921 E.01751
G1 X97.93 Y106.421 E.02273
G1 X97.254 Y105.979 E.02532
G1 X96.648 Y105.732 E.02052
G1 X96.406 Y105.667 E.00786
G1 X95.65 Y105.54 E.02404
G1 X95.131 Y105.528 E.01628
G1 X94.411 Y105.59 E.02266
G1 X94.088 Y105.659 E.01036
G1 X93.578 Y105.804 E.01662
G1 X92.797 Y106.184 E.02723
G1 X92.259 Y106.594 E.02121
G1 X92.244 Y106.426 E.00529
G1 X92.032 Y105.981 E.01546
G1 X91.697 Y105.732 E.01309
G1 X91.317 Y105.652 E.01218
G1 X87.426 Y105.652 E.122
G1 X86.951 Y105.78 E.01542
G1 X86.827 Y105.927 E.00603
G1 X86.979 Y105.107 E.02615
G1 X87.266 Y103.909 E.03863
G1 X87.616 Y102.727 E.03865
G1 X88.028 Y101.566 E.03863
G1 X88.499 Y100.427 E.03865
G1 X89.03 Y99.315 E.03864
G1 X89.618 Y98.232 E.03864
G1 X90.262 Y97.182 E.03862
G1 X90.959 Y96.166 E.03863
G1 X91.709 Y95.189 E.03862
G1 X92.51 Y94.252 E.03865
G1 X93.358 Y93.358 E.03863
G1 X94.252 Y92.51 E.03863
G1 X95.189 Y91.709 E.03865
G1 X96.166 Y90.959 E.03862
G1 X97.182 Y90.262 E.03863
G1 X98.232 Y89.618 E.03862
G1 X99.315 Y89.03 E.03864
G1 X100.427 Y88.499 E.03864
G1 X101.566 Y88.028 E.03865
G1 X102.727 Y87.616 E.03863
G1 X103.909 Y87.266 E.03865
G1 X105.107 Y86.979 E.03863
G1 X106.318 Y86.754 E.03862
G1 X107.54 Y86.593 E.03865
G1 X108.767 Y86.497 E.03859
G1 X110.086 Y86.467 E.04137
G1 X111.232 Y86.497 E.03594
G1 X112.46 Y86.593 E.03862
G1 X113.682 Y86.754 E.03865
G1 X114.893 Y86.979 E.03862
G1 X116.091 Y87.266 E.03863
G1 X117.273 Y87.616 E.03865
G1 X118.434 Y88.028 E.03863
G1 X119.573 Y88.499 E.03865
G1 X120.685 Y89.03 E.03864
G1 X121.768 Y89.618 E.03864
G1 X122.818 Y90.262 E.03862
G1 X123.834 Y90.959 E.03863
G1 X124.811 Y91.709 E.03862
G1 X125.748 Y92.51 E.03865
G1 X126.642 Y93.358 E.03863
G1 X127.49 Y94.252 E.03863
G1 X128.291 Y95.189 E.03865
G1 X129.041 Y96.166 E.03862
G1 X129.738 Y97.182 E.03863
G1 X130.382 Y98.232 E.03862
G1 X130.97 Y99.315 E.03864
G1 X131.501 Y100.427 E.03864
G1 X131.972 Y101.566 E.03865
G1 X132.384 Y102.727 E.03863
G1 X132.734 Y103.909 E.03865
G1 X133.021 Y105.107 E.03863
G1 X133.163 Y105.869 E.0243
G1 X132.817 Y105.652 E.01281
G1 X131.395 Y105.652 E.04459
G1 X130.796 Y105.686 E.01881
G1 X130.591 Y105.77 E.00695
G1 X130.416 Y105.896 E.00676
G1 X130.176 Y106.239 E.01313
G1 X129.007 Y109.114 E.09731
G1 X127.863 Y106.246 E.09681
G1 X127.74 Y106.026 E.0079
G1 X127.522 Y105.818 E.00945
G1 X127.195 Y105.675 E.01119
G1 X126.988 Y105.652 E.00653
G1 X125.072 Y105.663 E.06008
G1 X124.822 Y105.737 E.00817
G1 X124.504 Y105.974 E.01244
G1 X124.35 Y106.217 E.00902
G1 X124.271 Y106.595 E.01211
G1 X124.275 Y111.528 E.15467
G1 X124.236 Y111.526 E.00122
;WIPE_START
G1 F7200
G1 X124.176 Y111.522 E-.01428
G1 X123.596 Y111.484 E-.13805
G1 X122.908 Y111.483 E-.1634
G1 X122.908 Y109.444 E-.48427
;WIPE_END
G1 X133.776 Y112.499 F9000
G1 E.8 F1800
;WIDTH:0.431585
G1 F1200
G1 X133.719 Y113.073 E.01864
;WIDTH:0.394137
G1 X133.663 Y113.642 E.0167
;WIDTH:0.358745
G1 X133.621 Y113.892 E.00666
;WIDTH:0.389372
G1 X133.513 Y114.393 E.01476
;WIDTH:0.419999
G1 X133.098 Y116.189 E.0578
G1 X132.742 Y117.389 E.03925
G1 X132.324 Y118.57 E.03928
G1 X131.845 Y119.726 E.03923
G1 X131.306 Y120.856 E.03925
G1 X130.709 Y121.956 E.03924
G1 X130.055 Y123.024 E.03927
G1 X129.346 Y124.055 E.03923
G1 X128.584 Y125.049 E.03927
G1 X127.771 Y126.001 E.03925
G1 X126.909 Y126.909 E.03926
G1 X126.001 Y127.771 E.03926
G1 X125.049 Y128.584 E.03925
G1 X124.056 Y129.346 E.03925
G1 X123.024 Y130.055 E.03926
G1 X121.956 Y130.709 E.03927
G1 X120.856 Y131.306 E.03924
G1 X119.726 Y131.845 E.03925
G1 X118.57 Y132.324 E.03923
G1 X117.389 Y132.742 E.03928
G1 X116.189 Y133.098 E.03925
G1 X114.972 Y133.39 E.03924
G1 X113.741 Y133.618 E.03925
G1 X112.5 Y133.782 E.03925
G1 X111.252 Y133.88 E.03925
