; generated by PrusaSlicer 2.7.1 on 2024-04-21 at 20:27:18 UTC


;
;

;
;
; 

; external perimeters extrusion width = 0.42mm
; perimeters extrusion width = 0.44mm
; infill extrusion width = 0.44mm
; solid infill extrusion width = 0.44mm
; top infill extrusion width = 0.40mm
; first layer extrusion width = 0.42mm



; Pre-Processed for Cancel-Object support by preprocess_cancellation v0.2.0
; 1 known objects
EXCLUDE_OBJECT_DEFINE NAME=GARMIN_4PIN_RS232_stl_id_0_copy_0 CENTER=110.080,109.949 POLYGON=[[103.466,103.465],[103.466,116.535],[116.535,116.535],[116.535,103.465]]
M201 X500 Y500 Z100 E5000 ; sets maximum accelerations, mm/sec^2
M203 X500 Y500 Z10 E60 ; sets maximum feedrates, mm / sec
M204 S500 T1000 ; sets acceleration (S) and retract acceleration (R), mm/sec^2
M205 X8.00 Y8.00 Z0.40 E5.00 ; sets the jerk limits, mm/sec
M205 S0 T0 ; sets the minimum extruding and travel feed rate, mm/sec

; printing object GARMIN-4PIN-RS232.stl id:0 copy 0
EXCLUDE_OBJECT_START NAME=GARMIN_4PIN_RS232_stl_id_0_copy_0
; stop printing object GARMIN-4PIN-RS232.stl id:0 copy 0
EXCLUDE_OBJECT_END NAME=GARMIN_4PIN_RS232_stl_id_0_copy_0

;TYPE:Custom
G90 ; use absolute coordinates
M83 ; extruder relative mode
G28
M109 S0
M190 S0
start_print EXTRUDER_TEMP=210 BED_TEMP=60

M104 S150 ; set temporary nozzle temp to prevent oozing during homing
M140 S60 ; set final bed temp
G4 S30 ; allow partial nozzle warmup
G28 ; home all axis and restore leveling

G1 Z50 F240
G1 X2.0 Y10 F3000
M104 S210 ; set final nozzle temp
M190 S60 ; wait for bed temp to stabilize
M109 S210 ; wait for nozzle temp to stabilize
G1 Z0.28 F240
G92 E0
G1 X2.0 Y140 E10 F1500 ; prime the nozzle
G1 X2.3 Y140 F5000
G92 E0
G1 X2.3 Y10 E10 F1200 ; prime the nozzle
G92 E0
G21 ; set units to millimeters
G90 ; use absolute coordinates
M83 ; use relative distances for extrusion
; Filament gcode
M107
;LAYER_CHANGE
;Z:0.2
;HEIGHT:0.2
;BEFORE_LAYER_CHANGE
G92 E0
;0.2


G1 E-.8 F1800
G1 Z.2 F9000
;AFTER_LAYER_CHANGE
;0.2
G1 X102.976 Y101.956
G1 Z.2
G1 E.8 F1800
M204 S500
;TYPE:Skirt/Brim
;WIDTH:0.42
G1 F1200
G1 X104.571 Y100.806 E.06165
G1 X106.305 Y99.979 E.06024
G1 X107.198 Y99.693 E.0294
G1 X108.378 Y99.443 E.03782
G1 X109.292 Y99.341 E.02884
G1 X110.499 Y99.329 E.03785
G1 X111.7 Y99.453 E.03786
G1 X113.694 Y99.976 E.06464
G1 X114.78 Y100.445 E.03709
G1 X116.2 Y101.296 E.05191
G1 X118.234 Y103.24 E.08822
G1 X118.698 Y103.792 E.02261
G1 X119.231 Y104.629 E.03111
G1 X120.021 Y106.295 E.05781
G1 X120.545 Y108.289 E.06464
G1 X120.671 Y109.49 E.03786
G1 X120.674 Y110.409 E.02881
G1 X120.559 Y111.611 E.03786
G1 X120.371 Y112.553 E.03012
G1 X119.744 Y114.37 E.06027
G1 X118.792 Y116.063 E.0609
G1 X118.051 Y117.016 E.03785
G1 X117.208 Y117.879 E.03783
G1 X115.612 Y119.083 E.06268
G1 X114.573 Y119.647 E.03707
G1 X113.477 Y120.093 E.0371
G1 X112.329 Y120.417 E.0374
G1 X111.457 Y120.569 E.02775
G1 X109.539 Y120.664 E.06021
G1 X108.361 Y120.547 E.03712
G1 X107.204 Y120.301 E.03709
G1 X105.272 Y119.569 E.06478
G1 X104.222 Y118.974 E.03784
G1 X103.472 Y118.443 E.02881
G1 X102.56 Y117.652 E.03785
G1 X101.905 Y116.954 E.03001
G1 X100.79 Y115.389 E.06025
G1 X100.313 Y114.477 E.03227
G1 X99.87 Y113.355 E.03782
G1 X99.616 Y112.471 E.02884
G1 X99.404 Y111.283 E.03784
G1 X99.35 Y109.29 E.06251
G1 X99.655 Y107.393 E.06024
G1 X99.904 Y106.534 E.02804
G1 X100.348 Y105.437 E.03711
G1 X100.912 Y104.397 E.03709
G1 X101.587 Y103.426 E.03708
G1 X102.935 Y102 E.06153
G1 X103.208 Y102.258 F9000
G1 F1200
G1 X103.231 Y102.234 E.00104
G1 X104.768 Y101.127 E.05939
G1 X106.428 Y100.336 E.05766
G1 X107.302 Y100.055 E.02879
G1 X108.441 Y99.814 E.0365
G1 X110.475 Y99.705 E.06387
G1 X112.482 Y99.997 E.06359
G1 X113.573 Y100.333 E.03579
G1 X114.621 Y100.787 E.03581
G1 X115.983 Y101.605 E.04981
G1 X117.968 Y103.507 E.0862
G1 X118.505 Y104.173 E.02682
G1 X119.05 Y105.068 E.03286
G1 X119.806 Y106.836 E.06029
G1 X120.214 Y108.629 E.05766
G1 X120.297 Y110.39 E.05528
G1 X120.187 Y111.549 E.0365
G1 X120.003 Y112.471 E.02948
G1 X119.403 Y114.209 E.05765
G1 X118.487 Y115.842 E.05871
G1 X117.773 Y116.761 E.03649
G1 X116.961 Y117.594 E.03647
G1 X115.405 Y118.768 E.06112
G1 X114.401 Y119.311 E.03579
G1 X113.343 Y119.741 E.03581
G1 X112.235 Y120.052 E.03608
G1 X111.403 Y120.196 E.02647
G1 X109.566 Y120.288 E.05767
G1 X108.43 Y120.176 E.03579
G1 X107.313 Y119.94 E.0358
G1 X105.432 Y119.228 E.06306
G1 X103.706 Y118.147 E.06386
G1 X102.827 Y117.385 E.03647
G1 X102.186 Y116.702 E.02937
G1 X101.119 Y115.204 E.05767
G1 X100.655 Y114.317 E.03139
G1 X100.227 Y113.234 E.03651
G1 X99.985 Y112.393 E.02744
G1 X99.779 Y111.248 E.03648
G1 X99.726 Y109.303 E.06101
G1 X100.02 Y107.488 E.05765
G1 X100.256 Y106.668 E.02675
G1 X100.684 Y105.609 E.03581
G1 X101.227 Y104.605 E.03579
G1 X101.877 Y103.666 E.03581
G1 X103.167 Y102.302 E.05886
G1 X103.44 Y102.56 F9000
G1 F1200
G1 X103.486 Y102.512 E.00208
G1 X104.965 Y101.449 E.05711
G1 X106.55 Y100.693 E.05506
G1 X107.407 Y100.418 E.02822
G1 X108.503 Y100.186 E.03513
G1 X110.45 Y100.082 E.06113
G1 X112.401 Y100.366 E.06182
G1 X113.453 Y100.69 E.03451
G1 X114.462 Y101.129 E.0345
G1 X115.767 Y101.914 E.04775
G1 X117.701 Y103.774 E.08413
G1 X118.196 Y104.39 E.02478
G1 X118.724 Y105.258 E.03186
G1 X119.449 Y106.957 E.05792
G1 X119.839 Y108.67 E.05508
G1 X119.921 Y110.372 E.05343
G1 X119.815 Y111.487 E.03512
G1 X119.635 Y112.388 E.02881
G1 X119.061 Y114.049 E.0551
G1 X118.181 Y115.621 E.05649
G1 X117.495 Y116.506 E.03511
G1 X116.714 Y117.309 E.03512
G1 X115.197 Y118.453 E.05957
G1 X114.228 Y118.976 E.03453
G1 X113.208 Y119.388 E.03449
G1 X111.348 Y119.823 E.05989
G1 X109.594 Y119.912 E.05507
G1 X108.498 Y119.805 E.03453
G1 X107.422 Y119.578 E.03448
G1 X105.593 Y118.886 E.06131
G1 X103.94 Y117.851 E.06115
G1 X103.093 Y117.118 E.03512
G1 X102.466 Y116.45 E.02873
G1 X101.447 Y115.02 E.05506
G1 X100.996 Y114.156 E.03056
G1 X100.585 Y113.114 E.03512
G1 X100.154 Y111.212 E.06115
G1 X100.103 Y109.316 E.05947
G1 X100.385 Y107.583 E.05505
G1 X101.02 Y105.781 E.05991
G1 X101.541 Y104.812 E.0345
G1 X102.167 Y103.907 E.0345
G1 X103.399 Y102.604 E.05623
; printing object GARMIN-4PIN-RS232.stl id:0 copy 0
EXCLUDE_OBJECT_START NAME=GARMIN_4PIN_RS232_stl_id_0_copy_0
;WIPE_START
G1 F7200
G1 X103.44 Y102.56 E-.01428
G1 X103.486 Y102.512 E-.01579
G1 X104.965 Y101.449 E-.43258
G1 X106.247 Y100.837 E-.33735
;WIPE_END
G1 X112.098 Y108.795 F9000
G1 E.8 F1800
;TYPE:Perimeter
;WIDTH:0.419999
G1 F1200
G1 X112.031 Y108.886 E.00354
G1 X111.813 Y109.422 E.01814
G1 X111.739 Y110 E.01827
G1 X111.813 Y110.57 E.01802
G1 X112.031 Y111.106 E.01814
G1 X112.381 Y111.573 E.0183
G1 X112.794 Y111.903 E.01658
G1 X113.264 Y112.124 E.01628
G1 X113.715 Y112.238 E.01459
G1 X114.276 Y112.24 E.01759
G1 X114.847 Y112.094 E.01848
G1 X114.416 Y112.899 E.02863
G1 X114.052 Y113.388 E.01911
G1 X113.631 Y113.835 E.01925
G1 X113.057 Y114.3 E.02316
G1 X112.599 Y114.592 E.01703
G1 X112.1 Y114.842 E.0175
G1 X112.239 Y114.317 E.01703
G1 X112.256 Y113.781 E.01681
G1 X112.108 Y113.192 E.01904
G1 X111.912 Y112.782 E.01425
G1 X111.482 Y112.28 E.02072
G1 X110.984 Y111.954 E.01866
G1 X110.41 Y111.768 E.01892
G1 X109.888 Y111.737 E.0164
G1 X109.35 Y111.834 E.01714
G1 X108.848 Y112.052 E.01716
G1 X108.358 Y112.453 E.01985
G1 X108.031 Y112.886 E.01701
G1 X107.833 Y113.354 E.01593
G1 X107.747 Y113.873 E.01649
G1 X107.792 Y114.46 E.01846
G1 X107.915 Y114.841 E.01255
G1 X107.526 Y114.662 E.01343
G1 X107.011 Y114.349 E.0189
G1 X106.539 Y113.983 E.01873
G1 X106.171 Y113.616 E.0163
G1 X105.825 Y113.214 E.01663
G1 X105.437 Y112.638 E.02178
G1 X105.153 Y112.072 E.01986
G1 X105.484 Y112.194 E.01106
G1 X105.932 Y112.254 E.01417
G1 X106.432 Y112.22 E.01571
G1 X106.984 Y112.038 E.01822
G1 X107.46 Y111.731 E.01776
G1 X107.847 Y111.312 E.01788
G1 X108.139 Y110.747 E.01994
G1 X108.257 Y110.207 E.01733
G1 X108.245 Y109.704 E.01578
G1 X108.108 Y109.192 E.01662
G1 X107.912 Y108.782 E.01425
G1 X107.548 Y108.346 E.01781
G1 X107.07 Y108.003 E.01845
G1 X106.777 Y107.877 E.01
G1 X106.253 Y107.752 E.01689
G1 X105.686 Y107.759 E.01778
G1 X105.158 Y107.9 E.01714
G1 X105.475 Y107.276 E.02194
G1 X105.84 Y106.748 E.02013
G1 X106.293 Y106.243 E.02127
G1 X106.669 Y105.901 E.01594
G1 X107.214 Y105.515 E.02094
G1 X107.912 Y105.159 E.02457
G1 X107.815 Y105.415 E.00858
G1 X107.741 Y105.932 E.01638
G1 X107.792 Y106.46 E.01663
G1 X107.988 Y107.017 E.01851
G1 X108.321 Y107.503 E.01847
G1 X108.587 Y107.753 E.01145
G1 X108.962 Y107.984 E.01381
G1 X109.484 Y108.194 E.01764
G1 X109.932 Y108.254 E.01417
G1 X110.518 Y108.197 E.01846
G1 X111.07 Y107.989 E.0185
G1 X111.549 Y107.646 E.01847
G1 X111.89 Y107.236 E.01672
G1 X112.768 Y108.113 E.03891
G1 X112.33 Y108.481 E.01794
G1 X112.133 Y108.747 E.01038
G1 X112.372 Y109.068 F9000
G1 F1200
G1 X112.204 Y109.438 E.01274
G1 X112.124 Y109.899 E.01467
G1 X112.166 Y110.411 E.01611
G1 X112.336 Y110.872 E.01541
G1 X112.62 Y111.273 E.01541
G1 X112.89 Y111.514 E.01135
G1 X113.423 Y111.782 E.01871
G1 X113.742 Y111.86 E.0103
G1 X114.259 Y111.863 E.01621
G1 X114.734 Y111.734 E.01543
G1 X115.157 Y111.487 E.01536
G1 X115.554 Y111.065 E.01817
G1 X115.454 Y111.496 E.01387
G1 X115.285 Y112.023 E.01735
G1 X115.022 Y112.591 E.01963
G1 X114.639 Y113.233 E.02344
G1 X114.199 Y113.785 E.02213
G1 X113.687 Y114.284 E.02242
G1 X113.269 Y114.612 E.01666
G1 X112.774 Y114.926 E.01838
G1 X112.193 Y115.21 E.02028
G1 X111.664 Y115.405 E.01768
G1 X111.045 Y115.558 E.01999
G1 X111.157 Y115.487 E.00416
G1 X111.503 Y115.137 E.01543
G1 X111.747 Y114.711 E.01539
G1 X111.871 Y114.236 E.01539
G1 X111.881 Y113.82 E.01305
G1 X111.744 Y113.292 E.0171
G1 X111.581 Y112.964 E.01148
G1 X111.27 Y112.6 E.01501
G1 X110.868 Y112.321 E.01534
G1 X110.405 Y112.155 E.01542
G1 X109.915 Y112.114 E.01542
G1 X109.432 Y112.202 E.01539
G1 X109.045 Y112.373 E.01327
G1 X108.631 Y112.715 E.01684
G1 X108.401 Y113.005 E.01161
G1 X108.204 Y113.438 E.01492
G1 X108.121 Y113.922 E.0154
G1 X108.166 Y114.411 E.0154
G1 X108.332 Y114.861 E.01504
G1 X108.62 Y115.273 E.01576
G1 X108.944 Y115.549 E.01334
G1 X108.548 Y115.467 E.01268
G1 X107.935 Y115.266 E.02023
G1 X107.349 Y114.996 E.02023
G1 X106.797 Y114.661 E.02025
G1 X106.289 Y114.267 E.02016
G1 X105.737 Y113.715 E.02448
G1 X105.343 Y113.208 E.02013
G1 X105.007 Y112.657 E.02023
G1 X104.736 Y112.069 E.0203
G1 X104.574 Y111.588 E.01591
G1 X104.456 Y111.06 E.01696
G1 X104.62 Y111.273 E.00843
G1 X104.89 Y111.514 E.01135
G1 X105.423 Y111.782 E.01871
G1 X105.785 Y111.868 E.01167
G1 X106.259 Y111.863 E.01486
G1 X106.734 Y111.734 E.01543
G1 X107.157 Y111.487 E.01536
G1 X107.503 Y111.137 E.01543
G1 X107.747 Y110.711 E.01539
G1 X107.871 Y110.236 E.01539
G1 X107.882 Y109.829 E.01277
G1 X107.744 Y109.292 E.01738
G1 X107.581 Y108.964 E.01148
G1 X107.27 Y108.6 E.01501
G1 X106.868 Y108.321 E.01534
G1 X106.46 Y108.172 E.01362
G1 X105.915 Y108.114 E.01718
G1 X105.432 Y108.202 E.01539
G1 X105.101 Y108.343 E.01128
G1 X104.631 Y108.715 E.01879
G1 X104.443 Y108.947 E.00936
G1 X104.644 Y108.187 E.02465
G1 X104.916 Y107.529 E.02232
G1 X105.163 Y107.065 E.01648
G1 X105.553 Y106.503 E.02145
G1 X106.037 Y105.966 E.02267
G1 X106.446 Y105.597 E.01727
G1 X107.027 Y105.188 E.02228
G1 X107.632 Y104.866 E.02149
G1 X108.375 Y104.581 E.02495
G1 X108.952 Y104.443 E.0186
G1 X108.631 Y104.715 E.01319
G1 X108.438 Y104.954 E.00963
G1 X108.204 Y105.438 E.01686
G1 X108.121 Y105.922 E.0154
G1 X108.166 Y106.411 E.0154
G1 X108.336 Y106.872 E.01541
G1 X108.62 Y107.273 E.01541
G1 X108.89 Y107.514 E.01135
G1 X109.423 Y107.782 E.01871
G1 X109.785 Y107.868 E.01167
G1 X110.259 Y107.863 E.01486
G1 X110.816 Y107.701 E.01819
G1 X111.254 Y107.409 E.01651
G1 X111.588 Y107.016 E.01617
G1 X111.787 Y106.6 E.01446
G1 X113.402 Y108.213 E.07157
G1 X113.101 Y108.343 E.01028
G1 X112.631 Y108.715 E.01879
G1 X112.401 Y109.005 E.01161
G1 X112.397 Y109.013 E.00028
;WIPE_START
G1 F7200
G1 X112.372 Y109.068 E-.01435
G1 X112.204 Y109.438 E-.09651
G1 X112.124 Y109.899 E-.11112
G1 X112.166 Y110.411 E-.12201
G1 X112.336 Y110.872 E-.11669
G1 X112.62 Y111.273 E-.1167
G1 X112.89 Y111.514 E-.08595
G1 X113.404 Y111.772 E-.13667
;WIPE_END
G1 X114.54 Y108.137 F9000
G1 E.8 F1800
;WIDTH:0.535588
G1 F1200
G1 X115.068 Y107.608 E.03062
G1 X115.252 Y108.034 E.01901
G1 X115.455 Y108.717 E.02919
G1 X115.313 Y108.561 E.00864
G1 X114.922 Y108.287 E.01956
G1 X114.596 Y108.159 E.01435
G1 X114.992 Y108.855 F9000
;TYPE:External perimeter
;WIDTH:0.419999
G1 F1200
G1 X115.251 Y109.145 E.01219
;WIDTH:0.459018
G1 X115.395 Y109.482 E.01268
;WIDTH:0.498037
G1 X115.538 Y109.818 E.01382
G1 X115.541 Y110.163 E.01306
G1 X115.445 Y110.554 E.01524
;WIDTH:0.493586
G1 X115.284 Y110.774 E.01022
;WIDTH:0.456793
G1 X115.124 Y110.994 E.00936
;WIDTH:0.419999
G1 X114.955 Y111.169 E.00763
G1 X114.62 Y111.374 E.01231
G1 X114.243 Y111.486 E.01233
G1 X113.813 Y111.489 E.01348
G1 X113.581 Y111.439 E.00744
G1 X113.109 Y111.206 E.0165
G1 X112.919 Y111.043 E.00785
G1 X112.685 Y110.727 E.01233
G1 X112.54 Y110.362 E.01231
G1 X112.498 Y110.043 E.01009
G1 X112.552 Y109.583 E.01452
G1 X112.706 Y109.226 E.01219
G1 X112.875 Y109.003 E.00877
G1 X113.261 Y108.684 E.0157
;WIDTH:0.420954
G1 X113.61 Y108.549 E.01176
;WIDTH:0.433802
G1 X113.935 Y108.486 E.01076
G1 X114.292 Y108.514 E.01164
;WIDTH:0.419999
G1 X114.688 Y108.653 E.01316
G1 X114.942 Y108.822 E.00957
;WIPE_START
G1 F7200
G1 X114.992 Y108.855 E-.01423
G1 X115.251 Y109.145 E-.09234
;WIPE_END
G1 E-.69343 F1800
G1 X110.292 Y112.514 F9000
G1 E.8 F1800
G1 F1200
G1 X110.665 Y112.639 E.01233
G1 X110.979 Y112.842 E.01172
G1 X111.307 Y113.247 E.01634
G1 X111.434 Y113.586 E.01135
G1 X111.507 Y113.878 E.00944
G1 X111.503 Y114.155 E.00869
G1 X111.412 Y114.537 E.01231
G1 X111.225 Y114.883 E.01233
;WIDTH:0.461374
G1 X110.956 Y115.135 E.01283
;WIDTH:0.502749
G1 X110.687 Y115.388 E.01412
;WIDTH:0.522471
G1 X110.404 Y115.496 E.01208
G1 X109.901 Y115.539 E.02013
;WIDTH:0.496054
G1 X109.567 Y115.469 E.01286
;WIDTH:0.485121
G1 X109.349 Y115.346 E.0092
;WIDTH:0.45256
G1 X109.13 Y115.224 E.00854
;WIDTH:0.419999
G1 X108.919 Y115.043 E.00872
G1 X108.68 Y114.717 E.01267
G1 X108.54 Y114.362 E.01197
G1 X108.495 Y113.971 E.01234
G1 X108.581 Y113.515 E.01455
G1 X108.786 Y113.116 E.01406
G1 X109.22 Y112.711 E.01861
G1 X109.514 Y112.57 E.01022
G1 X109.899 Y112.491 E.01232
G1 X110.232 Y112.511 E.01046
;WIPE_START
G1 F7200
G1 X110.292 Y112.514 E-.01427
G1 X110.665 Y112.639 E-.09343
G1 X110.979 Y112.842 E-.0888
;WIPE_END
G1 E-.6035 F1800
G1 X107.225 Y110.883 F9000
G1 E.8 F1800
G1 F1200
G1 X106.955 Y111.169 E.01233
G1 X106.55 Y111.396 E.01456
G1 X106.243 Y111.486 E.01003
G1 X105.856 Y111.498 E.01214
G1 X105.581 Y111.439 E.00882
G1 X105.13 Y111.224 E.01567
;WIDTH:0.468332
G1 X104.901 Y111.012 E.01104
;WIDTH:0.516664
G1 X104.671 Y110.8 E.01232
;WIDTH:0.541991
G1 X104.638 Y110.763 E.00206
;WIDTH:0.567318
G1 X104.605 Y110.727 E.00213
G1 X104.55 Y110.547 E.00821
;WIDTH:0.538054
G1 X104.496 Y110.368 E.0077
;WIDTH:0.50879
G1 X104.459 Y109.967 E.0156
;WIDTH:0.492831
G1 X104.523 Y109.571 E.01501
;WIDTH:0.482816
G1 X104.65 Y109.35 E.00932
;WIDTH:0.451408
G1 X104.777 Y109.129 E.00866
;WIDTH:0.419999
G1 X105.159 Y108.763 E.01659
G1 X105.514 Y108.57 E.01267
G1 X105.899 Y108.491 E.01232
G1 X106.347 Y108.532 E.01411
G1 X106.665 Y108.639 E.01052
G1 X106.992 Y108.855 E.01229
G1 X107.12 Y108.995 E.00595
G1 X107.364 Y109.351 E.01353
G1 X107.504 Y109.843 E.01604
G1 X107.503 Y110.155 E.00978
G1 X107.412 Y110.537 E.01231
G1 X107.254 Y110.83 E.01044
;WIPE_START
G1 F7200
G1 X107.225 Y110.883 E-.01435
G1 X106.955 Y111.169 E-.09341
G1 X106.55 Y111.396 E-.11027
G1 X106.243 Y111.486 E-.07598
G1 X105.856 Y111.498 E-.09196
G1 X105.581 Y111.439 E-.0668
G1 X105.13 Y111.224 E-.11866
;WIPE_END
G1 E-.22857 F1800
G1 X111.851 Y105.468 F9000
G1 E.8 F1800
;TYPE:Perimeter
;WIDTH:0.532768
G1 F1200
G1 X111.799 Y105.277 E.00806
G1 X111.631 Y104.937 E.01545
G1 X111.297 Y104.548 E.02088
G1 X111.848 Y104.706 E.02335
G1 X112.385 Y104.934 E.02376
G1 X111.894 Y105.425 E.02828
G1 X111.508 Y106.156 F9000
;TYPE:External perimeter
;WIDTH:0.429961
G1 F1200
G1 X111.412 Y106.537 E.01264
;WIDTH:0.419999
G1 X111.225 Y106.883 E.01233
