; generated by PrusaSlicer 2.7.1 on 2024-03-22 at 03:49:32 UTC


;
;

;
;
; 

; external perimeters extrusion width = 0.42mm
; perimeters extrusion width = 0.44mm
; infill extrusion width = 0.44mm
; solid infill extrusion width = 0.44mm
; top infill extrusion width = 0.40mm
; support material extrusion width = 0.36mm
; first layer extrusion width = 0.42mm

; external perimeters extrusion width = 0.42mm
; perimeters extrusion width = 0.44mm
; infill extrusion width = 0.44mm
; solid infill extrusion width = 0.44mm
; top infill extrusion width = 0.40mm
; support material extrusion width = 0.36mm
; first layer extrusion width = 0.42mm



; Pre-Processed for Cancel-Object support by preprocess_cancellation v0.2.0
; 3 known objects
EXCLUDE_OBJECT_DEFINE NAME=Heltec_WT_v5_front_no_insert_blank_stl_id_0_copy_0 CENTER=109.960,115.391 POLYGON=[[85.837,59.323],[85.837,160.677],[134.163,160.677],[134.163,59.323]]
EXCLUDE_OBJECT_DEFINE NAME=Heltec_WT_v5_button_medium_stl_id_1_copy_0 CENTER=81.081,118.196 POLYGON=[[78.284,115.409],[78.284,120.987],[83.862,120.987],[83.862,115.409]]
EXCLUDE_OBJECT_DEFINE NAME=Heltec_WT_v5_button_medium_stl_id_1_copy_1 CENTER=81.475,109.911 POLYGON=[[78.675,107.118],[78.675,112.697],[84.253,112.697],[84.253,107.118]]
M201 X500 Y500 Z100 E5000 ; sets maximum accelerations, mm/sec^2
M203 X500 Y500 Z10 E60 ; sets maximum feedrates, mm / sec
M204 S500 T1000 ; sets acceleration (S) and retract acceleration (R), mm/sec^2
M205 X8.00 Y8.00 Z0.40 E5.00 ; sets the jerk limits, mm/sec
M205 S0 T0 ; sets the minimum extruding and travel feed rate, mm/sec

; printing object Heltec_WT_v5_front-no-insert-blank.stl id:0 copy 0
EXCLUDE_OBJECT_START NAME=Heltec_WT_v5_front_no_insert_blank_stl_id_0_copy_0
; stop printing object Heltec_WT_v5_front-no-insert-blank.stl id:0 copy 0
EXCLUDE_OBJECT_END NAME=Heltec_WT_v5_front_no_insert_blank_stl_id_0_copy_0
; printing object Heltec_WT_v5_button-medium.stl id:1 copy 0
EXCLUDE_OBJECT_START NAME=Heltec_WT_v5_button_medium_stl_id_1_copy_0
; stop printing object Heltec_WT_v5_button-medium.stl id:1 copy 0
EXCLUDE_OBJECT_END NAME=Heltec_WT_v5_button_medium_stl_id_1_copy_0
; printing object Heltec_WT_v5_button-medium.stl id:1 copy 1
EXCLUDE_OBJECT_START NAME=Heltec_WT_v5_button_medium_stl_id_1_copy_1
; stop printing object Heltec_WT_v5_button-medium.stl id:1 copy 1
EXCLUDE_OBJECT_END NAME=Heltec_WT_v5_button_medium_stl_id_1_copy_1

;TYPE:Custom
G90 ; use absolute coordinates
M83 ; extruder relative mode
G28
M109 S0
M190 S0
start_print EXTRUDER_TEMP=210 BED_TEMP=60

M104 S150 ; set temporary nozzle temp to prevent oozing during homing
M140 S60 ; set final bed temp
G4 S30 ; allow partial nozzle warmup
G28 ; home all axis and restore leveling

G1 Z50 F240
G1 X2.0 Y10 F3000
M104 S210 ; set final nozzle temp
M190 S60 ; wait for bed temp to stabilize
M109 S210 ; wait for nozzle temp to stabilize
G1 Z0.28 F240
G92 E0
G1 X2.0 Y140 E10 F1500 ; prime the nozzle
G1 X2.3 Y140 F5000
G92 E0
G1 X2.3 Y10 E10 F1200 ; prime the nozzle
G92 E0
G21 ; set units to millimeters
G90 ; use absolute coordinates
M83 ; use relative distances for extrusion
; Filament gcode
M107
;LAYER_CHANGE
;Z:0.2
;HEIGHT:0.2
;BEFORE_LAYER_CHANGE
G92 E0
;0.2


G1 E-.8 F1800
G1 Z.2 F9000
;AFTER_LAYER_CHANGE
;0.2
G1 X83.26 Y58.183
G1 Z.2
G1 E.8 F1800
M204 S500
;TYPE:Skirt/Brim
;WIDTH:0.42
G1 F1200
G1 X84.696 Y56.747 E.06367
G1 X86.094 Y55.906 E.05115
G1 X87.084 Y55.758 E.03139
G1 X132.916 Y55.758 E1.43703
G1 X134.499 Y56.152 E.05115
G1 X135.304 Y56.747 E.03139
G1 X136.74 Y58.183 E.06367
G1 X137.581 Y59.581 E.05115
G1 X137.729 Y60.571 E.03139
G1 X137.729 Y159.294 E3.09539
G1 X137.029 Y161.354 E.06822
G1 X135.304 Y163.253 E.08044
G1 X133.906 Y164.094 E.05115
G1 X132.916 Y164.242 E.03139
G1 X87.084 Y164.242 E1.43703
G1 X85.501 Y163.848 E.05115
G1 X84.696 Y163.253 E.03139
G1 X83.26 Y161.817 E.06367
G1 X82.4 Y160.355 E.05318
G1 X71.193 Y121.029 E1.28213
G1 X70.949 Y119.958 E.03444
G1 X70.8 Y118.454 E.04739
G1 X71.214 Y109.17 E.29138
G1 X71.368 Y107.99 E.03731
G1 X82.356 Y59.819 E1.54916
G1 X83.231 Y58.235 E.05674
;WIPE_START
G1 F7200
G1 X83.26 Y58.183 E-.01414
G1 X84.696 Y56.747 E-.48232
G1 X85.791 Y56.088 E-.30354
;WIPE_END
G1 X82.226 Y103.471 F9000
G1 E.8 F1800
G1 F1200
G1 X82.855 Y103.577 E.02
G1 X84.062 Y103.969 E.03979
G1 X85.17 Y104.589 E.03981
G1 X85.675 Y104.98 E.02003
G1 X86.556 Y105.897 E.03987
G1 X87.239 Y106.962 E.03967
G1 X87.502 Y107.548 E.02014
G1 X87.704 Y108.151 E.01994
G1 X87.927 Y109.4 E.03978
G1 X87.945 Y110.032 E.01982
G1 X87.808 Y111.24 E.03812
G1 X87.445 Y112.406 E.03829
G1 X87.171 Y112.983 E.02003
G1 X86.235 Y114.287 E.05033
G1 X86.796 Y115.154 E.03238
G1 X87.286 Y116.352 E.04058
G1 X87.526 Y117.578 E.03917
G1 X87.52 Y118.871 E.04054
G1 X87.255 Y120.148 E.04089
G1 X86.728 Y121.367 E.04164
G1 X86.034 Y122.371 E.03827
G1 X85.204 Y123.193 E.03663
G1 X84.094 Y123.933 E.04183
G1 X82.843 Y124.434 E.04225
G1 X81.726 Y124.648 E.03566
G1 X80.313 Y124.636 E.04431
G1 X79.682 Y124.53 E.02006
G1 X78.475 Y124.137 E.0398
G1 X77.363 Y123.515 E.03995
G1 X76.403 Y122.694 E.03961
G1 X75.981 Y122.21 E.02013
G1 X75.297 Y121.142 E.03977
G1 X75.036 Y120.559 E.02003
G1 X74.834 Y119.956 E.01994
G1 X74.61 Y118.706 E.03982
G1 X74.592 Y118.074 E.01982
G1 X74.73 Y116.866 E.03812
G1 X74.888 Y116.258 E.0197
G1 X75.366 Y115.124 E.03859
G1 X76.302 Y113.82 E.05033
G1 X75.73 Y112.931 E.03315
G1 X75.251 Y111.754 E.03984
G1 X75.012 Y110.528 E.03916
G1 X75.015 Y109.255 E.03991
G1 X75.264 Y108.018 E.03956
G1 X75.809 Y106.738 E.04362
G1 X76.503 Y105.736 E.03822
G1 X77.334 Y104.911 E.03672
G1 X78.443 Y104.173 E.04177
G1 X79.694 Y103.672 E.04225
G1 X80.812 Y103.459 E.03568
G1 X82.166 Y103.47 E.04246
G1 X82.119 Y103.867 F9000
G1 F1200
G1 X82.766 Y103.943 E.02043
G1 X83.903 Y104.311 E.03747
G1 X84.947 Y104.894 E.03749
G1 X85.858 Y105.669 E.0375
G1 X86.598 Y106.605 E.03741
G1 X87.147 Y107.677 E.03776
G1 X87.471 Y108.821 E.03728
G1 X87.568 Y110.017 E.03762
G1 X87.437 Y111.17 E.03638
G1 X87.094 Y112.269 E.0361
G1 X86.515 Y113.337 E.03809
G1 X85.748 Y114.259 E.0376
G1 X86.467 Y115.339 E.04068
G1 X86.723 Y115.884 E.01888
G1 X87.064 Y117.027 E.0374
G1 X87.151 Y117.623 E.01889
G1 X87.146 Y118.823 E.03763
G1 X87.048 Y119.45 E.0199
G1 X86.696 Y120.575 E.03696
G1 X86.403 Y121.176 E.02096
G1 X85.751 Y122.122 E.03602
G1 X84.959 Y122.907 E.03496
G1 X84.394 Y123.322 E.02198
G1 X83.421 Y123.834 E.03447
G1 X82.746 Y124.07 E.02242
G1 X81.681 Y124.273 E.03399
G1 X80.966 Y124.302 E.02244
G1 X79.772 Y124.164 E.03769
G1 X78.634 Y123.795 E.03751
G1 X77.586 Y123.21 E.03763
G1 X76.68 Y122.438 E.03732
G1 X75.939 Y121.501 E.03746
G1 X75.39 Y120.43 E.03774
G1 X75.066 Y119.285 E.03731
G1 X74.969 Y118.089 E.03762
G1 X75.1 Y116.936 E.03638
G1 X75.45 Y115.819 E.0367
G1 X76.011 Y114.787 E.03683
G1 X76.789 Y113.848 E.03823
G1 X76.059 Y112.747 E.04142
G1 X75.807 Y112.202 E.01883
G1 X75.473 Y111.079 E.03674
G1 X75.386 Y110.483 E.01889
G1 X75.391 Y109.284 E.03759
G1 X75.622 Y108.138 E.03665
G1 X75.849 Y107.51 E.02094
G1 X76.135 Y106.93 E.02028
G1 X76.787 Y105.984 E.03602
G1 X77.58 Y105.197 E.03503
G1 X78.145 Y104.784 E.02194
G1 X79.116 Y104.273 E.0344
G1 X79.791 Y104.037 E.02242
G1 X80.856 Y103.833 E.034
G1 X81.588 Y103.804 E.02297
G1 X82.06 Y103.86 E.0149
G1 X82.057 Y104.217 F9000
G1 F1200
G1 X82.121 Y104.218 E.00201
G1 X82.677 Y104.31 E.01767
G1 X83.745 Y104.654 E.03518
G1 X84.725 Y105.199 E.03516
G1 X85.172 Y105.542 E.01767
G1 X85.954 Y106.351 E.03528
G1 X86.277 Y106.802 E.01739
G1 X86.559 Y107.29 E.01767
G1 X86.973 Y108.34 E.03539
G1 X87.174 Y109.442 E.03512
G1 X87.191 Y110.002 E.01757
G1 X87.156 Y110.549 E.01719
G1 X86.93 Y111.622 E.03438
G1 X86.499 Y112.64 E.03466
G1 X86.198 Y113.132 E.01808
G1 X85.199 Y114.242 E.04682
G1 X85.534 Y114.606 E.01551
G1 X86.138 Y115.524 E.03445
G1 X86.559 Y116.551 E.0348
G1 X86.776 Y117.667 E.03565
G1 X86.772 Y118.774 E.03471
G1 X86.541 Y119.906 E.03622
G1 X86.078 Y120.985 E.03681
G1 X85.467 Y121.873 E.0338
G1 X84.713 Y122.621 E.0333
G1 X83.742 Y123.266 E.03655
G1 X82.65 Y123.705 E.0369
G1 X81.637 Y123.899 E.03234
G1 X80.418 Y123.889 E.03822
G1 X79.86 Y123.797 E.01773
G1 X78.792 Y123.453 E.03518
G1 X77.808 Y122.906 E.0353
G1 X77.367 Y122.566 E.01746
G1 X76.957 Y122.183 E.01759
G1 X76.26 Y121.304 E.03517
G1 X75.977 Y120.814 E.01774
G1 X75.564 Y119.767 E.03529
G1 X75.364 Y118.663 E.03518
G1 X75.346 Y118.104 E.01754
G1 X75.381 Y117.556 E.01722
G1 X75.613 Y116.467 E.03491
G1 X76.029 Y115.484 E.03347
G1 X76.329 Y114.991 E.01809
G1 X76.677 Y114.526 E.01821
G1 X77.338 Y113.864 E.02933
G1 X77.003 Y113.501 E.01549
G1 X76.389 Y112.564 E.03512
G1 X75.979 Y111.556 E.03412
G1 X75.761 Y110.439 E.03568
G1 X75.767 Y109.314 E.03527
G1 X75.98 Y108.257 E.03381
G1 X76.46 Y107.121 E.03867
G1 X77.07 Y106.233 E.03378
G1 X77.826 Y105.484 E.03337
G1 X78.795 Y104.84 E.03648
G1 X79.888 Y104.401 E.03693
G1 X80.901 Y104.208 E.03233
G1 X81.997 Y104.217 E.03437
G1 X81.952 Y104.603 F9000
G1 F1200
G1 X82.589 Y104.677 E.02011
G1 X83.587 Y104.996 E.03285
G1 X84.504 Y105.504 E.03287
G1 X85.304 Y106.181 E.03286
G1 X85.955 Y107 E.0328
G1 X86.439 Y107.937 E.03307
G1 X86.726 Y108.94 E.03271
G1 X86.814 Y109.987 E.03294
G1 X86.696 Y111.03 E.03291
G1 X86.172 Y112.452 E.04752
G1 X85.576 Y113.333 E.03335
G1 X84.658 Y114.216 E.03994
G1 X85.236 Y114.838 E.02662
G1 X85.801 Y115.692 E.03211
G1 X86.025 Y116.17 E.01655
G1 X86.324 Y117.172 E.03279
G1 X86.4 Y117.693 E.01651
G1 X86.396 Y118.744 E.03295
G1 X86.313 Y119.28 E.01701
G1 X86.009 Y120.264 E.03229
G1 X85.752 Y120.795 E.0185
G1 X85.183 Y121.625 E.03155
G1 X84.467 Y122.334 E.03159
G1 X83.995 Y122.681 E.01837
G1 X83.118 Y123.143 E.03108
G1 X82.552 Y123.341 E.0188
G1 X81.593 Y123.524 E.03061
G1 X80.994 Y123.549 E.0188
G1 X79.948 Y123.43 E.03301
G1 X78.95 Y123.11 E.03286
G1 X78.03 Y122.601 E.03297
G1 X77.234 Y121.926 E.03272
G1 X76.582 Y121.107 E.03282
G1 X76.098 Y120.17 E.03307
G1 X75.811 Y119.166 E.03274
G1 X75.723 Y118.119 E.03294
G1 X75.842 Y117.077 E.03288
G1 X76.357 Y115.671 E.04695
G1 X76.961 Y114.774 E.03391
G1 X77.878 Y113.89 E.03994
G1 X77.301 Y113.269 E.02658
G1 X76.727 Y112.396 E.03276
G1 X76.505 Y111.918 E.01652
G1 X76.213 Y110.934 E.03218
G1 X76.137 Y110.413 E.01651
G1 X76.141 Y109.362 E.03295
G1 X76.343 Y108.357 E.03214
G1 X76.536 Y107.823 E.0178
G1 X76.786 Y107.311 E.01786
G1 X77.355 Y106.481 E.03155
G1 X78.071 Y105.77 E.03164
G1 X78.543 Y105.425 E.01833
G1 X79.419 Y104.964 E.03104
G1 X79.985 Y104.766 E.0188
G1 X80.945 Y104.582 E.03065
G1 X81.559 Y104.558 E.01927
G1 X81.893 Y104.596 E.01054
G1 X81.89 Y104.964 F9000
G1 F1200
G1 X82.018 Y104.965 E.00401
G1 X83.43 Y105.339 E.0458
G1 X84.672 Y106.107 E.04579
G1 X85.634 Y107.198 E.04561
G1 X86.243 Y108.531 E.04595
G1 X86.437 Y109.973 E.04562
G1 X86.329 Y110.943 E.0306
G1 X86.048 Y111.837 E.02938
G1 X85.291 Y113.085 E.04577
G1 X84.599 Y113.769 E.03051
G1 X84.035 Y114.184 E.02196
G1 X84.936 Y115.066 E.03953
G1 X85.672 Y116.305 E.04519
G1 X86.024 Y117.719 E.04569
G1 X86.02 Y118.714 E.0312
G1 X85.825 Y119.667 E.0305
G1 X85.426 Y120.606 E.03199
G1 X84.898 Y121.378 E.02933
G1 X84.222 Y122.048 E.02984
G1 X83.391 Y122.599 E.03126
G1 X82.455 Y122.976 E.03164
G1 X81.549 Y123.15 E.02893
G1 X80.52 Y123.142 E.03226
G1 X79.107 Y122.768 E.04583
G1 X77.867 Y122.001 E.04572
G1 X76.903 Y120.908 E.0457
G1 X76.294 Y119.576 E.04592
G1 X76.1 Y118.132 E.04568
G1 X76.209 Y117.164 E.03054
G1 X76.495 Y116.252 E.02997
G1 X77.246 Y115.022 E.04519
G1 X77.94 Y114.336 E.0306
G1 X78.504 Y113.923 E.02192
G1 X77.601 Y113.041 E.03958
G1 X76.858 Y111.785 E.04576
G1 X76.513 Y110.386 E.04518
G1 X76.515 Y109.409 E.03063
G1 X76.706 Y108.458 E.03041
G1 X77.111 Y107.501 E.03258
G1 X77.639 Y106.729 E.02933
G1 X78.316 Y106.057 E.02991
G1 X79.147 Y105.508 E.03123
G1 X80.082 Y105.13 E.03162
G1 X80.988 Y104.957 E.02892
G1 X81.83 Y104.964 E.0264
G1 X81.788 Y105.341 F9000
G1 F1200
G1 X82.414 Y105.411 E.01975
G1 X83.273 Y105.682 E.02824
G1 X84.062 Y106.116 E.02823
G1 X84.751 Y106.695 E.02822
G1 X85.314 Y107.397 E.02821
G1 X85.732 Y108.2 E.02838
G1 X85.982 Y109.061 E.02811
G1 X86.06 Y109.96 E.02829
G1 X85.847 Y111.293 E.04233
G1 X85.266 Y112.49 E.04172
G1 X84.354 Y113.482 E.04225
G1 X83.294 Y114.149 E.03927
G1 X84.018 Y114.669 E.02795
G1 X84.649 Y115.31 E.0282
G1 X85.142 Y116.061 E.02817
G1 X85.477 Y116.883 E.02783
G1 X85.669 Y118.232 E.04272
G1 X85.578 Y119.112 E.02774
G1 X85.314 Y119.972 E.02821
G1 X84.603 Y121.143 E.04295
G1 X83.597 Y122.041 E.04228
G1 X82.357 Y122.612 E.0428
G1 X81.02 Y122.795 E.04231
G1 X80.123 Y122.696 E.0283
G1 X79.264 Y122.424 E.02825
G1 X78.472 Y121.989 E.02833
G1 X77.786 Y121.412 E.02811
G1 X77.223 Y120.71 E.02821
G1 X76.805 Y119.907 E.02838
G1 X76.555 Y119.045 E.02814
G1 X76.477 Y118.146 E.02829
G1 X76.689 Y116.816 E.04223
G1 X77.271 Y115.617 E.04179
G1 X78.184 Y114.623 E.04232
G1 X79.243 Y113.958 E.03921
G1 X78.521 Y113.437 E.02792
G1 X77.888 Y112.796 E.02825
G1 X77.394 Y112.045 E.02818
G1 X77.06 Y111.225 E.02776
G1 X76.868 Y109.873 E.04282
G1 X76.96 Y108.994 E.02771
G1 X77.223 Y108.133 E.02823
G1 X77.934 Y106.964 E.0429
G1 X78.941 Y106.065 E.04233
G1 X80.18 Y105.495 E.04276
G1 X81.531 Y105.312 E.04275
G1 X81.728 Y105.334 E.00622
G1 X81.725 Y105.712 F9000
G1 F1200
G1 X81.919 Y105.713 E.00608
G1 X83.117 Y106.026 E.03882
G1 X84.173 Y106.673 E.03883
G1 X84.994 Y107.596 E.03873
G1 X85.514 Y108.724 E.03894
G1 X85.668 Y109.536 E.02591
G1 X85.659 Y110.364 E.02596
G1 X85.49 Y111.171 E.02585
G1 X85.174 Y111.919 E.02546
G1 X84.711 Y112.603 E.0259
G1 X84.11 Y113.194 E.02643
G1 X83.432 Y113.64 E.02545
G1 X82.252 Y114.098 E.03969
G1 X83.082 Y114.489 E.02877
G1 X83.768 Y114.952 E.02595
G1 X84.593 Y115.873 E.03877
G1 X85.118 Y116.998 E.03893
G1 X85.275 Y117.808 E.02587
G1 X85.27 Y118.636 E.02596
G1 X85.104 Y119.445 E.02589
G1 X84.774 Y120.227 E.02661
G1 X84.308 Y120.908 E.02587
G1 X83.733 Y121.474 E.0253
G1 X83.025 Y121.939 E.02656
G1 X82.259 Y122.248 E.0259
G1 X81.462 Y122.4 E.02544
G1 X80.619 Y122.394 E.02643
G1 X79.42 Y122.081 E.03885
G1 X78.365 Y121.434 E.0388
G1 X77.543 Y120.51 E.03878
G1 X77.023 Y119.383 E.03892
G1 X76.869 Y118.57 E.02594
G1 X76.878 Y117.742 E.02596
G1 X77.047 Y116.936 E.02582
G1 X77.364 Y116.187 E.0255
G1 X77.826 Y115.504 E.02585
G1 X78.429 Y114.911 E.02652
G1 X79.105 Y114.467 E.02536
G1 X80.285 Y114.009 E.03969
G1 X79.455 Y113.618 E.02877
G1 X78.77 Y113.154 E.02594
G1 X77.944 Y112.234 E.03877
G1 X77.419 Y111.109 E.03893
G1 X77.262 Y110.297 E.02593
G1 X77.267 Y109.469 E.02596
G1 X77.433 Y108.663 E.0258
G1 X77.764 Y107.88 E.02665
G1 X78.229 Y107.199 E.02586
G1 X78.805 Y106.631 E.02536
G1 X79.512 Y106.168 E.0265
G1 X80.278 Y105.859 E.0259
G1 X81.075 Y105.706 E.02545
G1 X81.665 Y105.711 E.0185
;WIPE_START
G1 F7200
G1 X81.725 Y105.712 E-.01425
G1 X81.919 Y105.713 E-.04608
G1 X83.117 Y106.026 E-.29408
G1 X84.173 Y106.673 E-.29413
G1 X84.597 Y107.15 E-.15146
;WIPE_END
G1 X81.114 Y114.357 F9000
G1 E.8 F1800
G1 F1200
G1 X81.852 Y114.436 E.02327
G1 X82.571 Y114.661 E.02362
G1 X83.232 Y115.02 E.02358
G1 X83.81 Y115.502 E.0236
G1 X84.283 Y116.088 E.02361
G1 X84.635 Y116.756 E.02367
G1 X84.847 Y117.476 E.02353
G1 X84.915 Y118.227 E.02364
G1 X84.835 Y118.977 E.02365
G1 X84.612 Y119.695 E.02357
G1 X84.252 Y120.357 E.02363
G1 X83.768 Y120.937 E.02369
G1 X83.183 Y121.411 E.02361
G1 X82.516 Y121.76 E.0236
G1 X81.793 Y121.973 E.02363
G1 X81.044 Y122.041 E.02358
G1 X80.294 Y121.962 E.02365
G1 X79.575 Y121.737 E.02362
G1 X78.912 Y121.376 E.02367
G1 X78.336 Y120.896 E.02351
G1 X77.863 Y120.31 E.02361
G1 X77.511 Y119.641 E.0237
G1 X77.299 Y118.921 E.02353
G1 X77.231 Y118.17 E.02364
G1 X77.31 Y117.421 E.02361
G1 X77.534 Y116.701 E.02364
G1 X77.894 Y116.041 E.02357
G1 X78.377 Y115.461 E.02367
G1 X78.964 Y114.987 E.02366
G1 X79.63 Y114.638 E.02358
G1 X80.353 Y114.424 E.02364
G1 X81.054 Y114.362 E.02207
G1 X81.052 Y114.75 F9000
G1 F1200
G1 X81.431 Y114.752 E.01188
G1 X82.097 Y114.889 E.02132
G1 X82.722 Y115.151 E.02125
G1 X83.286 Y115.532 E.02134
G1 X83.764 Y116.015 E.02131
G1 X84.138 Y116.581 E.02127
G1 X84.395 Y117.212 E.02136
G1 X84.524 Y117.878 E.02127
G1 X84.52 Y118.557 E.02129
