; generated by PrusaSlicer 2.7.1 on 2024-03-07 at 23:10:47 UTC


;
;

;
;
; 

; external perimeters extrusion width = 0.42mm
; perimeters extrusion width = 0.44mm
; infill extrusion width = 0.44mm
; solid infill extrusion width = 0.44mm
; top infill extrusion width = 0.40mm
; support material extrusion width = 0.36mm
; first layer extrusion width = 0.42mm



; Pre-Processed for Cancel-Object support by preprocess_cancellation v0.2.0
; 1 known objects
EXCLUDE_OBJECT_DEFINE NAME=Heltec_WT_v5_front_no_insert_ribs_stl_id_0_copy_0 CENTER=110.008,113.959 POLYGON=[[86.262,58.963],[86.262,161.037],[133.738,161.037],[133.738,58.963]]
M201 X500 Y500 Z100 E5000 ; sets maximum accelerations, mm/sec^2
M203 X500 Y500 Z10 E60 ; sets maximum feedrates, mm / sec
M204 S500 T1000 ; sets acceleration (S) and retract acceleration (R), mm/sec^2
M205 X8.00 Y8.00 Z0.40 E5.00 ; sets the jerk limits, mm/sec
M205 S0 T0 ; sets the minimum extruding and travel feed rate, mm/sec

; printing object Heltec_WT_v5_front-no-insert-ribs.stl id:0 copy 0
EXCLUDE_OBJECT_START NAME=Heltec_WT_v5_front_no_insert_ribs_stl_id_0_copy_0
; stop printing object Heltec_WT_v5_front-no-insert-ribs.stl id:0 copy 0
EXCLUDE_OBJECT_END NAME=Heltec_WT_v5_front_no_insert_ribs_stl_id_0_copy_0

;TYPE:Custom
G90 ; use absolute coordinates
M83 ; extruder relative mode
G28
M109 S0
M190 S0
start_print EXTRUDER_TEMP=210 BED_TEMP=60

M104 S150 ; set temporary nozzle temp to prevent oozing during homing
M140 S60 ; set final bed temp
G4 S30 ; allow partial nozzle warmup
G28 ; home all axis and restore leveling

G1 Z50 F240
G1 X2.0 Y10 F3000
M104 S210 ; set final nozzle temp
M190 S60 ; wait for bed temp to stabilize
M109 S210 ; wait for nozzle temp to stabilize
G1 Z0.28 F240
G92 E0
G1 X2.0 Y140 E10 F1500 ; prime the nozzle
G1 X2.3 Y140 F5000
G92 E0
G1 X2.3 Y10 E10 F1200 ; prime the nozzle
G92 E0
G21 ; set units to millimeters
G90 ; use absolute coordinates
M83 ; use relative distances for extrusion
; Filament gcode
M107
;LAYER_CHANGE
;Z:0.2
;HEIGHT:0.2
;BEFORE_LAYER_CHANGE
G92 E0
;0.2


G1 E-.8 F1800
G1 Z.2 F9000
;AFTER_LAYER_CHANGE
;0.2
G1 X83.279 Y58.68
G1 Z.2
G1 E.8 F1800
M204 S500
;TYPE:Skirt/Brim
;WIDTH:0.42
G1 F1200
G1 X83.874 Y57.875 E.03139
G1 X85.174 Y56.575 E.05764
G1 X86.572 Y55.735 E.05114
G1 X87.561 Y55.586 E.03136
G1 X132.439 Y55.586 E1.40712
G1 X134.022 Y55.98 E.05115
G1 X134.826 Y56.575 E.03136
G1 X136.126 Y57.875 E.05764
G1 X136.967 Y59.274 E.05118
G1 X137.116 Y60.263 E.03136
G1 X137.116 Y159.737 E3.11894
G1 X136.721 Y161.32 E.05116
G1 X136.126 Y162.125 E.03139
G1 X134.827 Y163.425 E.05762
G1 X133.428 Y164.265 E.05116
G1 X132.439 Y164.414 E.03136
G1 X87.561 Y164.414 E1.40712
G1 X85.978 Y164.02 E.05115
G1 X85.174 Y163.425 E.03136
G1 X83.874 Y162.125 E.05764
G1 X83.033 Y160.727 E.05115
G1 X82.884 Y159.737 E.03139
G1 X82.884 Y60.263 E3.11894
G1 X83.264 Y58.738 E.04928
; printing object Heltec_WT_v5_front-no-insert-ribs.stl id:0 copy 0
EXCLUDE_OBJECT_START NAME=Heltec_WT_v5_front_no_insert_ribs_stl_id_0_copy_0
;WIPE_START
G1 F7200
G1 X83.279 Y58.68 E-.01423
G1 X83.874 Y57.875 E-.23774
G1 X85.174 Y56.575 E-.43664
G1 X85.576 Y56.333 E-.11139
;WIPE_END
G1 X132.439 Y60.263 F9000
G1 E.8 F1800
;TYPE:Support material
G1 F1200
G1 X133.738 Y60.263 E.04073
G1 X133.738 Y72.643 E.38817
G1 X132.439 Y72.643 E.04073
G1 X132.439 Y75.242 E.08149
G1 X131.139 Y75.242 E.04076
G1 X131.139 Y144.758 E2.17963
G1 X132.439 Y144.758 E.04076
G1 X132.439 Y147.357 E.08149
G1 X133.738 Y147.357 E.04073
G1 X133.738 Y159.737 E.38817
G1 X132.439 Y159.737 E.04073
G1 X132.439 Y161.037 E.04076
G1 X87.561 Y161.037 E1.40712
G1 X87.561 Y159.737 E.04076
G1 X86.262 Y159.737 E.04073
G1 X86.262 Y147.357 E.38817
G1 X87.561 Y147.357 E.04073
G1 X87.561 Y144.758 E.08149
G1 X88.861 Y144.758 E.04076
G1 X88.861 Y75.242 E2.17963
G1 X87.561 Y75.242 E.04076
G1 X87.561 Y72.643 E.08149
G1 X86.262 Y72.643 E.04073
G1 X86.262 Y60.263 E.38817
G1 X87.561 Y60.263 E.04073
G1 X87.561 Y58.963 E.04076
G1 X132.439 Y58.963 E1.40712
G1 X132.439 Y60.207 E.039
G1 X103.359 Y118.235 F9000
G1 F1200
G1 X116.553 Y118.235 E.41369
G1 X117.075 Y118.309 E.01653
G1 X117.531 Y118.502 E.01553
G1 X118.11 Y119.07 E.02543
G1 X118.311 Y119.781 E.02317
G1 X118.311 Y143.862 E.75504
G1 X118.11 Y144.575 E.02323
G1 X117.53 Y145.143 E.02545
G1 X117.044 Y145.344 E.01649
G1 X116.541 Y145.409 E.0159
G1 X103.342 Y145.408 E.41385
G1 X102.825 Y145.336 E.01637
G1 X102.369 Y145.143 E.01553
G1 X101.79 Y144.575 E.02543
G1 X101.587 Y143.863 E.02321
G1 X101.588 Y119.757 E.75583
G1 X101.692 Y119.266 E.01574
G1 X102.125 Y118.675 E.02297
G1 X102.604 Y118.384 E.01757
G1 X103.302 Y118.238 E.02236
;WIPE_START
G1 F7200
G1 X102.604 Y118.384 E-.16936
G1 X102.125 Y118.675 E-.13311
G1 X101.692 Y119.266 E-.174
G1 X101.588 Y119.757 E-.1192
G1 X101.588 Y120.617 E-.20433
;WIPE_END
G1 X133.044 Y159.567 F9000
G1 E.8 F1800
G1 F1200
G1 X133.044 Y147.697 E.37218
G1 X132.625 Y147.697 E.01314
G1 X132.625 Y159.397 E.36685
G1 X132.206 Y159.397 E.01314
G1 X132.206 Y147.697 E.36685
G1 X132.099 Y147.697 E.00335
G1 X132.099 Y145.097 E.08152
G1 X131.787 Y145.097 E.00978
G1 X131.787 Y160.697 E.48913
G1 X131.368 Y160.697 E.01314
G1 X131.368 Y144.927 E.49446
;WIPE_START
G1 F7200
G1 X131.368 Y148.295 E-.8
;WIPE_END
G1 X133.044 Y72.473 F9000
G1 E.8 F1800
G1 F1200
G1 X133.044 Y60.603 E.37218
G1 X132.625 Y60.603 E.01314
G1 X132.625 Y72.303 E.36685
G1 X132.206 Y72.303 E.01314
G1 X132.206 Y60.603 E.36685
G1 X132.099 Y60.603 E.00335
G1 X132.099 Y59.303 E.04076
G1 X131.787 Y59.303 E.00978
G1 X131.787 Y74.903 E.48913
G1 X131.368 Y74.903 E.01314
G1 X131.368 Y59.303 E.48913
G1 X130.949 Y59.303 E.01314
G1 X130.949 Y160.697 E3.17914
G1 X130.53 Y160.697 E.01314
G1 X130.53 Y59.303 E3.17914
G1 X130.111 Y59.303 E.01314
G1 X130.111 Y160.697 E3.17914
G1 X129.692 Y160.697 E.01314
G1 X129.692 Y59.303 E3.17914
G1 X129.273 Y59.303 E.01314
G1 X129.273 Y160.697 E3.17914
G1 X128.854 Y160.697 E.01314
G1 X128.854 Y59.303 E3.17914
G1 X128.435 Y59.303 E.01314
G1 X128.435 Y160.697 E3.17914
G1 X128.016 Y160.697 E.01314
G1 X128.016 Y59.303 E3.17914
G1 X127.597 Y59.303 E.01314
G1 X127.597 Y160.697 E3.17914
G1 X127.178 Y160.697 E.01314
G1 X127.178 Y59.303 E3.17914
G1 X126.759 Y59.303 E.01314
G1 X126.759 Y160.697 E3.17914
G1 X126.34 Y160.697 E.01314
G1 X126.34 Y59.303 E3.17914
G1 X125.921 Y59.303 E.01314
G1 X125.921 Y160.697 E3.17914
G1 X125.502 Y160.697 E.01314
G1 X125.502 Y59.303 E3.17914
G1 X125.083 Y59.303 E.01314
G1 X125.083 Y160.697 E3.17914
G1 X124.664 Y160.697 E.01314
G1 X124.664 Y59.303 E3.17914
G1 X124.245 Y59.303 E.01314
G1 X124.245 Y160.697 E3.17914
G1 X123.826 Y160.697 E.01314
G1 X123.826 Y59.303 E3.17914
G1 X123.407 Y59.303 E.01314
G1 X123.407 Y160.697 E3.17914
G1 X122.988 Y160.697 E.01314
G1 X122.988 Y59.303 E3.17914
G1 X122.569 Y59.303 E.01314
G1 X122.569 Y160.697 E3.17914
G1 X122.15 Y160.697 E.01314
G1 X122.15 Y59.303 E3.17914
G1 X121.731 Y59.303 E.01314
G1 X121.731 Y160.697 E3.17914
G1 X121.312 Y160.697 E.01314
G1 X121.312 Y59.303 E3.17914
G1 X120.893 Y59.303 E.01314
G1 X120.893 Y160.697 E3.17914
G1 X120.474 Y160.697 E.01314
G1 X120.474 Y59.303 E3.17914
G1 X120.055 Y59.303 E.01314
G1 X120.055 Y160.697 E3.17914
G1 X119.636 Y160.697 E.01314
G1 X119.636 Y59.303 E3.17914
G1 X119.217 Y59.303 E.01314
G1 X119.217 Y160.697 E3.17914
G1 X118.799 Y160.697 E.01311
G1 X118.799 Y59.303 E3.17914
G1 X118.38 Y59.303 E.01314
G1 X118.38 Y118.86 E1.86737
G1 X117.961 Y118.387 E.01981
G1 X117.961 Y59.303 E1.85254
G1 X117.542 Y59.303 E.01314
G1 X117.542 Y118.126 E1.84435
G1 X117.123 Y117.97 E.01402
G1 X117.123 Y59.303 E1.83946
G1 X116.704 Y59.303 E.01314
G1 X116.704 Y117.905 E1.83742
G1 X116.285 Y117.896 E.01314
G1 X116.285 Y59.303 E1.83714
G1 X115.866 Y59.303 E.01314
G1 X115.866 Y117.896 E1.83714
G1 X115.447 Y117.896 E.01314
G1 X115.447 Y59.303 E1.83714
G1 X115.028 Y59.303 E.01314
G1 X115.028 Y117.896 E1.83714
G1 X114.609 Y117.896 E.01314
G1 X114.609 Y59.303 E1.83714
G1 X114.19 Y59.303 E.01314
G1 X114.19 Y117.896 E1.83714
G1 X113.771 Y117.896 E.01314
G1 X113.771 Y59.303 E1.83714
G1 X113.352 Y59.303 E.01314
G1 X113.352 Y117.896 E1.83714
G1 X112.933 Y117.896 E.01314
G1 X112.933 Y59.303 E1.83714
G1 X112.514 Y59.303 E.01314
G1 X112.514 Y117.896 E1.83714
G1 X112.095 Y117.896 E.01314
G1 X112.095 Y59.303 E1.83714
G1 X111.676 Y59.303 E.01314
G1 X111.676 Y117.896 E1.83714
G1 X111.257 Y117.896 E.01314
G1 X111.257 Y59.303 E1.83714
G1 X110.838 Y59.303 E.01314
G1 X110.838 Y117.896 E1.83714
G1 X110.419 Y117.896 E.01314
G1 X110.419 Y59.303 E1.83714
G1 X110 Y59.303 E.01314
G1 X110 Y117.896 E1.83714
G1 X109.581 Y117.896 E.01314
G1 X109.581 Y59.303 E1.83714
G1 X109.162 Y59.303 E.01314
G1 X109.162 Y117.896 E1.83714
G1 X108.743 Y117.896 E.01314
G1 X108.743 Y59.303 E1.83714
G1 X108.324 Y59.303 E.01314
G1 X108.324 Y117.896 E1.83714
G1 X107.905 Y117.896 E.01314
G1 X107.905 Y59.303 E1.83714
G1 X107.486 Y59.303 E.01314
G1 X107.486 Y117.896 E1.83714
G1 X107.067 Y117.896 E.01314
G1 X107.067 Y59.303 E1.83714
G1 X106.648 Y59.303 E.01314
G1 X106.648 Y117.896 E1.83714
G1 X106.229 Y117.896 E.01314
G1 X106.229 Y59.303 E1.83714
G1 X105.81 Y59.303 E.01314
G1 X105.81 Y117.896 E1.83714
G1 X105.391 Y117.896 E.01314
G1 X105.391 Y59.303 E1.83714
G1 X104.972 Y59.303 E.01314
G1 X104.972 Y117.896 E1.83714
G1 X104.553 Y117.896 E.01314
G1 X104.553 Y59.303 E1.83714
G1 X104.134 Y59.303 E.01314
G1 X104.134 Y117.896 E1.83714
G1 X103.715 Y117.896 E.01314
G1 X103.715 Y59.303 E1.83714
G1 X103.296 Y59.303 E.01314
G1 X103.296 Y117.898 E1.83721
G1 X102.877 Y117.95 E.01324
G1 X102.877 Y59.303 E1.83884
G1 X102.458 Y59.303 E.01314
G1 X102.458 Y118.077 E1.84282
G1 X102.039 Y118.316 E.01512
G1 X102.039 Y59.303 E1.85031
G1 X101.62 Y59.303 E.01314
G1 X101.62 Y118.722 E1.86304
G1 X101.354 Y119.197 E.01707
G1 X101.248 Y119.771 E.0183
G1 X101.248 Y143.872 E.75567
G1 X101.354 Y144.448 E.01836
G1 X101.62 Y144.922 E.01704
G1 X101.62 Y160.697 E.49461
G1 X102.039 Y160.697 E.01314
G1 X102.039 Y145.328 E.48188
G1 X102.458 Y145.567 E.01512
G1 X102.458 Y160.697 E.47439
G1 X102.877 Y160.697 E.01314
G1 X102.877 Y145.694 E.47041
G1 X103.296 Y145.745 E.01323
G1 X103.296 Y160.697 E.46881
G1 X103.715 Y160.697 E.01314
G1 X103.715 Y145.748 E.46872
G1 X104.134 Y145.748 E.01314
G1 X104.134 Y160.697 E.46872
G1 X104.553 Y160.697 E.01314
G1 X104.553 Y145.748 E.46872
G1 X104.972 Y145.748 E.01314
G1 X104.972 Y160.697 E.46872
G1 X105.391 Y160.697 E.01314
G1 X105.391 Y145.748 E.46872
G1 X105.81 Y145.748 E.01314
G1 X105.81 Y160.697 E.46872
G1 X106.229 Y160.697 E.01314
G1 X106.229 Y145.748 E.46872
G1 X106.648 Y145.748 E.01314
G1 X106.648 Y160.697 E.46872
G1 X107.067 Y160.697 E.01314
G1 X107.067 Y145.748 E.46872
G1 X107.486 Y145.748 E.01314
G1 X107.486 Y160.697 E.46872
G1 X107.905 Y160.697 E.01314
G1 X107.905 Y145.748 E.46872
G1 X108.324 Y145.748 E.01314
G1 X108.324 Y160.697 E.46872
G1 X108.743 Y160.697 E.01314
G1 X108.743 Y145.748 E.46872
G1 X109.162 Y145.748 E.01314
G1 X109.162 Y160.697 E.46872
G1 X109.581 Y160.697 E.01314
G1 X109.581 Y145.748 E.46872
G1 X110 Y145.748 E.01314
G1 X110 Y160.697 E.46872
G1 X110.419 Y160.697 E.01314
G1 X110.419 Y145.748 E.46872
G1 X110.838 Y145.748 E.01314
G1 X110.838 Y160.697 E.46872
G1 X111.257 Y160.697 E.01314
G1 X111.257 Y145.748 E.46872
G1 X111.676 Y145.748 E.01314
G1 X111.676 Y160.697 E.46872
G1 X112.095 Y160.697 E.01314
G1 X112.095 Y145.748 E.46872
G1 X112.514 Y145.748 E.01314
G1 X112.514 Y160.697 E.46872
G1 X112.933 Y160.697 E.01314
G1 X112.933 Y145.748 E.46872
G1 X113.352 Y145.748 E.01314
G1 X113.352 Y160.697 E.46872
G1 X113.771 Y160.697 E.01314
G1 X113.771 Y145.748 E.46872
G1 X114.19 Y145.748 E.01314
G1 X114.19 Y160.697 E.46872
G1 X114.609 Y160.697 E.01314
G1 X114.609 Y145.748 E.46872
G1 X115.028 Y145.748 E.01314
G1 X115.028 Y160.697 E.46872
G1 X115.447 Y160.697 E.01314
G1 X115.447 Y145.748 E.46872
G1 X115.866 Y145.748 E.01314
G1 X115.866 Y160.697 E.46872
G1 X116.285 Y160.697 E.01314
G1 X116.285 Y145.748 E.46872
G1 X116.704 Y145.739 E.01314
G1 X116.704 Y160.697 E.469
G1 X117.123 Y160.697 E.01314
G1 X117.123 Y145.675 E.471
G1 X117.542 Y145.518 E.01403
G1 X117.542 Y160.697 E.47593
G1 X117.961 Y160.697 E.01314
G1 X117.961 Y145.256 E.48414
G1 X118.38 Y144.785 E.01977
G1 X118.38 Y160.867 E.50424
G1 X101.201 Y160.867 F9000
G1 F1200
G1 X101.201 Y59.303 E3.18447
G1 X100.783 Y59.303 E.01311
G1 X100.783 Y160.697 E3.17914
G1 X100.364 Y160.697 E.01314
G1 X100.364 Y59.303 E3.17914
G1 X99.945 Y59.303 E.01314
G1 X99.945 Y160.697 E3.17914
G1 X99.526 Y160.697 E.01314
G1 X99.526 Y59.303 E3.17914
G1 X99.107 Y59.303 E.01314
G1 X99.107 Y160.697 E3.17914
G1 X98.688 Y160.697 E.01314
G1 X98.688 Y59.303 E3.17914
G1 X98.269 Y59.303 E.01314
G1 X98.269 Y160.697 E3.17914
G1 X97.85 Y160.697 E.01314
G1 X97.85 Y59.303 E3.17914
G1 X97.431 Y59.303 E.01314
G1 X97.431 Y160.697 E3.17914
G1 X97.012 Y160.697 E.01314
G1 X97.012 Y59.303 E3.17914
G1 X96.593 Y59.303 E.01314
G1 X96.593 Y160.697 E3.17914
G1 X96.174 Y160.697 E.01314
G1 X96.174 Y59.303 E3.17914
G1 X95.755 Y59.303 E.01314
G1 X95.755 Y160.697 E3.17914
G1 X95.336 Y160.697 E.01314
G1 X95.336 Y59.303 E3.17914
G1 X94.917 Y59.303 E.01314
G1 X94.917 Y160.697 E3.17914
G1 X94.498 Y160.697 E.01314
G1 X94.498 Y59.303 E3.17914
G1 X94.079 Y59.303 E.01314
G1 X94.079 Y160.697 E3.17914
G1 X93.66 Y160.697 E.01314
G1 X93.66 Y59.303 E3.17914
G1 X93.241 Y59.303 E.01314
G1 X93.241 Y160.697 E3.17914
G1 X92.822 Y160.697 E.01314
G1 X92.822 Y59.303 E3.17914
G1 X92.403 Y59.303 E.01314
G1 X92.403 Y160.697 E3.17914
G1 X91.984 Y160.697 E.01314
G1 X91.984 Y59.303 E3.17914
G1 X91.565 Y59.303 E.01314
G1 X91.565 Y160.697 E3.17914
G1 X91.146 Y160.697 E.01314
G1 X91.146 Y59.303 E3.17914
G1 X90.727 Y59.303 E.01314
G1 X90.727 Y160.697 E3.17914
G1 X90.308 Y160.697 E.01314
G1 X90.308 Y59.303 E3.17914
G1 X89.889 Y59.303 E.01314
G1 X89.889 Y160.697 E3.17914
G1 X89.47 Y160.697 E.01314
G1 X89.47 Y59.303 E3.17914
G1 X89.051 Y59.303 E.01314
G1 X89.051 Y160.697 E3.17914
G1 X88.632 Y160.697 E.01314
G1 X88.632 Y145.097 E.48913
G1 X88.213 Y145.097 E.01314
G1 X88.213 Y160.697 E.48913
G1 X87.901 Y160.697 E.00978
G1 X87.901 Y159.397 E.04076
G1 X87.794 Y159.397 E.00335
G1 X87.794 Y147.697 E.36685
G1 X87.375 Y147.697 E.01314
G1 X87.375 Y159.397 E.36685
G1 X86.956 Y159.397 E.01314
G1 X86.956 Y147.527 E.37218
;WIPE_START
G1 F7200
G1 X86.956 Y150.896 E-.8
;WIPE_END
G1 X88.632 Y75.073 F9000
G1 E.8 F1800
G1 F1200
G1 X88.632 Y59.303 E.49446
G1 X88.213 Y59.303 E.01314
G1 X88.213 Y74.903 E.48913
G1 X87.901 Y74.903 E.00978
G1 X87.901 Y72.303 E.08152
G1 X87.794 Y72.303 E.00335
G1 X87.794 Y60.603 E.36685
G1 X87.375 Y60.603 E.01314
G1 X87.375 Y72.303 E.36685
G1 X86.956 Y72.303 E.01314
G1 X86.956 Y60.433 E.37218
;WIPE_START
G1 F7200
G1 X86.956 Y63.801 E-.8
;WIPE_END
G1 X104.405 Y119.778 F9000
G1 E.8 F1800
;TYPE:Perimeter
;WIDTH:0.502478
G1 F1200
G1 X103.874 Y119.96 E.02145
G1 X103.541 Y120.202 E.01573
G1 X103.154 Y120.618 E.02171
G1 X103.155 Y119.887 E.02793
G1 X103.339 Y119.806 E.00768
G1 X104.345 Y119.779 E.03846
;WIPE_START
G1 F7200
G1 X104.405 Y119.778 E-.01425
G1 X103.874 Y119.96 E-.13331
G1 X103.541 Y120.202 E-.09777
G1 X103.154 Y120.618 E-.13494
G1 X103.155 Y119.887 E-.17361
G1 X103.339 Y119.806 E-.04775
G1 X104.174 Y119.784 E-.19837
;WIPE_END
G1 X115.626 Y119.806 F9000
G1 E.8 F1800
;WIDTH:0.510222
G1 F1200
G1 X116.493 Y119.806 E.03369
G1 X116.74 Y119.875 E.00996
G1 X116.74 Y120.672 E.03097
G1 X116.495 Y120.347 E.01581
G1 X116.042 Y119.986 E.02251
G1 X115.681 Y119.83 E.01528
;WIPE_START
G1 F7200
G1 X115.626 Y119.806 E-.01425
G1 X116.493 Y119.806 E-.20591
G1 X116.74 Y119.875 E-.06091
G1 X116.74 Y120.672 E-.18929
G1 X116.495 Y120.347 E-.09666
G1 X116.042 Y119.986 E-.13757
G1 X115.681 Y119.83 E-.0934
;WIPE_END
G1 E-.00201 F1800
G1 X116.767 Y143.043 F9000
G1 E.8 F1800
;WIDTH:0.455658
G1 F1200
G1 X116.746 Y143.799 E.02596
G1 X116.466 Y143.865 E.00987
G1 X115.892 Y143.865 E.0197
G1 X116.252 Y143.649 E.01441
G1 X116.502 Y143.418 E.01168
G1 X116.732 Y143.092 E.01369
;WIPE_START
G1 F7200
G1 X116.767 Y143.043 E-.0143
G1 X116.746 Y143.799 E-.17962
G1 X116.466 Y143.865 E-.06832
G1 X115.892 Y143.865 E-.13633
