; generated by PrusaSlicer 2.7.1 on 2024-03-01 at 18:16:35 UTC


;
;

;
;
; 

; external perimeters extrusion width = 0.42mm
; perimeters extrusion width = 0.44mm
; infill extrusion width = 0.44mm
; solid infill extrusion width = 0.44mm
; top infill extrusion width = 0.40mm
; first layer extrusion width = 0.42mm



; Pre-Processed for Cancel-Object support by preprocess_cancellation v0.2.0
; 1 known objects
EXCLUDE_OBJECT_DEFINE NAME=Lenscap72mm_stl_id_0_copy_0 CENTER=110.228,110.203 POLYGON=[[72.71,71.51],[72.71,148.49],[147.29,148.49],[147.29,71.51]]
M201 X500 Y500 Z100 E5000 ; sets maximum accelerations, mm/sec^2
M203 X500 Y500 Z10 E60 ; sets maximum feedrates, mm / sec
M204 S500 T1000 ; sets acceleration (S) and retract acceleration (R), mm/sec^2
M205 X8.00 Y8.00 Z0.40 E5.00 ; sets the jerk limits, mm/sec
M205 S0 T0 ; sets the minimum extruding and travel feed rate, mm/sec

; printing object Lenscap72mm.stl id:0 copy 0
EXCLUDE_OBJECT_START NAME=Lenscap72mm_stl_id_0_copy_0
; stop printing object Lenscap72mm.stl id:0 copy 0
EXCLUDE_OBJECT_END NAME=Lenscap72mm_stl_id_0_copy_0

;TYPE:Custom
G90 ; use absolute coordinates
M83 ; extruder relative mode
G28
M109 S0
M190 S0
start_print EXTRUDER_TEMP=210 BED_TEMP=60

M104 S150 ; set temporary nozzle temp to prevent oozing during homing
M140 S60 ; set final bed temp
G4 S30 ; allow partial nozzle warmup
G28 ; home all axis and restore leveling

G1 Z50 F240
G1 X2.0 Y10 F3000
M104 S210 ; set final nozzle temp
M190 S60 ; wait for bed temp to stabilize
M109 S210 ; wait for nozzle temp to stabilize
G1 Z0.28 F240
G92 E0
G1 X2.0 Y140 E10 F1500 ; prime the nozzle
G1 X2.3 Y140 F5000
G92 E0
G1 X2.3 Y10 E10 F1200 ; prime the nozzle
G92 E0
G21 ; set units to millimeters
G90 ; use absolute coordinates
M83 ; use relative distances for extrusion
; Filament gcode
M107
;LAYER_CHANGE
;Z:0.2
;HEIGHT:0.2
;BEFORE_LAYER_CHANGE
G92 E0
;0.2


G1 E-.8 F1800
G1 Z.2 F9000
;AFTER_LAYER_CHANGE
;0.2
G1 X81.638 Y82.604
G1 Z.2
G1 E.8 F1800
M204 S500
;TYPE:Skirt/Brim
;WIDTH:0.42
G1 F1200
G1 X84.437 Y79.975 E.1204
G1 X87.387 Y77.695 E.1169
G1 X96.505 Y71.841 E.33974
G1 X97.222 Y71.495 E.02496
G1 X101.078 Y70.389 E.12578
G1 X103.912 Y69.841 E.0905
G1 X107.169 Y69.47 E.10278
G1 X110.499 Y69.372 E.10446
G1 X113.707 Y69.541 E.10072
G1 X116.612 Y69.926 E.09188
G1 X119.755 Y70.596 E.10076
G1 X122.778 Y71.495 E.09889
G1 X123.495 Y71.841 E.02496
G1 X132.613 Y77.695 E.33974
G1 X135.648 Y80.047 E.12039
G1 X138.431 Y82.675 E.12002
G1 X140.936 Y85.548 E.11951
G1 X143.128 Y88.614 E.11817
G1 X145.049 Y91.939 E.1204
G1 X146.495 Y95.073 E.10822
G1 X147.762 Y98.649 E.11895
G1 X148.683 Y102.347 E.11949
G1 X149.252 Y106.22 E.12274
G1 X149.434 Y110.038 E.11985
G1 X149.252 Y113.78 E.11747
G1 X148.683 Y117.653 E.12274
G1 X147.762 Y121.351 E.11949
G1 X146.495 Y124.927 E.11895
G1 X145.049 Y128.061 E.10822
G1 X143.128 Y131.386 E.1204
G1 X140.936 Y134.452 E.11817
G1 X138.362 Y137.396 E.12261
G1 X135.563 Y140.025 E.1204
G1 X132.613 Y142.305 E.1169
G1 X123.495 Y148.159 E.33974
G1 X122.778 Y148.505 E.02496
G1 X119.755 Y149.404 E.09889
G1 X116.549 Y150.085 E.10276
G1 X113.707 Y150.459 E.08988
G1 X109.962 Y150.634 E.11755
G1 X106.293 Y150.459 E.11517
G1 X103.451 Y150.085 E.08988
G1 X100.245 Y149.404 E.10276
G1 X97.222 Y148.505 E.09889
G1 X96.505 Y148.159 E.02496
G1 X87.387 Y142.305 E.33974
G1 X84.437 Y140.025 E.1169
G1 X81.638 Y137.396 E.1204
G1 X79.064 Y134.452 E.12261
G1 X76.872 Y131.386 E.11817
G1 X74.951 Y128.061 E.1204
G1 X73.505 Y124.927 E.10822
G1 X72.238 Y121.351 E.11895
G1 X71.317 Y117.653 E.11949
G1 X70.748 Y113.78 E.12274
G1 X70.566 Y109.962 E.11985
G1 X70.748 Y106.22 E.11747
G1 X71.317 Y102.347 E.12274
G1 X72.238 Y98.649 E.11949
G1 X73.512 Y95.057 E.1195
G1 X74.951 Y91.939 E.10767
G1 X76.872 Y88.614 E.1204
G1 X79.064 Y85.548 E.11817
G1 X81.598 Y82.649 E.12073
; printing object Lenscap72mm.stl id:0 copy 0
EXCLUDE_OBJECT_START NAME=Lenscap72mm_stl_id_0_copy_0
;WIPE_START
G1 F7200
G1 X81.638 Y82.604 E-.0143
G1 X84.049 Y80.339 E-.7857
;WIPE_END
G1 X99.564 Y136.664 F9000
G1 E.8 F1800
;TYPE:Perimeter
;WIDTH:0.419999
G1 F1200
G1 X120.436 Y136.664 E.65443
G1 X120.436 Y141.047 E.13743
G1 X120.436 Y144.436 E.10626
G1 X118.974 Y144.866 E.04778
G1 X117.833 Y145.149 E.03686
G1 X116.683 Y145.394 E.03687
G1 X115.688 Y145.573 E.0317
G1 X114.524 Y145.746 E.0369
G1 X113.358 Y145.879 E.0368
G1 X112.349 Y145.961 E.03174
G1 X111.059 Y146.025 E.0405
G1 X110 Y146.041 E.03321
G1 X108.94 Y146.025 E.03324
G1 X107.814 Y145.972 E.03534
G1 X106.528 Y145.867 E.04046
G1 X105.475 Y145.746 E.03323
G1 X104.473 Y145.599 E.03175
G1 X103.315 Y145.394 E.03687
G1 X102.167 Y145.149 E.03681
G1 X101.026 Y144.866 E.03686
G1 X99.564 Y144.436 E.04778
G1 X99.564 Y136.724 E.2418
G1 X99.187 Y136.287 F9000
G1 F1200
G1 X120.813 Y136.287 E.67807
G1 X120.813 Y141.047 E.14925
G1 X120.813 Y144.712 E.11491
G1 X120.055 Y144.952 E.02493
G1 X119.071 Y145.23 E.03206
G1 X117.918 Y145.517 E.03725
G1 X116.756 Y145.764 E.03725
G1 X115.749 Y145.946 E.03209
G1 X114.573 Y146.12 E.03727
G1 X113.394 Y146.255 E.03721
G1 X112.374 Y146.337 E.03208
G1 X111.071 Y146.402 E.04091
G1 X110 Y146.419 E.03358
G1 X108.928 Y146.402 E.03362
G1 X107.79 Y146.349 E.03572
G1 X106.491 Y146.243 E.04086
G1 X105.426 Y146.12 E.03361
G1 X104.413 Y145.971 E.0321
G1 X103.243 Y145.764 E.03725
G1 X102.082 Y145.517 E.03722
G1 X100.929 Y145.23 E.03725
G1 X99.945 Y144.952 E.03206
G1 X99.187 Y144.712 E.02493
G1 X99.187 Y136.347 E.26228
G1 X98.81 Y135.91 F9000
;TYPE:External perimeter
G1 F1200
G1 X121.19 Y135.91 E.70171
G1 X121.19 Y141.047 E.16107
G1 X121.19 Y144.988 E.12357
G1 X120.164 Y145.313 E.03374
G1 X119.167 Y145.595 E.03249
G1 X118.003 Y145.884 E.0376
G1 X116.829 Y146.134 E.03764
G1 X115.81 Y146.318 E.03247
G1 X114.622 Y146.494 E.03766
G1 X113.431 Y146.63 E.03759
G1 X112.398 Y146.714 E.0325
G1 X111.083 Y146.779 E.04128
G1 X110 Y146.796 E.03396
G1 X108.916 Y146.779 E.03399
G1 X107.766 Y146.725 E.0361
G1 X106.454 Y146.618 E.04127
G1 X105.377 Y146.494 E.03399
G1 X104.353 Y146.344 E.03245
G1 X103.171 Y146.134 E.03764
G1 X101.997 Y145.884 E.03764
G1 X100.833 Y145.595 E.0376
G1 X99.836 Y145.313 E.03249
G1 X98.81 Y144.988 E.03374
G1 X98.81 Y135.97 E.28275
;WIPE_START
G1 F7200
G1 X98.81 Y135.91 E-.01425
G1 X102.118 Y135.91 E-.78575
;WIPE_END
G1 X119.553 Y136.785 F9000
G1 E.8 F1800
;TYPE:Solid infill
;WIDTH:0.420023
G1 F1200
G1 X120.146 Y137.377 E.02627
G1 X120.146 Y137.911 E.01674
G1 X119.189 Y136.954 E.04244
G1 X118.656 Y136.954 E.01671
G1 X120.146 Y138.444 E.06607
G1 X120.146 Y138.977 E.01671
G1 X118.123 Y136.954 E.08971
G1 X117.589 Y136.954 E.01674
G1 X120.146 Y139.511 E.11339
G1 X120.146 Y140.044 E.01671
G1 X117.056 Y136.954 E.13702
G1 X116.523 Y136.954 E.01671
G1 X120.146 Y140.577 E.16066
G1 X120.146 Y141.111 E.01674
G1 X115.989 Y136.954 E.18434
G1 X115.456 Y136.954 E.01671
G1 X120.146 Y141.644 E.20798
G1 X120.146 Y142.177 E.01671
G1 X114.923 Y136.954 E.23161
G1 X114.39 Y136.954 E.01671
G1 X120.146 Y142.71 E.25525
G1 X120.146 Y143.244 E.01674
G1 X113.856 Y136.954 E.27893
G1 X113.323 Y136.954 E.01671
G1 X120.146 Y143.777 E.30256
G1 X120.146 Y144.222 E.01395
G1 X120.077 Y144.242 E.00225
G1 X112.79 Y136.954 E.32316
G1 X112.256 Y136.954 E.01674
G1 X119.664 Y144.362 E.3285
G1 X119.251 Y144.482 E.01349
G1 X111.723 Y136.954 E.33382
G1 X111.19 Y136.954 E.01671
G1 X118.836 Y144.601 E.33908
G1 X118.409 Y144.707 E.0138
G1 X110.656 Y136.954 E.3438
G1 X110.123 Y136.954 E.01671
G1 X117.982 Y144.813 E.3485
G1 X117.548 Y144.913 E.01397
G1 X109.59 Y136.954 E.35292
G1 X109.056 Y136.954 E.01674
G1 X117.109 Y145.007 E.35711
G1 X116.669 Y145.1 E.0141
G1 X108.523 Y136.954 E.36123
G1 X107.99 Y136.954 E.01671
G1 X116.218 Y145.183 E.36489
G1 X115.766 Y145.264 E.0144
G1 X107.457 Y136.954 E.36848
G1 X106.923 Y136.954 E.01674
G1 X115.305 Y145.337 E.37172
G1 X114.841 Y145.406 E.01471
G1 X106.39 Y136.954 E.37478
G1 X105.857 Y136.954 E.01671
G1 X114.373 Y145.471 E.37766
G1 X113.895 Y145.526 E.01509
G1 X105.323 Y136.954 E.38012
G1 X104.79 Y136.954 E.01671
G1 X113.416 Y145.58 E.38252
G1 X112.925 Y145.623 E.01545
G1 X104.257 Y136.954 E.3844
G1 X103.723 Y136.954 E.01674
G1 X112.432 Y145.663 E.3862
G1 X111.927 Y145.691 E.01586
G1 X103.19 Y136.954 E.38744
G1 X102.657 Y136.954 E.01671
G1 X111.419 Y145.716 E.38855
G1 X110.906 Y145.737 E.0161
G1 X102.124 Y136.954 E.38945
G1 X101.59 Y136.954 E.01674
G1 X110.381 Y145.745 E.38983
G1 X110 Y145.751 E.01195
G1 X109.851 Y145.749 E.00467
G1 X101.057 Y136.954 E.38999
G1 X100.524 Y136.954 E.01671
G1 X109.309 Y145.74 E.38959
G1 X108.762 Y145.726 E.01716
G1 X99.99 Y136.954 E.38899
G1 X99.854 Y136.954 E.00426
G1 X99.854 Y137.352 E.01248
G1 X108.202 Y145.7 E.37019
G1 X107.636 Y145.666 E.01778
G1 X99.854 Y137.885 E.34507
G1 X99.854 Y138.419 E.01674
G1 X107.055 Y145.619 E.3193
G1 X106.471 Y145.569 E.01838
G1 X99.854 Y138.952 E.29343
G1 X99.854 Y139.485 E.01671
G1 X105.869 Y145.499 E.26671
G1 X105.257 Y145.421 E.01935
G1 X99.854 Y140.019 E.23957
G1 X99.854 Y140.552 E.01671
G1 X104.632 Y145.329 E.21186
G1 X103.988 Y145.218 E.02049
G1 X99.854 Y141.085 E.1833
G1 X99.854 Y141.618 E.01671
G1 X103.338 Y145.102 E.1545
G1 X102.66 Y144.958 E.02173
G1 X99.854 Y142.152 E.12443
G1 X99.854 Y142.685 E.01671
G1 X101.971 Y144.802 E.09388
G1 X101.261 Y144.625 E.02294
G1 X99.854 Y143.218 E.06239
G1 X99.854 Y143.752 E.01674
G1 X100.767 Y144.665 E.04049
;WIPE_START
G1 F7200
G1 X99.854 Y143.752 E-.30665
G1 X99.854 Y143.218 E-.12683
G1 X100.945 Y144.309 E-.36652
;WIPE_END
G1 X96.836 Y142.254 F9000
G1 E.8 F1800
;TYPE:Perimeter
;WIDTH:0.419999
G1 F1200
G1 X96.244 Y142.01 E.02008
G1 X95.147 Y141.517 E.03771
G1 X94.07 Y140.986 E.03765
G1 X93.011 Y140.418 E.03768
G1 X92.112 Y139.899 E.03255
G1 X91.092 Y139.264 E.03767
G1 X90.23 Y138.686 E.03254
G1 X89.119 Y137.89 E.04285
G1 X88.298 Y137.257 E.0325
G1 X87.371 Y136.492 E.03768
G1 X86.471 Y135.696 E.03767
G1 X85.716 Y134.983 E.03256
G1 X84.868 Y134.131 E.03769
G1 X84.052 Y133.251 E.03763
G1 X83.265 Y132.342 E.0377
G1 X82.612 Y131.535 E.03255
G1 X81.885 Y130.578 E.03768
G1 X81.193 Y129.597 E.03764
G1 X80.534 Y128.591 E.03771
G1 X79.993 Y127.706 E.03252
G1 X79.4 Y126.66 E.0377
G1 X78.844 Y125.595 E.03767
G1 X78.394 Y124.661 E.03251
G1 X77.844 Y123.409 E.04288
G1 X77.458 Y122.447 E.0325
G1 X77.103 Y121.47 E.03259
G1 X76.726 Y120.33 E.03765
G1 X76.348 Y119.018 E.04281
G1 X76.092 Y118.012 E.03255
G1 X75.87 Y116.999 E.03252
G1 X75.622 Y115.655 E.04285
G1 X75.468 Y114.63 E.0325
G1 X75.347 Y113.598 E.03258
G1 X75.231 Y112.236 E.04286
G1 X75.18 Y111.201 E.03249
G1 X75.16 Y110.162 E.03258
G1 X75.18 Y108.797 E.0428
G1 X75.231 Y107.762 E.03249
G1 X75.329 Y106.563 E.03772
G1 X75.468 Y105.371 E.03763
G1 X75.648 Y104.182 E.0377
G1 X75.837 Y103.162 E.03253
G1 X76.093 Y101.987 E.03771
G1 X76.389 Y100.824 E.03763
G1 X76.726 Y99.67 E.03769
G1 X77.048 Y98.683 E.03255
G1 X77.458 Y97.553 E.03769
G1 X77.844 Y96.591 E.0325
G1 X78.394 Y95.339 E.04288
G1 X78.844 Y94.405 E.03251
G1 X79.4 Y93.34 E.03767
G1 X79.993 Y92.294 E.0377
G1 X80.534 Y91.409 E.03252
G1 X81.193 Y90.403 E.03771
G1 X81.885 Y89.422 E.03764
G1 X82.612 Y88.465 E.03768
G1 X83.265 Y87.658 E.03255
G1 X84.052 Y86.749 E.0377
G1 X84.868 Y85.869 E.03763
G1 X85.716 Y85.017 E.03769
G1 X86.471 Y84.304 E.03256
G1 X87.371 Y83.508 E.03767
G1 X88.298 Y82.743 E.03768
G1 X89.119 Y82.11 E.0325
G1 X90.23 Y81.314 E.04285
G1 X91.092 Y80.736 E.03254
G1 X92.112 Y80.101 E.03767
G1 X93.011 Y79.582 E.03255
G1 X94.07 Y79.014 E.03768
G1 X95.147 Y78.483 E.03765
G1 X96.244 Y77.99 E.03771
G1 X96.836 Y77.746 E.02008
G1 X96.836 Y86.121 E.26259
G1 X96.916 Y86.502 E.01221
G1 X97.135 Y86.81 E.01185
G1 X97.416 Y86.992 E.0105
G1 X97.772 Y87.064 E.01139
G1 X122.221 Y87.064 E.76658
G1 X122.544 Y87.007 E.01028
G1 X122.865 Y86.81 E.01181
G1 X123.084 Y86.502 E.01185
G1 X123.164 Y86.121 E.01221
G1 X123.164 Y77.746 E.26259
G1 X123.756 Y77.99 E.02008
G1 X124.853 Y78.483 E.03771
G1 X125.93 Y79.014 E.03765
G1 X126.989 Y79.582 E.03768
G1 X127.888 Y80.101 E.03255
G1 X128.908 Y80.736 E.03767
G1 X129.77 Y81.314 E.03254
G1 X130.881 Y82.11 E.04285
G1 X131.702 Y82.743 E.0325
G1 X132.629 Y83.508 E.03768
G1 X133.529 Y84.304 E.03767
G1 X134.284 Y85.017 E.03256
G1 X135.132 Y85.869 E.03769
G1 X135.948 Y86.749 E.03763
G1 X136.735 Y87.658 E.0377
G1 X137.388 Y88.465 E.03255
G1 X138.115 Y89.422 E.03768
G1 X138.807 Y90.403 E.03764
G1 X139.466 Y91.409 E.03771
G1 X140.007 Y92.294 E.03252
G1 X140.6 Y93.34 E.0377
G1 X141.156 Y94.405 E.03767
G1 X141.606 Y95.339 E.03251
G1 X142.156 Y96.591 E.04288
G1 X142.542 Y97.553 E.0325
G1 X142.897 Y98.53 E.03259
G1 X143.274 Y99.67 E.03765
G1 X143.652 Y100.982 E.04281
G1 X143.908 Y101.988 E.03255
G1 X144.13 Y103.001 E.03252
G1 X144.378 Y104.345 E.04285
G1 X144.532 Y105.37 E.0325
G1 X144.653 Y106.401 E.03255
G1 X144.769 Y107.764 E.04289
G1 X144.827 Y109.153 E.04359
G1 X144.84 Y109.838 E.02148
G1 X144.82 Y111.203 E.0428
G1 X144.769 Y112.238 E.03249
G1 X144.671 Y113.437 E.03772
G1 X144.532 Y114.629 E.03763
G1 X144.352 Y115.818 E.0377
G1 X144.163 Y116.838 E.03253
G1 X143.907 Y118.013 E.03771
G1 X143.611 Y119.176 E.03763
G1 X143.274 Y120.33 E.03769
G1 X142.952 Y121.317 E.03255
G1 X142.542 Y122.447 E.03769
G1 X142.156 Y123.409 E.0325
G1 X141.606 Y124.661 E.04288
G1 X141.156 Y125.595 E.03251
G1 X140.6 Y126.66 E.03767
G1 X140.007 Y127.706 E.0377
G1 X139.466 Y128.591 E.03252
G1 X138.807 Y129.597 E.03771
G1 X138.115 Y130.578 E.03764
G1 X137.388 Y131.535 E.03768
G1 X136.735 Y132.342 E.03255
G1 X135.948 Y133.251 E.0377
G1 X135.132 Y134.131 E.03763
G1 X134.284 Y134.983 E.03769
G1 X133.529 Y135.696 E.03256
G1 X132.629 Y136.492 E.03767
G1 X131.702 Y137.257 E.03768
G1 X130.881 Y137.89 E.0325
G1 X129.77 Y138.686 E.04285
G1 X128.908 Y139.264 E.03254
G1 X127.888 Y139.899 E.03767
G1 X126.989 Y140.418 E.03255
G1 X125.93 Y140.986 E.03768
G1 X124.853 Y141.517 E.03765
G1 X123.756 Y142.01 E.03771
G1 X123.164 Y142.254 E.02008
G1 X123.164 Y133.879 E.26259
G1 X123.084 Y133.498 E.01221
G1 X122.865 Y133.19 E.01185
G1 X122.584 Y133.008 E.0105
G1 X122.228 Y132.936 E.01139
G1 X97.779 Y132.936 E.76658
G1 X97.456 Y132.993 E.01028
G1 X97.135 Y133.19 E.01181
G1 X96.916 Y133.498 E.01185
G1 X96.836 Y133.879 E.01221
G1 X96.836 Y142.194 E.26071
G1 X97.213 Y142.813 F9000
G1 F1200
G1 X96.094 Y142.356 E.0379
G1 X94.987 Y141.858 E.03806
G1 X93.898 Y141.322 E.03806
G1 X92.827 Y140.748 E.0381
G1 X91.918 Y140.222 E.03293
G1 X90.887 Y139.581 E.03806
G1 X90.015 Y138.996 E.03292
G1 X88.894 Y138.193 E.04324
G1 X88.063 Y137.552 E.03291
G1 X87.126 Y136.779 E.03809
G1 X86.216 Y135.974 E.03809
G1 X85.453 Y135.253 E.03291
G1 X84.596 Y134.392 E.03809
G1 X83.771 Y133.503 E.03803
G1 X82.976 Y132.584 E.0381
G1 X82.315 Y131.768 E.03293
G1 X81.58 Y130.801 E.03808
G1 X80.881 Y129.809 E.03805
G1 X80.215 Y128.793 E.03809
G1 X79.668 Y127.897 E.03291
G1 X79.069 Y126.841 E.03807
G1 X78.507 Y125.764 E.03809
G1 X78.052 Y124.819 E.03289
G1 X77.497 Y123.555 E.04328
G1 X77.105 Y122.581 E.03292
G1 X76.746 Y121.594 E.03293
G1 X76.366 Y120.442 E.03803
G1 X75.984 Y119.117 E.04324
G1 X75.725 Y118.099 E.03294
G1 X75.501 Y117.074 E.0329
G1 X75.25 Y115.717 E.04327
G1 X75.094 Y114.68 E.03288
G1 X74.972 Y113.636 E.03296
G1 X74.855 Y112.262 E.04324
G1 X74.803 Y111.214 E.0329
G1 X74.783 Y110.163 E.03296
G1 X74.803 Y108.785 E.04321
G1 X74.855 Y107.737 E.0329
G1 X74.953 Y106.526 E.03809
G1 X75.094 Y105.321 E.03804
G1 X75.276 Y104.12 E.03809
G1 X75.467 Y103.087 E.03294
G1 X75.725 Y101.901 E.03806
G1 X76.025 Y100.724 E.03808
G1 X76.366 Y99.558 E.03809
G1 X76.692 Y98.56 E.03292
G1 X77.106 Y97.418 E.03809
G1 X77.497 Y96.445 E.03288
G1 X78.052 Y95.181 E.04328
G1 X78.507 Y94.236 E.03289
G1 X79.069 Y93.159 E.03809
G1 X79.668 Y92.103 E.03807
G1 X80.215 Y91.207 E.03291
G1 X80.881 Y90.191 E.03809
G1 X81.58 Y89.199 E.03805
G1 X82.315 Y88.232 E.03808
G1 X82.976 Y87.416 E.03293
G1 X83.771 Y86.497 E.0381
G1 X84.596 Y85.608 E.03803
G1 X85.453 Y84.747 E.03809
G1 X86.216 Y84.026 E.03291
G1 X87.126 Y83.221 E.03809
G1 X88.063 Y82.448 E.03809
G1 X88.894 Y81.807 E.03291
G1 X90.015 Y81.004 E.04324
G1 X90.887 Y80.419 E.03292
G1 X91.918 Y79.778 E.03806
G1 X92.827 Y79.252 E.03293
