; generated by PrusaSlicer 2.7.1 on 2024-02-17 at 23:03:43 UTC

; 

; external perimeters extrusion width = 0.42mm
; perimeters extrusion width = 0.44mm
; infill extrusion width = 0.44mm
; solid infill extrusion width = 0.44mm
; top infill extrusion width = 0.40mm
; first layer extrusion width = 0.42mm


; printing object Linkage_Lid_Box_W2.0_x_D2.0_x_H1.0.STL id:0 copy 0
; stop printing object Linkage_Lid_Box_W2.0_x_D2.0_x_H1.0.STL id:0 copy 0

;TYPE:Custom


; Pre-Processed for Cancel-Object support by preprocess_cancellation v0.2.0
; 1 known objects
EXCLUDE_OBJECT_DEFINE NAME=Linkage_Lid_Box_W2_0_x_D2_0_x_H1_0_STL_id_0_copy_0 CENTER=110.393,126.534 POLYGON=[[84.809,81.746],[84.809,138.255],[135.191,138.255],[135.191,81.746]]
G90 ; use absolute coordinates
M83 ; extruder relative mode
M104 S150 ; set temporary nozzle temp to prevent oozing during homing
M140 S60 ; set final bed temp
G4 S30 ; allow partial nozzle warmup
G28 ; home all axis and restore leveling
M109 S0
M190 S0
start_print EXTRUDER_TEMP=210 BED_TEMP=60
G1 Z50 F240
G1 X2.0 Y10 F3000
M104 S210 ; set final nozzle temp
M190 S60 ; wait for bed temp to stabilize
M109 S210 ; wait for nozzle temp to stabilize
G1 Z0.28 F240
G92 E0
G1 X2.0 Y140 E10 F1500 ; prime the nozzle
G1 X2.3 Y140 F5000
G92 E0
G1 X2.3 Y10 E10 F1200 ; prime the nozzle
G92 E0
G21 ; set units to millimeters
G90 ; use absolute coordinates
M83 ; use relative distances for extrusion
; Filament gcode
M107
;LAYER_CHANGE
;Z:0.2
;HEIGHT:0.2
;BEFORE_LAYER_CHANGE
G92 E0
;0.2


G1 E-.8 F1800
G1 Z.2 F9000
;AFTER_LAYER_CHANGE
;0.2
G1 X83.5 Y81.269
G1 Z.2
G1 E.8 F1800
M204 S500
;TYPE:Skirt/Brim
;WIDTH:0.42
G1 F1200
G1 X84.333 Y80.436 E.03694
G1 X85.731 Y79.595 E.05115
G1 X86.721 Y79.447 E.03139
G1 X133.279 Y79.447 E1.45979
G1 X134.862 Y79.841 E.05115
G1 X135.667 Y80.436 E.03139
G1 X136.5 Y81.269 E.03694
G1 X137.341 Y82.667 E.05115
G1 X137.49 Y83.657 E.03139
G1 X137.49 Y136.876 E1.66864
G1 X137.096 Y138.46 E.05118
G1 X136.062 Y139.634 E.04905
G1 X135.638 Y139.934 E.01629
G1 X133.688 Y140.553 E.06415
G1 X86.312 Y140.553 E1.48544
G1 X84.362 Y139.934 E.06415
G1 X83.938 Y139.634 E.01629
G1 X82.873 Y138.398 E.05116
G1 X82.51 Y136.876 E.04906
G1 X82.51 Y83.657 E1.66864
G1 X82.904 Y82.074 E.05115
G1 X83.464 Y81.317 E.02952
; printing object Linkage_Lid_Box_W2.0_x_D2.0_x_H1.0.STL id:0 copy 0
EXCLUDE_OBJECT_START NAME=Linkage_Lid_Box_W2_0_x_D2_0_x_H1_0_STL_id_0_copy_0
;WIPE_START
G1 F7200
G1 X83.5 Y81.269 E-.01425
G1 X84.333 Y80.436 E-.27978
G1 X85.731 Y79.595 E-.38747
G1 X86.224 Y79.521 E-.1185
;WIPE_END
G1 X132.848 Y133.654 F9000
G1 E.8 F1800
;TYPE:Perimeter
;WIDTH:0.419999
G1 F1200
G1 X132.848 Y134.783 E.0354
G1 X132.848 Y135.912 E.0354
G1 X87.152 Y135.912 E1.43276
G1 X87.152 Y133.654 E.0708
G1 X132.788 Y133.654 E1.43088
G1 X133.225 Y133.277 F9000
G1 F1200
G1 X133.225 Y134.783 E.04722
G1 X133.225 Y136.289 E.04722
G1 X86.775 Y136.289 E1.4564
G1 X86.775 Y133.277 E.09444
G1 X133.165 Y133.277 E1.45452
G1 X133.603 Y132.9 F9000
;TYPE:External perimeter
G1 F1200
G1 X133.603 Y134.783 E.05904
G1 X133.603 Y136.666 E.05904
G1 X86.397 Y136.666 E1.48011
G1 X86.397 Y132.9 E.11808
G1 X133.543 Y132.9 E1.47823
;WIPE_START
G1 F7200
G1 X133.603 Y132.9 E-.01425
G1 X133.603 Y134.783 E-.44721
G1 X133.603 Y136.209 E-.33854
;WIPE_END
G1 X132.728 Y134.539 F9000
G1 E.8 F1800
;TYPE:Solid infill
;WIDTH:0.420685
G1 F1200
G1 X132.134 Y133.945 E.02639
G1 X131.599 Y133.945 E.01681
G1 X132.558 Y134.903 E.04258
G1 X132.558 Y135.437 E.01677
G1 X131.065 Y133.945 E.0663
G1 X130.531 Y133.945 E.01677
G1 X132.208 Y135.622 E.0745
G1 X131.674 Y135.622 E.01677
G1 X129.997 Y133.945 E.0745
G1 X129.462 Y133.945 E.01681
G1 X131.14 Y135.622 E.07452
G1 X130.605 Y135.622 E.01681
G1 X128.928 Y133.945 E.0745
G1 X128.394 Y133.945 E.01677
G1 X130.071 Y135.622 E.0745
G1 X129.537 Y135.622 E.01677
G1 X127.86 Y133.945 E.0745
G1 X127.325 Y133.945 E.01681
G1 X129.003 Y135.622 E.07452
G1 X128.469 Y135.622 E.01677
G1 X126.791 Y133.945 E.07452
G1 X126.257 Y133.945 E.01677
G1 X127.934 Y135.622 E.0745
G1 X127.4 Y135.622 E.01677
G1 X125.723 Y133.945 E.0745
G1 X125.189 Y133.945 E.01677
G1 X126.866 Y135.622 E.0745
G1 X126.332 Y135.622 E.01677
G1 X124.654 Y133.945 E.07452
G1 X124.12 Y133.945 E.01677
G1 X125.797 Y135.622 E.0745
G1 X125.263 Y135.622 E.01677
G1 X123.586 Y133.945 E.0745
G1 X123.052 Y133.945 E.01677
G1 X124.729 Y135.622 E.0745
G1 X124.195 Y135.622 E.01677
G1 X122.517 Y133.945 E.07452
G1 X121.983 Y133.945 E.01677
G1 X123.66 Y135.622 E.0745
G1 X123.126 Y135.622 E.01677
G1 X121.449 Y133.945 E.0745
G1 X120.915 Y133.945 E.01677
G1 X122.592 Y135.622 E.0745
G1 X122.058 Y135.622 E.01677
G1 X120.38 Y133.945 E.07452
G1 X119.846 Y133.945 E.01677
G1 X121.523 Y135.622 E.0745
G1 X120.989 Y135.622 E.01677
G1 X119.312 Y133.945 E.0745
G1 X118.778 Y133.945 E.01677
G1 X120.455 Y135.622 E.0745
G1 X119.921 Y135.622 E.01677
G1 X118.243 Y133.945 E.07452
G1 X117.709 Y133.945 E.01677
G1 X119.386 Y135.622 E.0745
G1 X118.852 Y135.622 E.01677
G1 X117.175 Y133.945 E.0745
G1 X116.641 Y133.945 E.01677
G1 X118.318 Y135.622 E.0745
G1 X117.784 Y135.622 E.01677
G1 X116.106 Y133.945 E.07452
G1 X115.572 Y133.945 E.01677
G1 X117.249 Y135.622 E.0745
G1 X116.715 Y135.622 E.01677
G1 X115.038 Y133.945 E.0745
G1 X114.504 Y133.945 E.01677
G1 X116.181 Y135.622 E.0745
G1 X115.647 Y135.622 E.01677
G1 X113.969 Y133.945 E.07452
G1 X113.435 Y133.945 E.01677
G1 X115.113 Y135.622 E.07452
G1 X114.578 Y135.622 E.01681
G1 X112.901 Y133.945 E.0745
G1 X112.367 Y133.945 E.01677
G1 X114.044 Y135.622 E.0745
G1 X113.51 Y135.622 E.01677
G1 X111.833 Y133.945 E.0745
G1 X111.298 Y133.945 E.01681
G1 X112.976 Y135.622 E.07452
G1 X112.441 Y135.622 E.01681
G1 X110.764 Y133.945 E.0745
G1 X110.23 Y133.945 E.01677
G1 X111.907 Y135.622 E.0745
G1 X111.373 Y135.622 E.01677
G1 X109.696 Y133.945 E.0745
G1 X109.161 Y133.945 E.01681
G1 X110.839 Y135.622 E.07452
G1 X110.304 Y135.622 E.01681
G1 X108.627 Y133.945 E.0745
G1 X108.093 Y133.945 E.01677
G1 X109.77 Y135.622 E.0745
G1 X109.236 Y135.622 E.01677
G1 X107.559 Y133.945 E.0745
G1 X107.024 Y133.945 E.01681
G1 X108.702 Y135.622 E.07452
G1 X108.167 Y135.622 E.01681
G1 X106.49 Y133.945 E.0745
G1 X105.956 Y133.945 E.01677
G1 X107.633 Y135.622 E.0745
G1 X107.099 Y135.622 E.01677
G1 X105.422 Y133.945 E.0745
G1 X104.887 Y133.945 E.01681
G1 X106.565 Y135.622 E.07452
G1 X106.03 Y135.622 E.01681
G1 X104.353 Y133.945 E.0745
G1 X103.819 Y133.945 E.01677
G1 X105.496 Y135.622 E.0745
G1 X104.962 Y135.622 E.01677
G1 X103.285 Y133.945 E.0745
G1 X102.75 Y133.945 E.01681
G1 X104.428 Y135.622 E.07452
G1 X103.893 Y135.622 E.01681
G1 X102.216 Y133.945 E.0745
G1 X101.682 Y133.945 E.01677
G1 X103.359 Y135.622 E.0745
G1 X102.825 Y135.622 E.01677
G1 X101.148 Y133.945 E.0745
G1 X100.613 Y133.945 E.01681
G1 X102.291 Y135.622 E.07452
G1 X101.756 Y135.622 E.01681
G1 X100.079 Y133.945 E.0745
G1 X99.545 Y133.945 E.01677
G1 X101.222 Y135.622 E.0745
G1 X100.688 Y135.622 E.01677
G1 X99.011 Y133.945 E.0745
G1 X98.477 Y133.945 E.01677
G1 X100.154 Y135.622 E.0745
G1 X99.62 Y135.622 E.01677
G1 X97.942 Y133.945 E.07452
G1 X97.408 Y133.945 E.01677
G1 X99.085 Y135.622 E.0745
G1 X98.551 Y135.622 E.01677
G1 X96.874 Y133.945 E.0745
G1 X96.34 Y133.945 E.01677
G1 X98.017 Y135.622 E.0745
G1 X97.483 Y135.622 E.01677
G1 X95.805 Y133.945 E.07452
G1 X95.271 Y133.945 E.01677
G1 X96.948 Y135.622 E.0745
G1 X96.414 Y135.622 E.01677
G1 X94.737 Y133.945 E.0745
G1 X94.203 Y133.945 E.01677
G1 X95.88 Y135.622 E.0745
G1 X95.346 Y135.622 E.01677
G1 X93.668 Y133.945 E.07452
G1 X93.134 Y133.945 E.01677
G1 X94.811 Y135.622 E.0745
G1 X94.277 Y135.622 E.01677
G1 X92.6 Y133.945 E.0745
G1 X92.066 Y133.945 E.01677
G1 X93.743 Y135.622 E.0745
G1 X93.209 Y135.622 E.01677
G1 X91.531 Y133.945 E.07452
G1 X90.997 Y133.945 E.01677
G1 X92.674 Y135.622 E.0745
G1 X92.14 Y135.622 E.01677
G1 X90.463 Y133.945 E.0745
G1 X89.929 Y133.945 E.01677
G1 X91.606 Y135.622 E.0745
G1 X91.072 Y135.622 E.01677
G1 X89.394 Y133.945 E.07452
G1 X88.86 Y133.945 E.01677
G1 X90.537 Y135.622 E.0745
G1 X90.003 Y135.622 E.01677
G1 X88.326 Y133.945 E.0745
G1 X87.792 Y133.945 E.01677
G1 X89.469 Y135.622 E.0745
G1 X88.935 Y135.622 E.01677
G1 X87.442 Y134.129 E.06632
G1 X87.442 Y134.663 E.01677
G1 X88.4 Y135.622 E.04258
G1 X87.866 Y135.622 E.01677
G1 X87.272 Y135.028 E.02639
;WIPE_START
G1 F7200
G1 X87.866 Y135.622 E-.19951
G1 X88.4 Y135.622 E-.12683
G1 X87.442 Y134.663 E-.32194
G1 X87.442 Y134.129 E-.12683
G1 X87.516 Y134.203 E-.02489
;WIPE_END
G1 X87.244 Y129.784 F9000
G1 E.8 F1800
;TYPE:Perimeter
;WIDTH:0.419999
G1 F1200
G1 X87.152 Y129.692 E.00408
G1 X87.152 Y84.181 E1.42696
G1 X87.244 Y84.088 E.0041
G1 X132.756 Y84.088 E1.42699
G1 X132.848 Y84.181 E.0041
G1 X132.848 Y84.246 E.00204
G1 X132.848 Y129.692 E1.42493
G1 X132.756 Y129.784 E.00408
G1 X87.304 Y129.784 E1.42511
G1 X87.088 Y130.162 F9000
G1 F1200
G1 X86.775 Y129.848 E.0139
G1 X86.775 Y84.024 E1.43678
G1 X87.088 Y83.711 E.01388
G1 X132.912 Y83.711 E1.43678
G1 X133.225 Y84.024 E.01388
G1 X133.225 Y84.246 E.00696
G1 X133.225 Y129.848 E1.42982
G1 X132.912 Y130.162 E.0139
G1 X87.148 Y130.162 E1.4349
G1 X86.932 Y130.539 F9000
;TYPE:External perimeter
G1 F1200
G1 X86.397 Y130.004 E.02372
G1 X86.397 Y83.868 E1.44656
G1 X86.932 Y83.334 E.0237
G1 X133.068 Y83.334 E1.44656
G1 X133.603 Y83.868 E.0237
G1 X133.603 Y84.246 E.01185
G1 X133.603 Y130.004 E1.43471
G1 X133.068 Y130.539 E.02372
G1 X86.992 Y130.539 E1.44468
;WIPE_START
G1 F7200
G1 X86.932 Y130.539 E-.01425
G1 X86.397 Y130.004 E-.17969
G1 X86.397 Y127.452 E-.60606
;WIPE_END
G1 X132.728 Y84.974 F9000
G1 E.8 F1800
;TYPE:Solid infill
;WIDTH:0.421372
G1 F1200
G1 X132.132 Y84.378 E.02652
G1 X131.597 Y84.378 E.01684
G1 X132.558 Y85.339 E.04277
G1 X132.558 Y85.874 E.01684
G1 X131.062 Y84.378 E.06658
G1 X130.527 Y84.378 E.01684
G1 X132.558 Y86.41 E.09041
G1 X132.558 Y86.945 E.01684
G1 X129.991 Y84.378 E.11424
G1 X129.456 Y84.378 E.01684
G1 X132.558 Y87.48 E.13805
G1 X132.558 Y88.015 E.01684
G1 X128.921 Y84.378 E.16186
G1 X128.386 Y84.378 E.01684
G1 X132.558 Y88.55 E.18567
G1 X132.558 Y89.086 E.01687
G1 X127.851 Y84.378 E.2095
G1 X127.315 Y84.378 E.01687
G1 X132.558 Y89.621 E.23333
G1 X132.558 Y90.156 E.01684
G1 X126.78 Y84.378 E.25714
G1 X126.245 Y84.378 E.01684
G1 X132.558 Y90.691 E.28095
G1 X132.558 Y91.226 E.01684
G1 X125.71 Y84.378 E.30476
G1 X125.174 Y84.378 E.01687
G1 X132.558 Y91.762 E.32861
G1 X132.558 Y92.297 E.01684
G1 X124.639 Y84.378 E.35242
G1 X124.104 Y84.378 E.01684
G1 X132.558 Y92.832 E.37623
G1 X132.558 Y93.367 E.01684
G1 X123.569 Y84.378 E.40004
G1 X123.034 Y84.378 E.01684
G1 X132.558 Y93.903 E.42387
G1 X132.558 Y94.438 E.01684
G1 X122.498 Y84.378 E.4477
G1 X121.963 Y84.378 E.01684
G1 X132.558 Y94.973 E.47151
G1 X132.558 Y95.508 E.01684
G1 X121.428 Y84.378 E.49532
G1 X120.893 Y84.378 E.01684
G1 X132.558 Y96.043 E.51913
G1 X132.558 Y96.579 E.01687
G1 X120.358 Y84.378 E.54296
G1 X119.822 Y84.378 E.01687
G1 X132.558 Y97.114 E.56679
G1 X132.558 Y97.649 E.01684
G1 X119.287 Y84.378 E.5906
G1 X118.752 Y84.378 E.01684
G1 X132.558 Y98.184 E.61441
G1 X132.558 Y98.719 E.01684
G1 X118.217 Y84.378 E.63822
G1 X117.681 Y84.378 E.01687
G1 X132.558 Y99.255 E.66207
G1 X132.558 Y99.79 E.01684
G1 X117.146 Y84.378 E.68588
G1 X116.611 Y84.378 E.01684
G1 X132.558 Y100.325 E.70969
G1 X132.558 Y100.86 E.01684
G1 X116.076 Y84.378 E.7335
G1 X115.541 Y84.378 E.01684
G1 X132.558 Y101.396 E.75733
G1 X132.558 Y101.931 E.01684
G1 X115.005 Y84.378 E.78116
G1 X114.47 Y84.378 E.01684
G1 X132.558 Y102.466 E.80497
G1 X132.558 Y103.001 E.01684
G1 X113.935 Y84.378 E.82878
G1 X113.4 Y84.378 E.01684
G1 X132.558 Y103.536 E.85259
G1 X132.558 Y104.072 E.01687
G1 X112.865 Y84.378 E.87642
G1 X112.329 Y84.378 E.01687
G1 X132.558 Y104.607 E.90025
G1 X132.558 Y105.142 E.01684
G1 X111.794 Y84.378 E.92406
G1 X111.259 Y84.378 E.01684
G1 X132.558 Y105.677 E.94787
G1 X132.558 Y106.212 E.01684
G1 X110.724 Y84.378 E.97168
G1 X110.189 Y84.378 E.01684
G1 X132.558 Y106.748 E.99551
G1 X132.558 Y107.283 E.01684
G1 X109.653 Y84.378 E1.01934
G1 X109.118 Y84.378 E.01684
G1 X132.558 Y107.818 E1.04315
G1 X132.558 Y108.353 E.01684
G1 X108.583 Y84.378 E1.06696
G1 X108.048 Y84.378 E.01684
G1 X132.558 Y108.888 E1.09077
G1 X132.558 Y109.424 E.01687
G1 X107.512 Y84.378 E1.11462
G1 X106.977 Y84.378 E.01684
G1 X132.558 Y109.959 E1.13843
G1 X132.558 Y110.494 E.01684
G1 X106.442 Y84.378 E1.16224
G1 X105.907 Y84.378 E.01684
G1 X132.558 Y111.029 E1.18605
G1 X132.558 Y111.565 E.01687
G1 X105.372 Y84.378 E1.20988
G1 X104.836 Y84.378 E.01687
G1 X132.558 Y112.1 E1.23371
G1 X132.558 Y112.635 E.01684
G1 X104.301 Y84.378 E1.25752
G1 X103.766 Y84.378 E.01684
G1 X132.558 Y113.17 E1.28133
G1 X132.558 Y113.705 E.01684
G1 X103.231 Y84.378 E1.30514
G1 X102.696 Y84.378 E.01684
G1 X132.558 Y114.241 E1.32897
G1 X132.558 Y114.776 E.01684
G1 X102.16 Y84.378 E1.3528
G1 X101.625 Y84.378 E.01684
G1 X132.558 Y115.311 E1.37661
G1 X132.558 Y115.846 E.01684
G1 X101.09 Y84.378 E1.40042
G1 X100.555 Y84.378 E.01684
G1 X132.558 Y116.381 E1.42423
G1 X132.558 Y116.917 E.01687
G1 X100.019 Y84.378 E1.44808
G1 X99.484 Y84.378 E.01684
G1 X132.558 Y117.452 E1.47189
G1 X132.558 Y117.987 E.01684
G1 X98.949 Y84.378 E1.4957
G1 X98.414 Y84.378 E.01684
G1 X132.558 Y118.522 E1.51951
G1 X132.558 Y119.057 E.01684
G1 X97.879 Y84.378 E1.54332
G1 X97.343 Y84.378 E.01687
G1 X132.558 Y119.593 E1.56718
G1 X132.558 Y120.128 E.01684
G1 X96.808 Y84.378 E1.59098
G1 X96.273 Y84.378 E.01684
G1 X132.558 Y120.663 E1.61479
G1 X132.558 Y121.198 E.01684
G1 X95.738 Y84.378 E1.6386
G1 X95.203 Y84.378 E.01684
G1 X132.558 Y121.734 E1.66243
G1 X132.558 Y122.269 E.01684
G1 X94.667 Y84.378 E1.68627
G1 X94.132 Y84.378 E.01684
G1 X132.558 Y122.804 E1.71007
G1 X132.558 Y123.339 E.01684
G1 X93.597 Y84.378 E1.73388
G1 X93.062 Y84.378 E.01684
G1 X132.558 Y123.874 E1.75769
G1 X132.558 Y124.41 E.01687
G1 X92.527 Y84.378 E1.78152
G1 X91.991 Y84.378 E.01687
G1 X132.558 Y124.945 E1.80536
G1 X132.558 Y125.48 E.01684
G1 X91.456 Y84.378 E1.82916
G1 X90.921 Y84.378 E.01684
G1 X132.558 Y126.015 E1.85297
G1 X132.558 Y126.55 E.01684
G1 X90.386 Y84.378 E1.87678
G1 X89.85 Y84.378 E.01687
G1 X132.558 Y127.086 E1.90064
G1 X132.558 Y127.621 E.01684
G1 X89.315 Y84.378 E1.92445
G1 X88.78 Y84.378 E.01684
G1 X132.558 Y128.156 E1.94825
G1 X132.558 Y128.691 E.01684
G1 X88.245 Y84.378 E1.97206
G1 X87.71 Y84.378 E.01684
G1 X132.558 Y129.227 E1.9959
G1 X132.558 Y129.494 E.0084
G1 X132.29 Y129.494 E.00843
G1 X87.442 Y84.646 E1.99587
G1 X87.442 Y85.181 E.01684
G1 X131.755 Y129.494 E1.97206
G1 X131.22 Y129.494 E.01684
G1 X87.442 Y85.716 E1.94825
G1 X87.442 Y86.251 E.01684
G1 X130.685 Y129.494 E1.92445
G1 X130.15 Y129.494 E.01684
G1 X87.442 Y86.787 E1.90061
G1 X87.442 Y87.322 E.01684
G1 X129.614 Y129.494 E1.87678
G1 X129.079 Y129.494 E.01684
G1 X87.442 Y87.857 E1.85297
G1 X87.442 Y88.392 E.01684
G1 X128.544 Y129.494 E1.82916
G1 X128.009 Y129.494 E.01684
G1 X87.442 Y88.927 E1.80536
G1 X87.442 Y89.463 E.01687
G1 X127.473 Y129.494 E1.7815
G1 X126.938 Y129.494 E.01684
G1 X87.442 Y89.998 E1.75769
G1 X87.442 Y90.533 E.01684
G1 X126.403 Y129.494 E1.73388
G1 X125.868 Y129.494 E.01684
G1 X87.442 Y91.068 E1.71007
G1 X87.442 Y91.603 E.01684
G1 X125.333 Y129.494 E1.68627
G1 X124.797 Y129.494 E.01687
G1 X87.442 Y92.139 E1.66241
G1 X87.442 Y92.674 E.01684
G1 X124.262 Y129.494 E1.6386
G1 X123.727 Y129.494 E.01684
G1 X87.442 Y93.209 E1.61479
G1 X87.442 Y93.744 E.01684
G1 X123.192 Y129.494 E1.59098
G1 X122.657 Y129.494 E.01684
G1 X87.442 Y94.28 E1.56715
G1 X87.442 Y94.815 E.01684
G1 X122.121 Y129.494 E1.54332
G1 X121.586 Y129.494 E.01684
G1 X87.442 Y95.35 E1.51951
G1 X87.442 Y95.885 E.01684
G1 X121.051 Y129.494 E1.4957
G1 X120.516 Y129.494 E.01684
G1 X87.442 Y96.42 E1.47189
G1 X87.442 Y96.956 E.01687
G1 X119.981 Y129.494 E1.44806
G1 X119.445 Y129.494 E.01687
G1 X87.442 Y97.491 E1.42423
G1 X87.442 Y98.026 E.01684
G1 X118.91 Y129.494 E1.40042
G1 X118.375 Y129.494 E.01684
G1 X87.442 Y98.561 E1.37661
G1 X87.442 Y99.096 E.01684
G1 X117.84 Y129.494 E1.3528
G1 X117.304 Y129.494 E.01687
G1 X87.442 Y99.632 E1.32895
G1 X87.442 Y100.167 E.01684
