; generated by PrusaSlicer 2.7.1 on 2024-11-26 at 19:05:11 UTC


;
;

;
;
; 

; external perimeters extrusion width = 0.42mm
; perimeters extrusion width = 0.44mm
; infill extrusion width = 0.44mm
; solid infill extrusion width = 0.44mm
; top infill extrusion width = 0.40mm
; first layer extrusion width = 0.42mm



; Pre-Processed for Cancel-Object support by preprocess_cancellation v0.2.0
; 1 known objects
EXCLUDE_OBJECT_DEFINE NAME=MG995_C_stl_id_0_copy_0 CENTER=111.538,110.081 POLYGON=[[74.96,97.21],[74.96,122.79],[145.04,122.79],[145.04,97.21]]
M201 X500 Y500 Z100 E5000 ; sets maximum accelerations, mm/sec^2
M203 X500 Y500 Z10 E60 ; sets maximum feedrates, mm / sec
M204 S500 T1000 ; sets acceleration (S) and retract acceleration (R), mm/sec^2
M205 X8.00 Y8.00 Z0.40 E5.00 ; sets the jerk limits, mm/sec
M205 S0 T0 ; sets the minimum extruding and travel feed rate, mm/sec

; printing object MG995-C.stl id:0 copy 0
EXCLUDE_OBJECT_START NAME=MG995_C_stl_id_0_copy_0
; stop printing object MG995-C.stl id:0 copy 0
EXCLUDE_OBJECT_END NAME=MG995_C_stl_id_0_copy_0

;TYPE:Custom
G90 ; use absolute coordinates
M83 ; extruder relative mode
G28
M109 S0
M190 S0
start_print EXTRUDER_TEMP=210 BED_TEMP=60

M104 S150 ; set temporary nozzle temp to prevent oozing during homing
M140 S60 ; set final bed temp
G4 S30 ; allow partial nozzle warmup
G28 ; home all axis and restore leveling

G1 Z50 F240
G1 X2.0 Y10 F3000
M104 S210 ; set final nozzle temp
M190 S60 ; wait for bed temp to stabilize
M109 S210 ; wait for nozzle temp to stabilize
G1 Z0.28 F240
G92 E0
G1 X2.0 Y140 E10 F1500 ; prime the nozzle
G1 X2.3 Y140 F5000
G92 E0
G1 X2.3 Y10 E10 F1200 ; prime the nozzle
G92 E0
G21 ; set units to millimeters
G90 ; use absolute coordinates
M83 ; use relative distances for extrusion
; Filament gcode
M107
;LAYER_CHANGE
;Z:0.2
;HEIGHT:0.2
;BEFORE_LAYER_CHANGE
G92 E0
;0.2


G1 E-.8 F1800
G1 Z.2 F9000
;AFTER_LAYER_CHANGE
;0.2
G1 X73.694 Y94.589
G1 Z.2
G1 E.8 F1800
M204 S500
;TYPE:Skirt/Brim
;WIDTH:0.42
G1 F1200
G1 X74.94 Y93.948 E.04393
G1 X75.791 Y93.72 E.02762
G1 X76.75 Y93.623 E.03022
G1 X143.691 Y93.652 E2.09889
G1 X144.208 Y93.72 E.01635
G1 X145.542 Y94.148 E.04393
G1 X146.306 Y94.589 E.02766
G1 X147.343 Y95.53 E.04391
G1 X148.089 Y96.684 E.04308
G1 X148.295 Y97.174 E.01667
G1 X148.53 Y98.042 E.0282
G1 X148.627 Y99 E.03019
G1 X148.627 Y121 E.68979
G1 X148.53 Y121.958 E.03019
G1 X148.102 Y123.292 E.04393
G1 X147.343 Y124.47 E.04394
G1 X146.306 Y125.411 E.04391
G1 X145.06 Y126.052 E.04393
G1 X144.208 Y126.28 E.02765
G1 X143.25 Y126.377 E.03019
G1 X76.75 Y126.377 E2.08506
G1 X75.792 Y126.28 E.03019
G1 X74.94 Y126.052 E.02765
G1 X73.694 Y125.411 E.04393
G1 X72.638 Y124.445 E.04487
G1 X71.898 Y123.292 E.04296
G1 X71.698 Y122.81 E.01636
G1 X71.47 Y121.958 E.02765
G1 X71.373 Y121 E.03019
G1 X71.402 Y98.559 E.70362
G1 X71.698 Y97.19 E.04392
G1 X72.324 Y95.968 E.04305
G1 X72.638 Y95.555 E.01627
G1 X73.65 Y94.629 E.04301
; printing object MG995-C.stl id:0 copy 0
EXCLUDE_OBJECT_START NAME=MG995_C_stl_id_0_copy_0
;WIPE_START
G1 F7200
G1 X73.694 Y94.589 E-.01412
G1 X74.94 Y93.948 E-.33279
G1 X75.791 Y93.72 E-.20924
G1 X76.75 Y93.623 E-.22892
G1 X76.813 Y93.623 E-.01493
;WIPE_END
G1 X88.417 Y99.422 F9000
G1 E.8 F1800
;TYPE:Perimeter
;WIDTH:0.419999
G1 F1200
G1 X88.386 Y99.579 E.00502
G1 X88.386 Y120.421 E.65349
G1 X88.458 Y120.784 E.0116
G1 X88.763 Y121.176 E.01557
;WIDTH:0.46865
G1 X89.046 Y121.294 E.01085
;WIDTH:0.517301
G1 X89.329 Y121.413 E.01211
G1 X130.671 Y121.413 E1.63073
;WIDTH:0.52661
G1 X130.844 Y121.402 E.00697
G1 X130.975 Y121.327 E.00607
;WIDTH:0.491073
G1 X131.106 Y121.251 E.00564
;WIDTH:0.455536
G1 X131.237 Y121.176 E.00518
;WIDTH:0.419999
G1 X131.542 Y120.784 E.01557
G1 X131.614 Y120.421 E.0116
G1 X131.614 Y115.064 E.16796
G1 X143.136 Y115.064 E.36126
G1 X143.578 Y115.142 E.01407
G1 X143.905 Y115.345 E.01207
G1 X144.109 Y115.673 E.01211
G1 X144.186 Y116.112 E.01397
G1 X144.195 Y117.909 E.05634
;WIDTH:0.400885
G1 X144.212 Y118.5 E.0176
;WIDTH:0.404518
G1 X144.194 Y119.139 E.01922
;WIDTH:0.419999
G1 X144.186 Y120.888 E.05484
G1 X144.109 Y121.327 E.01397
G1 X143.905 Y121.655 E.01211
G1 X143.578 Y121.858 E.01207
G1 X143.18 Y121.936 E.01272
G1 X131.49 Y121.936 E.36653
;WIDTH:0.46865
G1 X131.081 Y121.912 E.0145
;WIDTH:0.517301
G1 X130.671 Y121.887 E.0162
G1 X89.329 Y121.887 E1.63073
G1 X88.919 Y121.912 E.0162
;WIDTH:0.46865
G1 X88.51 Y121.936 E.0145
;WIDTH:0.419999
G1 X76.864 Y121.936 E.36515
G1 X76.422 Y121.858 E.01407
G1 X76.095 Y121.655 E.01207
G1 X75.891 Y121.327 E.01211
G1 X75.814 Y120.93 E.01268
G1 X75.805 Y119.091 E.05766
;WIDTH:0.400882
G1 X75.788 Y118.5 E.0176
G1 X75.805 Y117.909 E.0176
;WIDTH:0.419999
G1 X75.805 Y102.241 E.49126
;WIDTH:0.400882
G1 X75.788 Y101.65 E.0176
G1 X75.805 Y101.059 E.0176
;WIDTH:0.419999
G1 X75.814 Y99.07 E.06236
G1 X75.894 Y98.665 E.01294
G1 X76.095 Y98.345 E.01185
G1 X76.383 Y98.157 E.01078
G1 X76.82 Y98.064 E.01401
G1 X88.51 Y98.064 E.36653
;WIDTH:0.468628
G1 X88.919 Y98.089 E.0145
;WIDTH:0.517257
G1 X89.329 Y98.113 E.0162
G1 X130.671 Y98.113 E1.63058
;WIDTH:0.517099
G1 X131.081 Y98.089 E.01619
;WIDTH:0.468549
G1 X131.49 Y98.065 E.0145
;WIDTH:0.419999
G1 X143.139 Y98.065 E.36525
G1 X143.579 Y98.142 E.01401
G1 X143.905 Y98.345 E.01204
G1 X144.109 Y98.673 E.01211
G1 X144.186 Y99.07 E.01268
G1 X144.195 Y100.909 E.05766
;WIDTH:0.400884
G1 X144.212 Y101.5 E.0176
;WIDTH:0.404519
G1 X144.194 Y102.139 E.01922
;WIDTH:0.419999
G1 X144.186 Y103.888 E.05484
G1 X144.109 Y104.327 E.01397
G1 X143.905 Y104.655 E.01211
G1 X143.578 Y104.858 E.01207
G1 X143.18 Y104.936 E.01272
G1 X131.614 Y104.936 E.36264
G1 X131.614 Y99.579 E.16796
G1 X131.542 Y99.216 E.0116
G1 X131.237 Y98.824 E.01557
;WIDTH:0.468549
G1 X130.954 Y98.706 E.01085
;WIDTH:0.517099
G1 X130.671 Y98.587 E.0121
;WIDTH:0.517257
G1 X89.329 Y98.587 E1.63058
;WIDTH:0.526565
G1 X89.156 Y98.598 E.00697
G1 X89.025 Y98.673 E.00607
;WIDTH:0.491043
G1 X88.894 Y98.749 E.00564
;WIDTH:0.455521
G1 X88.763 Y98.824 E.00518
;WIDTH:0.419999
G1 X88.458 Y99.216 E.01557
G1 X88.429 Y99.363 E.0047
G1 X89.233 Y99.045 F9000
G1 F1200
G1 X88.989 Y99.126 E.00806
G1 X88.806 Y99.361 E.00934
G1 X88.763 Y99.579 E.00697
G1 X88.763 Y120.421 E.65349
G1 X88.806 Y120.639 E.00697
G1 X88.989 Y120.874 E.00934
G1 X89.329 Y120.987 E.01123
G1 X130.671 Y120.987 E1.29625
G1 X131.011 Y120.874 E.01123
G1 X131.194 Y120.639 E.00934
G1 X131.237 Y120.421 E.00697
G1 X131.237 Y114.687 E.17979
G1 X143.091 Y114.687 E.37167
G1 X143.588 Y114.738 E.01566
G1 X143.904 Y114.868 E.01071
G1 X144.174 Y115.076 E.01069
G1 X144.382 Y115.347 E.01071
G1 X144.512 Y115.662 E.01068
G1 X144.563 Y116.112 E.0142
G1 X144.563 Y120.621 E.14138
G1 X144.512 Y121.338 E.02254
G1 X144.382 Y121.653 E.01068
G1 X144.174 Y121.924 E.01071
G1 X143.903 Y122.132 E.01071
G1 X143.588 Y122.262 E.01068
G1 X143.205 Y122.313 E.01211
G1 X76.909 Y122.313 E2.07866
G1 X76.412 Y122.262 E.01566
G1 X76.096 Y122.132 E.01071
G1 X75.826 Y121.924 E.01069
G1 X75.618 Y121.654 E.01069
G1 X75.488 Y121.338 E.01071
G1 X75.437 Y120.955 E.01211
G1 X75.437 Y99.12 E.68462
G1 X75.488 Y98.662 E.01445
G1 X75.618 Y98.346 E.01071
G1 X75.826 Y98.076 E.01069
G1 X76.097 Y97.868 E.01071
G1 X76.412 Y97.738 E.01068
G1 X76.795 Y97.687 E.01211
G1 X143.11 Y97.688 E2.07926
G1 X143.588 Y97.738 E.01507
G1 X143.904 Y97.868 E.01071
G1 X144.174 Y98.076 E.01069
G1 X144.382 Y98.347 E.01071
G1 X144.512 Y98.662 E.01068
G1 X144.563 Y99.045 E.01211
G1 X144.563 Y103.621 E.14348
G1 X144.512 Y104.338 E.02254
G1 X144.382 Y104.654 E.01071
G1 X144.174 Y104.924 E.01069
G1 X143.904 Y105.132 E.01069
G1 X143.588 Y105.262 E.01071
G1 X143.205 Y105.313 E.01211
G1 X131.237 Y105.313 E.37525
G1 X131.237 Y99.579 E.17979
G1 X131.194 Y99.361 E.00697
G1 X131.011 Y99.126 E.00934
G1 X130.671 Y99.013 E.01123
G1 X89.329 Y99.013 E1.29625
G1 X89.29 Y99.026 E.00129
G1 X89.329 Y99.39 F9000
;TYPE:External perimeter
G1 F1200
G1 X89.215 Y99.428 E.00377
G1 X89.14 Y99.579 E.00529
G1 X89.14 Y120.421 E.65349
G1 X89.215 Y120.572 E.00529
G1 X89.329 Y120.61 E.00377
G1 X130.671 Y120.61 E1.29625
G1 X130.785 Y120.572 E.00377
G1 X130.86 Y120.421 E.00529
G1 X130.86 Y114.31 E.19161
G1 X143.136 Y114.31 E.3849
G1 X143.687 Y114.37 E.01738
G1 X144.094 Y114.539 E.01382
G1 X144.443 Y114.807 E.0138
G1 X144.711 Y115.156 E.0138
G1 X144.88 Y115.563 E.01382
G1 X144.94 Y116.112 E.01732
G1 X144.94 Y120.888 E.14975
G1 X144.88 Y121.437 E.01732
G1 X144.711 Y121.844 E.01382
G1 X144.443 Y122.193 E.0138
G1 X144.094 Y122.461 E.0138
G1 X143.687 Y122.63 E.01382
G1 X143.23 Y122.69 E.01445
G1 X76.864 Y122.69 E2.08086
G1 X76.313 Y122.63 E.01738
G1 X75.906 Y122.461 E.01382
G1 X75.557 Y122.193 E.0138
G1 X75.289 Y121.844 E.0138
G1 X75.12 Y121.437 E.01382
G1 X75.06 Y120.98 E.01445
G1 X75.06 Y99.116 E.68553
G1 X75.12 Y98.563 E.01744
G1 X75.289 Y98.156 E.01382
G1 X75.557 Y97.807 E.0138
G1 X75.906 Y97.539 E.0138
G1 X76.313 Y97.37 E.01382
G1 X76.77 Y97.31 E.01445
G1 X143.139 Y97.311 E2.08095
G1 X143.687 Y97.37 E.01728
G1 X144.094 Y97.539 E.01382
G1 X144.443 Y97.807 E.0138
G1 X144.711 Y98.156 E.0138
G1 X144.88 Y98.563 E.01382
G1 X144.94 Y99.02 E.01445
G1 X144.94 Y103.888 E.15263
G1 X144.88 Y104.437 E.01732
G1 X144.711 Y104.844 E.01382
G1 X144.443 Y105.193 E.0138
G1 X144.094 Y105.461 E.0138
G1 X143.687 Y105.63 E.01382
G1 X143.23 Y105.69 E.01445
G1 X130.86 Y105.69 E.38785
G1 X130.86 Y99.579 E.19161
G1 X130.785 Y99.428 E.00529
G1 X130.671 Y99.39 E.00377
G1 X89.389 Y99.39 E1.29437
;WIPE_START
G1 F7200
G1 X89.329 Y99.39 E-.01425
G1 X89.215 Y99.428 E-.02854
G1 X89.14 Y99.579 E-.04004
G1 X89.14 Y102.599 E-.71717
;WIPE_END
G1 X143.552 Y119.8 F9000
G1 E.8 F1800
;TYPE:Perimeter
G1 F1200
G1 X143.49 Y119.935 E.00466
G1 X143.105 Y120.413 E.01924
G1 X142.685 Y120.74 E.01669
G1 X142.057 Y121.035 E.02175
G1 X141.373 Y121.157 E.02178
G1 X140.681 Y121.098 E.02178
G1 X140.028 Y120.863 E.02176
G1 X139.458 Y120.466 E.02178
G1 X139.01 Y119.935 E.02178
G1 X138.715 Y119.307 E.02175
G1 X138.593 Y118.623 E.02178
G1 X138.594 Y118.366 E.00806
G1 X138.724 Y117.673 E.02211
G1 X139.01 Y117.065 E.02107
G1 X139.458 Y116.534 E.02178
G1 X140.028 Y116.137 E.02178
G1 X140.641 Y115.908 E.02052
G1 X141.229 Y115.838 E.01857
G1 X141.808 Y115.9 E.01826
G1 X142.472 Y116.137 E.02211
G1 X142.896 Y116.422 E.01602
G1 X143.216 Y116.708 E.01346
G1 X143.613 Y117.278 E.02178
G1 X143.839 Y117.932 E.0217
;WIDTH:0.400885
G1 X143.889 Y118.5 E.01697
G1 X143.839 Y119.068 E.01697
;WIDTH:0.414204
G1 X143.782 Y119.306 E.00756
;WIDTH:0.419999
G1 X143.577 Y119.746 E.01522
G1 X143.189 Y119.683 F9000
G1 F1200
G1 X142.917 Y120.062 E.01463
G1 X142.491 Y120.413 E.01731
G1 X141.912 Y120.686 E.02007
G1 X141.324 Y120.783 E.01869
G1 X140.73 Y120.725 E.01871
G1 X140.172 Y120.514 E.0187
G1 X139.688 Y120.167 E.01867
G1 X139.31 Y119.706 E.01869
G1 X139.064 Y119.162 E.01872
G1 X138.967 Y118.574 E.01869
G1 X139.035 Y117.954 E.01956
G1 X139.236 Y117.422 E.01783
G1 X139.583 Y116.938 E.01867
G1 X140.044 Y116.56 E.01869
G1 X140.588 Y116.314 E.01872
G1 X141.155 Y116.22 E.01802
G1 X141.763 Y116.275 E.01914
G1 X142.328 Y116.486 E.01891
G1 X142.744 Y116.781 E.01599
G1 X142.917 Y116.938 E.00732
G1 X143.264 Y117.422 E.01867
G1 X143.475 Y117.98 E.0187
G1 X143.538 Y118.5 E.01642
G1 X143.475 Y119.02 E.01642
G1 X143.264 Y119.578 E.0187
G1 X143.224 Y119.634 E.00216
G1 X142.891 Y119.476 F9000
;TYPE:External perimeter
G1 F1200
G1 X142.555 Y119.889 E.01669
G1 X142.183 Y120.166 E.01454
G1 X141.72 Y120.351 E.01563
G1 X141.225 Y120.409 E.01563
G1 X140.78 Y120.351 E.01407
G1 X140.274 Y120.141 E.01718
G1 X139.882 Y119.833 E.01563
G1 X139.584 Y119.433 E.01564
G1 X139.399 Y118.97 E.01563
G1 X139.341 Y118.473 E.01569
G1 X139.42 Y117.962 E.01621
G1 X139.609 Y117.524 E.01496
G1 X139.917 Y117.132 E.01563
G1 X140.317 Y116.834 E.01564
G1 X140.78 Y116.649 E.01563
G1 X141.251 Y116.593 E.01487
G1 X141.768 Y116.662 E.01635
G1 X142.261 Y116.886 E.01698
G1 X142.618 Y117.167 E.01424
G1 X142.916 Y117.567 E.01564
G1 X143.101 Y118.03 E.01563
G1 X143.159 Y118.525 E.01563
G1 X143.088 Y119.018 E.01562
G1 X142.915 Y119.421 E.01375
;WIPE_START
G1 F7200
G1 X142.891 Y119.476 E-.01425
G1 X142.555 Y119.889 E-.12645
G1 X142.183 Y120.166 E-.11015
G1 X141.72 Y120.351 E-.11842
G1 X141.225 Y120.409 E-.11837
G1 X140.78 Y120.351 E-.10658
G1 X140.274 Y120.141 E-.13011
G1 X140.024 Y119.944 E-.07567
;WIPE_END
G1 X141.173 Y104.14 F9000
G1 E.8 F1800
;TYPE:Perimeter
G1 F1200
G1 X140.681 Y104.098 E.01548
G1 X140.028 Y103.863 E.02176
G1 X139.458 Y103.466 E.02178
G1 X139.01 Y102.935 E.02178
G1 X138.715 Y102.307 E.02175
G1 X138.593 Y101.623 E.02178
G1 X138.652 Y100.931 E.02178
G1 X138.887 Y100.278 E.02176
G1 X139.284 Y99.708 E.02178
G1 X139.815 Y99.26 E.02178
G1 X140.039 Y99.133 E.00807
G1 X140.663 Y98.905 E.02083
G1 X141.25 Y98.835 E.01854
G1 X141.819 Y98.902 E.01796
G1 X142.472 Y99.137 E.02176
G1 X142.887 Y99.419 E.01573
G1 X143.229 Y99.725 E.01439
G1 X143.613 Y100.278 E.02111
G1 X143.839 Y100.932 E.0217
;WIDTH:0.400884
G1 X143.889 Y101.5 E.01697
G1 X143.839 Y102.068 E.01697
;WIDTH:0.414204
G1 X143.782 Y102.306 E.00756
;WIDTH:0.419999
G1 X143.49 Y102.935 E.02174
G1 X143.105 Y103.413 E.01924
G1 X142.685 Y103.74 E.01669
G1 X142.057 Y104.035 E.02175
G1 X141.373 Y104.157 E.02178
G1 X141.233 Y104.145 E.00441
G1 X141.195 Y103.771 F9000
G1 F1200
G1 X140.73 Y103.725 E.01465
G1 X140.172 Y103.514 E.0187
G1 X139.688 Y103.167 E.01867
G1 X139.31 Y102.706 E.01869
G1 X139.064 Y102.162 E.01872
G1 X138.967 Y101.574 E.01869
G1 X139.025 Y100.98 E.01871
G1 X139.236 Y100.422 E.0187
G1 X139.583 Y99.938 E.01867
G1 X140.045 Y99.559 E.01874
G1 X140.179 Y99.483 E.00483
G1 X140.728 Y99.276 E.0184
G1 X141.25 Y99.212 E.01649
G1 X141.77 Y99.275 E.01642
G1 X142.328 Y99.486 E.0187
G1 X142.77 Y99.807 E.01713
G1 X142.93 Y99.955 E.00683
G1 X143.264 Y100.422 E.018
G1 X143.475 Y100.98 E.0187
G1 X143.538 Y101.5 E.01642
G1 X143.475 Y102.02 E.01642
G1 X143.264 Y102.578 E.0187
G1 X142.917 Y103.062 E.01867
G1 X142.491 Y103.413 E.01731
G1 X141.912 Y103.686 E.02007
G1 X141.324 Y103.783 E.01869
G1 X141.255 Y103.777 E.00217
G1 X141.225 Y103.409 F9000
;TYPE:External perimeter
G1 F1200
G1 X140.732 Y103.338 E.01562
G1 X140.274 Y103.141 E.01563
G1 X139.882 Y102.833 E.01563
G1 X139.584 Y102.433 E.01564
G1 X139.399 Y101.97 E.01563
G1 X139.341 Y101.475 E.01563
G1 X139.412 Y100.982 E.01562
G1 X139.609 Y100.524 E.01563
G1 X139.917 Y100.132 E.01563
G1 X140.319 Y99.833 E.01571
G1 X140.793 Y99.648 E.01595
G1 X141.275 Y99.591 E.01522
G1 X141.768 Y99.662 E.01562
G1 X142.228 Y99.86 E.0157
G1 X142.631 Y100.184 E.01621
G1 X142.916 Y100.567 E.01497
G1 X143.101 Y101.03 E.01563
G1 X143.159 Y101.525 E.01563
G1 X143.088 Y102.018 E.01562
G1 X142.891 Y102.476 E.01563
G1 X142.555 Y102.889 E.01669
G1 X142.183 Y103.166 E.01454
G1 X141.72 Y103.351 E.01563
G1 X141.285 Y103.402 E.01373
;WIPE_START
G1 F7200
G1 X141.225 Y103.409 E-.01435
G1 X140.732 Y103.338 E-.1183
G1 X140.274 Y103.141 E-.11841
G1 X139.882 Y102.833 E-.1184
G1 X139.584 Y102.433 E-.11847
G1 X139.399 Y101.97 E-.11842
G1 X139.341 Y101.475 E-.11837
G1 X139.386 Y101.161 E-.07528
;WIPE_END
G1 X80.603 Y99.763 F9000
G1 E.8 F1800
;TYPE:Perimeter
G1 F1200
G1 X80.716 Y99.858 E.00463
G1 X81.113 Y100.428 E.02178
G1 X81.348 Y101.081 E.02176
G1 X81.415 Y101.629 E.01731
G1 X81.348 Y102.219 E.01862
G1 X81.113 Y102.872 E.02176
G1 X80.716 Y103.442 E.02178
G1 X80.185 Y103.89 E.02178
G1 X79.695 Y104.128 E.01708
G1 X79.319 Y104.248 E.01238
G1 X78.627 Y104.307 E.02178
G1 X77.943 Y104.185 E.02178
G1 X77.315 Y103.89 E.02175
G1 X76.784 Y103.442 E.02178
G1 X76.387 Y102.872 E.02178
G1 X76.165 Y102.257 E.0205
;WIDTH:0.404517
G1 X76.111 Y101.65 E.01832
;WIDTH:0.400882
G1 X76.161 Y101.082 E.01697
;WIDTH:0.419999
G1 X76.387 Y100.428 E.0217
G1 X76.784 Y99.858 E.02178
G1 X77.171 Y99.521 E.01609
G1 X77.539 Y99.283 E.01374
G1 X78.163 Y99.055 E.02083
G1 X78.75 Y98.985 E.01854
G1 X78.873 Y98.993 E.00386
G1 X79.557 Y99.115 E.02178
G1 X80.185 Y99.41 E.02175
G1 X80.557 Y99.724 E.01526
G1 X80.356 Y100.038 F9000
G1 F1200
G1 X80.417 Y100.088 E.00247
G1 X80.764 Y100.572 E.01867
G1 X80.975 Y101.13 E.0187
G1 X81.038 Y101.637 E.01602
