; generated by PrusaSlicer 2.7.1 on 2024-04-18 at 22:46:43 UTC


;
;

;
;
; 

; external perimeters extrusion width = 0.42mm
; perimeters extrusion width = 0.44mm
; infill extrusion width = 0.44mm
; solid infill extrusion width = 0.44mm
; top infill extrusion width = 0.40mm
; first layer extrusion width = 0.42mm



; Pre-Processed for Cancel-Object support by preprocess_cancellation v0.2.0
; 1 known objects
EXCLUDE_OBJECT_DEFINE NAME=Money_clip_basic_stl_id_0_copy_0 CENTER=110.043,110.102 POLYGON=[[90.215,80.215],[90.215,139.785],[129.785,139.785],[129.785,80.215]]
M201 X500 Y500 Z100 E5000 ; sets maximum accelerations, mm/sec^2
M203 X500 Y500 Z10 E60 ; sets maximum feedrates, mm / sec
M204 S500 T1000 ; sets acceleration (S) and retract acceleration (R), mm/sec^2
M205 X8.00 Y8.00 Z0.40 E5.00 ; sets the jerk limits, mm/sec
M205 S0 T0 ; sets the minimum extruding and travel feed rate, mm/sec

; printing object Money_clip_basic.stl id:0 copy 0
EXCLUDE_OBJECT_START NAME=Money_clip_basic_stl_id_0_copy_0
; stop printing object Money_clip_basic.stl id:0 copy 0
EXCLUDE_OBJECT_END NAME=Money_clip_basic_stl_id_0_copy_0

;TYPE:Custom
G90 ; use absolute coordinates
M83 ; extruder relative mode
G28
M109 S0
M190 S0
start_print EXTRUDER_TEMP=210 BED_TEMP=60

M104 S150 ; set temporary nozzle temp to prevent oozing during homing
M140 S60 ; set final bed temp
G4 S30 ; allow partial nozzle warmup
G28 ; home all axis and restore leveling

G1 Z50 F240
G1 X2.0 Y10 F3000
M104 S210 ; set final nozzle temp
M190 S60 ; wait for bed temp to stabilize
M109 S210 ; wait for nozzle temp to stabilize
G1 Z0.28 F240
G92 E0
G1 X2.0 Y140 E10 F1500 ; prime the nozzle
G1 X2.3 Y140 F5000
G92 E0
G1 X2.3 Y10 E10 F1200 ; prime the nozzle
G92 E0
G21 ; set units to millimeters
G90 ; use absolute coordinates
M83 ; use relative distances for extrusion
; Filament gcode
M107
;LAYER_CHANGE
;Z:0.1
;HEIGHT:0.1
;BEFORE_LAYER_CHANGE
G92 E0
;0.1


G1 E-.8 F1800
G1 Z.1 F9000
;AFTER_LAYER_CHANGE
;0.1
G1 X88.352 Y79.517
G1 Z.1
G1 E.8 F1800
M204 S500
;TYPE:Skirt/Brim
;WIDTH:0.42
G1 F1200
G1 X89.036 Y78.781 E.01665
G1 X90.029 Y77.961 E.02134
G1 X90.815 Y77.467 E.01538
G1 X91.72 Y77.032 E.01664
G1 X92.721 Y76.692 E.01752
G1 X93.856 Y76.459 E.0192
G1 X95 Y76.382 E.019
G1 X125.142 Y76.384 E.49943
G1 X126.552 Y76.526 E.02348
G1 X128.016 Y76.928 E.02516
G1 X129.431 Y77.609 E.02602
G1 X130.756 Y78.588 E.0273
G1 X131.825 Y79.739 E.02603
G1 X132.593 Y80.929 E.02347
G1 X133.191 Y82.325 E.02516
G1 X133.541 Y83.856 E.02602
G1 X133.618 Y85 E.019
G1 X133.618 Y135 E.82847
G1 X133.541 Y136.144 E.019
G1 X133.368 Y137.056 E.01538
G1 X133.072 Y138.016 E.01665
G1 X132.701 Y138.866 E.01537
G1 X132.199 Y139.736 E.01664
G1 X131.648 Y140.483 E.01538
G1 X130.964 Y141.219 E.01665
G1 X129.971 Y142.039 E.02134
G1 X129.185 Y142.533 E.01538
G1 X128.016 Y143.072 E.02133
G1 X127.056 Y143.368 E.01665
G1 X125.785 Y143.581 E.02135
G1 X94.858 Y143.616 E.51244
G1 X93.856 Y143.541 E.01665
G1 X92.944 Y143.368 E.01538
G1 X91.984 Y143.072 E.01665
G1 X91.134 Y142.701 E.01537
G1 X90.264 Y142.199 E.01664
G1 X89.244 Y141.412 E.02135
G1 X88.588 Y140.756 E.01537
G1 X87.801 Y139.736 E.02135
G1 X87.299 Y138.866 E.01664
G1 X86.809 Y137.675 E.02134
G1 X86.569 Y136.779 E.01537
G1 X86.398 Y135.502 E.02135
G1 X86.382 Y85 E.83679
G1 X86.459 Y83.856 E.019
G1 X86.632 Y82.944 E.01538
G1 X86.928 Y81.984 E.01665
G1 X87.299 Y81.134 E.01537
G1 X87.801 Y80.264 E.01664
G1 X88.317 Y79.565 E.0144
G1 X88.637 Y79.801 F9000
G1 F1200
G1 X88.654 Y79.777 E.00049
G1 X89.317 Y79.063 E.01614
G1 X90.266 Y78.282 E.02036
G1 X91.001 Y77.82 E.01438
G1 X91.88 Y77.397 E.01616
G1 X92.824 Y77.077 E.01652
G1 X93.901 Y76.855 E.01822
G1 X95 Y76.78 E.01825
G1 X125.127 Y76.782 E.49919
G1 X126.705 Y76.96 E.02631
G1 X128.12 Y77.397 E.02454
G1 X129.328 Y78.016 E.02249
G1 X130.496 Y78.89 E.02417
G1 X131.504 Y79.976 E.02455
G1 X132.241 Y81.116 E.02249
G1 X132.815 Y82.456 E.02415
G1 X133.145 Y83.901 E.02456
G1 X133.22 Y85 E.01825
G1 X133.22 Y135 E.82847
G1 X133.145 Y136.099 E.01825
G1 X132.983 Y136.952 E.01439
G1 X132.696 Y137.884 E.01616
G1 X132.349 Y138.68 E.01439
G1 X131.861 Y139.524 E.01615
G1 X131.346 Y140.223 E.01439
G1 X130.683 Y140.937 E.01614
G1 X129.734 Y141.718 E.02036
G1 X128.884 Y142.241 E.01654
G1 X127.884 Y142.696 E.0182
G1 X126.952 Y142.983 E.01616
G1 X125.741 Y143.185 E.02034
G1 X94.873 Y143.218 E.51146
G1 X93.901 Y143.145 E.01615
G1 X93.048 Y142.983 E.01439
G1 X92.116 Y142.696 E.01616
G1 X91.32 Y142.349 E.01439
G1 X90.476 Y141.861 E.01615
G1 X89.504 Y141.11 E.02035
G1 X88.89 Y140.496 E.01439
G1 X88.139 Y139.524 E.02035
G1 X87.651 Y138.68 E.01615
G1 X87.185 Y137.544 E.02034
G1 X86.96 Y136.705 E.01439
G1 X86.796 Y135.487 E.02036
G1 X86.78 Y85 E.83654
G1 X86.855 Y83.901 E.01825
G1 X87.017 Y83.048 E.01439
G1 X87.304 Y82.116 E.01616
G1 X87.651 Y81.32 E.01439
G1 X88.139 Y80.476 E.01615
G1 X88.601 Y79.85 E.01289
; printing object Money_clip_basic.stl id:0 copy 0
EXCLUDE_OBJECT_START NAME=Money_clip_basic_stl_id_0_copy_0
;WIPE_START
G1 F7200
G1 X88.637 Y79.801 E-.01444
G1 X88.654 Y79.777 E-.00699
G1 X89.317 Y79.063 E-.23141
G1 X90.266 Y78.282 E-.2919
G1 X91.001 Y77.82 E-.20618
G1 X91.187 Y77.73 E-.04908
;WIPE_END
G1 X126.854 Y82.462 F9000
G1 E.8 F1800
;TYPE:Perimeter
;WIDTH:0.421896
G1 F1200
G1 X126.607 Y82.402 E.00423
;WIDTH:0.419999
G1 X126.21 Y82.419 E.00658
G1 X125.854 Y82.534 E.0062
G1 X125.554 Y82.707 E.00574
G1 X125.169 Y83.109 E.00922
G1 X124.945 Y83.616 E.00918
G1 X124.893 Y83.995 E.00634
G1 X124.893 Y136.005 E.86177
G1 X125.009 Y136.567 E.00951
G1 X125.208 Y136.946 E.00709
G1 X125.531 Y137.281 E.00771
G1 X125.793 Y137.437 E.00505
G1 X126.118 Y137.556 E.00573
G1 X126.61 Y137.602 E.00819
G1 X127.022 Y137.52 E.00696
;WIDTH:0.437842
G1 X127.47 Y137.291 E.00871
G1 X127.111 Y137.664 E.00896
;WIDTH:0.419999
G1 X126.716 Y137.935 E.00794
G1 X126.001 Y138.246 E.01292
G1 X125.235 Y138.391 E.01292
G1 X95.058 Y138.404 E.50001
G1 X94.266 Y138.314 E.01321
G1 X93.78 Y138.172 E.00839
G1 X93.312 Y137.951 E.00858
G1 X92.889 Y137.663 E.00848
;WIDTH:0.43783
G1 X92.53 Y137.291 E.00895
G1 X92.978 Y137.52 E.00871
;WIDTH:0.419999
G1 X93.327 Y137.592 E.0059
G1 X93.673 Y137.592 E.00573
G1 X94.13 Y137.478 E.0078
G1 X94.594 Y137.177 E.00916
G1 X94.891 Y136.78 E.00822
G1 X95.055 Y136.383 E.00712
G1 X95.107 Y136.005 E.00632
G1 X95.107 Y83.995 E.86177
G1 X94.991 Y83.433 E.00951
G1 X94.733 Y82.989 E.00851
G1 X94.509 Y82.765 E.00525
G1 X94.146 Y82.534 E.00713
G1 X93.606 Y82.402 E.00921
G1 X93.053 Y82.462 E.00922
;WIDTH:0.445064
G1 X92.546 Y82.698 E.00985
G1 X92.791 Y82.436 E.00632
;WIDTH:0.422399
G1 X93.284 Y82.065 E.01028
;WIDTH:0.419999
G1 X93.999 Y81.754 E.01292
G1 X94.765 Y81.609 E.01292
G1 X124.974 Y81.597 E.50054
G1 X125.488 Y81.636 E.00854
G1 X126.259 Y81.843 E.01323
G1 X126.712 Y82.063 E.00834
G1 X127.125 Y82.346 E.0083
;WIDTH:0.466196
G1 X127.476 Y82.703 E.00926
G1 X127.146 Y82.533 E.00686
;WIDTH:0.421896
G1 X126.913 Y82.476 E.00399
G1 X126.723 Y82.829 F9000
;WIDTH:0.419999
G1 F1200
G1 X126.811 Y82.836 E.00146
G1 X127.198 Y83.02 E.0071
G1 X127.547 Y83.395 E.00849
G1 X127.701 Y83.898 E.00872
G1 X127.709 Y136.005 E.86338
G1 X127.613 Y136.468 E.00783
G1 X127.316 Y136.891 E.00856
G1 X126.897 Y137.142 E.00809
G1 X126.566 Y137.205 E.00558
G1 X126.116 Y137.146 E.00752
G1 X125.761 Y136.956 E.00667
G1 X125.513 Y136.69 E.00603
G1 X125.394 Y136.463 E.00425
G1 X125.291 Y136.005 E.00778
G1 X125.291 Y83.995 E.86177
G1 X125.337 Y83.686 E.00518
G1 X125.408 Y83.492 E.00342
G1 X125.655 Y83.143 E.00708
G1 X125.99 Y82.909 E.00677
G1 X126.394 Y82.8 E.00693
G1 X126.663 Y82.823 E.00447
G1 X126.674 Y83.211 F9000
;TYPE:External perimeter
G1 F1200
G1 X126.946 Y83.329 E.00491
G1 X127.221 Y83.642 E.0069
G1 X127.31 Y83.995 E.00603
G1 X127.31 Y136.005 E.86177
G1 X127.238 Y136.323 E.0054
G1 X126.993 Y136.641 E.00665
G1 X126.744 Y136.771 E.00465
G1 X126.465 Y136.808 E.00466
G1 X126.191 Y136.747 E.00465
G1 X125.954 Y136.596 E.00466
G1 X125.779 Y136.358 E.00489
G1 X125.69 Y136.005 E.00603
G1 X125.69 Y83.995 E.86177
G1 X125.753 Y83.691 E.00514
G1 X125.911 Y83.448 E.0048
G1 X126.126 Y83.283 E.00449
G1 X126.394 Y83.199 E.00465
G1 X126.614 Y83.208 E.00365
;WIPE_START
G1 F7200
G1 X126.674 Y83.211 E-.01427
G1 X126.946 Y83.329 E-.07042
G1 X127.221 Y83.642 E-.09895
G1 X127.31 Y83.995 E-.08646
G1 X127.31 Y86.226 E-.5299
;WIPE_END
G1 X126.399 Y81.467 F9000
G1 E.8 F1800
;TYPE:Perimeter
G1 F1200
G1 X126.9 Y81.709 E.00922
G1 X127.37 Y82.029 E.00942
G1 X127.763 Y82.393 E.00888
G1 X128.045 Y82.74 E.00741
G1 X128.352 Y83.227 E.00954
G1 X128.538 Y83.684 E.00818
G1 X128.714 Y84.212 E.00922
G1 X128.79 Y84.757 E.00912
G1 X128.802 Y134.964 E.8319
G1 X128.702 Y135.856 E.01487
G1 X128.538 Y136.388 E.00922
G1 X128.291 Y136.9 E.00942
G1 X127.977 Y137.36 E.00923
G1 X127.36 Y137.978 E.01447
G1 X126.909 Y138.285 E.00904
G1 X126.119 Y138.63 E.01428
G1 X125.273 Y138.79 E.01427
G1 X95.035 Y138.802 E.50102
G1 X94.144 Y138.702 E.01486
G1 X93.612 Y138.538 E.00922
G1 X93.139 Y138.31 E.0087
G1 X92.809 Y138.093 E.00654
G1 X92.455 Y137.792 E.0077
G1 X92.001 Y137.329 E.01074
G1 X91.696 Y136.873 E.00909
G1 X91.453 Y136.357 E.00945
G1 X91.289 Y135.808 E.00949
G1 X91.198 Y134.987 E.01369
G1 X91.198 Y85.036 E.82765
G1 X91.298 Y84.144 E.01487
G1 X91.462 Y83.612 E.00922
G1 X91.709 Y83.1 E.00942
G1 X92.023 Y82.64 E.00923
G1 X92.64 Y82.022 E.01447
G1 X93.091 Y81.715 E.00904
G1 X93.881 Y81.37 E.01428
G1 X94.727 Y81.21 E.01427
G1 X124.989 Y81.198 E.50142
G1 X125.555 Y81.241 E.00941
G1 X126.341 Y81.452 E.01348
G1 X126.538 Y81.092 F9000
;TYPE:External perimeter
G1 F1200
G1 X127.1 Y81.363 E.01034
G1 X127.619 Y81.716 E.0104
G1 X128.079 Y82.143 E.0104
G1 X128.433 Y82.588 E.00942
G1 X128.697 Y83.028 E.0085
G1 X128.914 Y83.552 E.0094
G1 X129.108 Y84.153 E.01046
G1 X129.188 Y84.756 E.01008
G1 X129.201 Y134.987 E.83229
G1 X129.094 Y135.938 E.01586
G1 X128.91 Y136.534 E.01034
G1 X128.637 Y137.1 E.01041
G1 X128.286 Y137.616 E.01034
G1 X127.616 Y138.286 E.0157
G1 X127.103 Y138.635 E.01028
G1 X126.238 Y139.013 E.01564
G1 X125.31 Y139.188 E.01565
G1 X95.013 Y139.201 E.502
G1 X94.062 Y139.094 E.01586
G1 X93.466 Y138.91 E.01034
G1 X92.9 Y138.637 E.01041
G1 X92.384 Y138.286 E.01034
G1 X92.023 Y137.924 E.00847
G1 X91.672 Y137.554 E.00845
G1 X91.337 Y137.046 E.01008
G1 X91.072 Y136.474 E.01045
G1 X90.895 Y135.868 E.01046
G1 X90.799 Y134.994 E.01457
G1 X90.799 Y85.013 E.82815
G1 X90.906 Y84.062 E.01586
G1 X91.09 Y83.466 E.01034
G1 X91.363 Y82.9 E.01041
G1 X91.714 Y82.384 E.01034
G1 X92.384 Y81.714 E.0157
G1 X92.897 Y81.365 E.01028
G1 X93.762 Y80.987 E.01564
G1 X94.69 Y80.812 E.01565
G1 X125.004 Y80.8 E.50228
G1 X125.622 Y80.847 E.01027
G1 X126.48 Y81.076 E.01471
;WIPE_START
G1 F7200
G1 X126.538 Y81.092 E-.01429
G1 X127.1 Y81.363 E-.14818
G1 X127.619 Y81.716 E-.14907
G1 X128.079 Y82.143 E-.14906
G1 X128.433 Y82.588 E-.13505
G1 X128.697 Y83.028 E-.12187
G1 X128.83 Y83.349 E-.08248
;WIPE_END
G1 X127.476 Y82.703 F9000
G1 E.8 F1800
;TYPE:Perimeter
;WIDTH:0.466196
G1 F1200
G1 X127.644 Y82.893 E.00469
;WIDTH:0.440177
G1 X127.812 Y83.083 E.00442
;WIDTH:0.462136
G1 X128.035 Y83.517 E.00894
;WIDTH:0.505047
G1 X128.08 Y83.71 E.00398
;WIDTH:0.547957
G1 X128.125 Y83.902 E.00432
;WIDTH:0.590868
G1 X128.169 Y84.095 E.00469
;WIDTH:0.633778
G1 X128.214 Y84.288 E.00505
;WIDTH:0.668924
G1 X128.232 Y84.522 E.00632
;WIDTH:0.70407
G1 X128.249 Y84.757 E.00669
;WIDTH:0.716438
G1 X128.255 Y134.934 E1.44981
G1 X128.232 Y135.344 E.01187
;WIDTH:0.670451
G1 X128.209 Y135.754 E.01108
;WIDTH:0.624464
G1 X128.176 Y135.912 E.00405
;WIDTH:0.583044
G1 X128.142 Y136.07 E.00377
;WIDTH:0.541623
G1 X128.108 Y136.229 E.00352
;WIDTH:0.500203
G1 X128.074 Y136.387 E.00322
;WIDTH:0.458782
G1 X127.891 Y136.78 E.00788
;WIDTH:0.422724
G1 X127.598 Y137.174 E.00819
;WIDTH:0.437842
G1 X127.47 Y137.291 E.003
;WIPE_START
G1 F7200
G1 X127.598 Y137.174 E-.04119
;WIPE_END
G1 E-.75881 F1800
G1 X92.431 Y136.534 F9000
G1 E.8 F1800
;WIDTH:0.419999
G1 F1200
G1 X92.394 Y136.463 E.00133
G1 X92.291 Y136.005 E.00778
G1 X92.291 Y83.995 E.86177
G1 X92.387 Y83.532 E.00783
G1 X92.514 Y83.308 E.00427
G1 X92.81 Y83.013 E.00692
G1 X93.189 Y82.836 E.00693
G1 X93.606 Y82.8 E.00694
G1 X94.01 Y82.909 E.00693
G1 X94.228 Y83.047 E.00428
G1 X94.451 Y83.271 E.00524
G1 X94.606 Y83.537 E.0051
G1 X94.709 Y83.995 E.00778
G1 X94.709 Y136.005 E.86177
G1 X94.663 Y136.314 E.00518
G1 X94.564 Y136.551 E.00426
G1 X94.313 Y136.893 E.00703
G1 X93.961 Y137.116 E.0069
G1 X93.604 Y137.2 E.00608
G1 X93.187 Y137.163 E.00694
G1 X92.808 Y136.986 E.00693
G1 X92.513 Y136.69 E.00692
G1 X92.459 Y136.587 E.00193
G1 X92.779 Y136.358 F9000
;TYPE:External perimeter
G1 F1200
G1 X92.69 Y136.005 E.00603
G1 X92.69 Y83.995 E.86177
G1 X92.753 Y83.691 E.00514
G1 X92.859 Y83.507 E.00352
G1 X93.126 Y83.283 E.00577
G1 X93.394 Y83.199 E.00465
G1 X93.709 Y83.223 E.00523
G1 X93.946 Y83.329 E.0043
G1 X94.221 Y83.642 E.0069
G1 X94.31 Y83.995 E.00603
G1 X94.31 Y136.005 E.86177
G1 X94.238 Y136.323 E.0054
G1 X93.993 Y136.641 E.00665
G1 X93.679 Y136.782 E.0057
G1 X93.465 Y136.808 E.00357
G1 X93.191 Y136.747 E.00465
G1 X92.947 Y136.588 E.00483
G1 X92.814 Y136.407 E.00372
G1 X92.53 Y137.291 F9000
;TYPE:Perimeter
;WIDTH:0.43783
G1 F1200
G1 X92.212 Y136.942 E.00817
;WIDTH:0.436888
G1 X92.001 Y136.569 E.0074
;WIDTH:0.474134
G1 X91.944 Y136.381 E.0037
;WIDTH:0.51138
G1 X91.886 Y136.193 E.00401
;WIDTH:0.548626
G1 X91.829 Y136.005 E.00431
;WIDTH:0.588289
G1 X91.809 Y135.809 E.00464
;WIDTH:0.627951
G1 X91.789 Y135.614 E.00494
;WIDTH:0.667614
G1 X91.769 Y135.418 E.00529
;WIDTH:0.707276
G1 X91.749 Y135.222 E.00562
;WIDTH:0.716456
G1 X91.745 Y85.066 E1.44924
G1 X91.768 Y84.656 E.01187
;WIDTH:0.670461
G1 X91.791 Y84.246 E.01108
;WIDTH:0.624466
G1 X91.824 Y84.088 E.00405
;WIDTH:0.583014
G1 X91.858 Y83.929 E.0038
;WIDTH:0.541561
G1 X91.892 Y83.771 E.00349
;WIDTH:0.500109
G1 X91.926 Y83.613 E.00322
;WIDTH:0.458656
G1 X92.062 Y83.292 E.00634
;WIDTH:0.426534
G1 X92.389 Y82.841 E.00938
;WIDTH:0.445064
G1 X92.546 Y82.698 E.00374
;WIPE_START
G1 F7200
G1 X92.389 Y82.841 E-.05044
;WIPE_END
G1 E-.74956 F1800
G1 X125.226 Y81.744 F9000
G1 E.8 F1800
;TYPE:Solid infill
;WIDTH:0.420855
G1 F1200
G1 X125.734 Y82.252 E.01193
G1 X125.515 Y82.358 E.00404
G1 X125.38 Y82.463 E.00284
G1 X124.822 Y81.905 E.0131
G1 X124.258 Y81.906 E.00937
G1 X125.087 Y82.734 E.01946
G1 X124.908 Y82.947 E.00462
G1 X124.844 Y83.057 E.00211
G1 X123.693 Y81.906 E.02703
G1 X123.128 Y81.906 E.00938
G1 X124.679 Y83.457 E.03642
G1 X124.643 Y83.555 E.00173
G1 X124.593 Y83.935 E.00636
G1 X122.564 Y81.906 E.04765
G1 X121.999 Y81.906 E.00938
G1 X124.586 Y84.493 E.06075
G1 X124.586 Y85.058 E.00938
G1 X121.435 Y81.907 E.07399
G1 X120.87 Y81.907 E.00938
G1 X124.586 Y85.623 E.08726
G1 X124.586 Y86.188 E.00938
G1 X120.305 Y81.907 E.10053
G1 X119.741 Y81.907 E.00937
G1 X124.586 Y86.753 E.11379
G1 X124.586 Y87.317 E.00937
G1 X119.176 Y81.907 E.12704
G1 X118.611 Y81.908 E.00938
G1 X124.586 Y87.882 E.1403
G1 X124.586 Y88.447 E.00938
G1 X118.047 Y81.908 E.15355
G1 X117.482 Y81.908 E.00938
G1 X124.586 Y89.012 E.16682
G1 X124.586 Y89.577 E.00938
G1 X116.917 Y81.908 E.18009
G1 X116.353 Y81.908 E.00937
G1 X124.586 Y90.142 E.19335
G1 X124.586 Y90.706 E.00937
G1 X115.788 Y81.908 E.2066
G1 X115.224 Y81.909 E.00937
G1 X124.586 Y91.271 E.21985
G1 X124.586 Y91.836 E.00938
G1 X114.659 Y81.909 E.23311
G1 X114.094 Y81.909 E.00938
G1 X124.586 Y92.401 E.24638
G1 X124.586 Y92.966 E.00938
G1 X113.53 Y81.909 E.25964
G1 X112.965 Y81.909 E.00938
G1 X124.586 Y93.53 E.27289
G1 X124.586 Y94.095 E.00938
G1 X112.4 Y81.91 E.28615
G1 X111.836 Y81.91 E.00937
G1 X124.586 Y94.66 E.29941
G1 X124.586 Y95.225 E.00938
G1 X111.271 Y81.91 E.31267
G1 X110.706 Y81.91 E.00938
G1 X124.586 Y95.79 E.32594
G1 X124.586 Y96.355 E.00938
G1 X110.142 Y81.91 E.3392
G1 X109.577 Y81.911 E.00938
G1 X124.586 Y96.919 E.35244
G1 X124.586 Y97.484 E.00938
G1 X109.013 Y81.911 E.3657
G1 X108.448 Y81.911 E.00938
G1 X124.586 Y98.049 E.37897
G1 X124.586 Y98.614 E.00938
G1 X107.883 Y81.911 E.39223
G1 X107.319 Y81.911 E.00937
G1 X124.586 Y99.179 E.40549
G1 X124.586 Y99.744 E.00938
G1 X106.754 Y81.912 E.41875
