; generated by PrusaSlicer 2.7.1 on 2024-03-06 at 02:24:21 UTC


;
;

;
;
; 

; external perimeters extrusion width = 0.42mm
; perimeters extrusion width = 0.44mm
; infill extrusion width = 0.44mm
; solid infill extrusion width = 0.44mm
; top infill extrusion width = 0.40mm
; first layer extrusion width = 0.42mm



; Pre-Processed for Cancel-Object support by preprocess_cancellation v0.2.0
; 1 known objects
EXCLUDE_OBJECT_DEFINE NAME=Picatinny_To_Nerf_v1_stl_id_0_copy_0 CENTER=108.348,110.009 POLYGON=[[101.116,96.745],[101.116,123.255],[118.884,123.255],[118.884,96.745]]
M201 X500 Y500 Z100 E5000 ; sets maximum accelerations, mm/sec^2
M203 X500 Y500 Z10 E60 ; sets maximum feedrates, mm / sec
M204 S500 T1000 ; sets acceleration (S) and retract acceleration (R), mm/sec^2
M205 X8.00 Y8.00 Z0.40 E5.00 ; sets the jerk limits, mm/sec
M205 S0 T0 ; sets the minimum extruding and travel feed rate, mm/sec

; printing object Picatinny_To_Nerf_v1.stl id:0 copy 0
EXCLUDE_OBJECT_START NAME=Picatinny_To_Nerf_v1_stl_id_0_copy_0
; stop printing object Picatinny_To_Nerf_v1.stl id:0 copy 0
EXCLUDE_OBJECT_END NAME=Picatinny_To_Nerf_v1_stl_id_0_copy_0

;TYPE:Custom
G90 ; use absolute coordinates
M83 ; extruder relative mode
G28
M109 S0
M190 S0
start_print EXTRUDER_TEMP=210 BED_TEMP=60

M104 S150 ; set temporary nozzle temp to prevent oozing during homing
M140 S60 ; set final bed temp
G4 S30 ; allow partial nozzle warmup
G28 ; home all axis and restore leveling

G1 Z50 F240
G1 X2.0 Y10 F3000
M104 S210 ; set final nozzle temp
M190 S60 ; wait for bed temp to stabilize
M109 S210 ; wait for nozzle temp to stabilize
G1 Z0.28 F240
G92 E0
G1 X2.0 Y140 E10 F1500 ; prime the nozzle
G1 X2.3 Y140 F5000
G92 E0
G1 X2.3 Y10 E10 F1200 ; prime the nozzle
G92 E0
G21 ; set units to millimeters
G90 ; use absolute coordinates
M83 ; use relative distances for extrusion
; Filament gcode
M107
;LAYER_CHANGE
;Z:0.2
;HEIGHT:0.2
;BEFORE_LAYER_CHANGE
G92 E0
;0.2


G1 E-.8 F1800
G1 Z.2 F9000
;AFTER_LAYER_CHANGE
;0.2
G1 X99.162 Y97.676
G1 Z.2
G1 E.8 F1800
M204 S500
;TYPE:Skirt/Brim
;WIDTH:0.42
G1 F1200
G1 X107.669 Y93.211 E.30124
G1 X109.414 Y92.781 E.05635
G1 X114.493 Y92.781 E.15925
G1 X116.852 Y93.615 E.07845
G1 X121.453 Y97.332 E.18546
G1 X122.508 Y98.692 E.05397
G1 X122.848 Y100.252 E.05006
G1 X122.848 Y119.747 E.61125
G1 X122.453 Y121.423 E.05399
G1 X121.453 Y122.667 E.05004
G1 X116.853 Y126.385 E.18545
G1 X114.494 Y127.219 E.07845
G1 X109.414 Y127.219 E.15928
G1 X107.669 Y126.789 E.05635
G1 X99.162 Y122.324 E.30124
G1 X97.861 Y121.196 E.05399
G1 X97.152 Y119 E.07235
G1 X97.152 Y101 E.56438
G1 X97.547 Y99.324 E.05399
G1 X99.12 Y97.719 E.07046
G1 X99.337 Y98.01 F9000
G1 F1200
G1 X107.844 Y93.545 E.30124
G1 X109.414 Y93.158 E.0507
G1 X114.493 Y93.158 E.15925
G1 X116.615 Y93.908 E.07057
G1 X121.216 Y97.626 E.18548
G1 X122.2 Y98.927 E.05115
G1 X122.471 Y100.252 E.0424
G1 X122.471 Y119.747 E.61125
G1 X122.077 Y121.331 E.05118
G1 X121.216 Y122.374 E.04241
G1 X116.616 Y126.092 E.18545
G1 X114.494 Y126.842 E.07057
G1 X109.414 Y126.842 E.15928
G1 X107.844 Y126.455 E.0507
G1 X99.337 Y121.99 E.30124
G1 X98.118 Y120.906 E.05115
G1 X97.529 Y119 E.06255
G1 X97.529 Y101 E.56438
G1 X97.923 Y99.417 E.05115
G1 X99.294 Y98.052 E.06066
; printing object Picatinny_To_Nerf_v1.stl id:0 copy 0
EXCLUDE_OBJECT_START NAME=Picatinny_To_Nerf_v1_stl_id_0_copy_0
;WIPE_START
G1 F7200
G1 X99.337 Y98.01 E-.01428
G1 X102.266 Y96.472 E-.78572
;WIPE_END
G1 X102.692 Y104.214 F9000
G1 E.8 F1800
;TYPE:Perimeter
;WIDTH:0.537743
G1 F1200
G1 X102.736 Y104.28 E.00326
;WIDTH:0.498495
G1 X102.815 Y104.396 E.00532
;WIDTH:0.459247
G1 X102.894 Y104.512 E.00486
;WIDTH:0.419999
G1 X103.124 Y104.694 E.0092
G1 X103.271 Y104.76 E.00505
G1 X103.585 Y104.814 E.00999
G1 X106.794 Y104.814 E.10062
G1 X107.336 Y104.829 E.017
G1 X107.644 Y104.718 E.01027
G1 X107.916 Y104.481 E.01131
G1 X108.07 Y104.19 E.01032
G1 X110.189 Y97.599 E.21707
G1 X114.014 Y97.599 E.11993
G1 X114.238 Y97.785 E.00913
G1 X114.057 Y97.773 E.00569
G1 X113.827 Y97.942 E.00895
G1 X110.646 Y101.123 E.14105
G1 X110.443 Y101.426 E.01144
G1 X110.37 Y101.79 E.01164
G1 X110.37 Y107.816 E.18894
G1 X108.472 Y107.816 E.05951
G1 X108.155 Y107.871 E.01009
G1 X107.887 Y108.019 E.0096
G1 X107.659 Y108.282 E.01091
G1 X107.564 Y108.507 E.00766
G1 X107.53 Y108.759 E.00797
G1 X107.53 Y111.001 E.0703
G1 X107.544 Y111.164 E.00513
G1 X107.688 Y111.524 E.01216
G1 X107.907 Y111.756 E.01
G1 X108.161 Y111.891 E.00902
G1 X108.472 Y111.944 E.00989
G1 X110.37 Y111.944 E.05951
G1 X110.37 Y118.21 E.19647
G1 X110.443 Y118.574 E.01164
G1 X110.646 Y118.877 E.01144
G1 X113.827 Y122.058 E.14105
G1 X114.057 Y122.227 E.00895
G1 X114.257 Y122.197 E.00634
G1 X114.053 Y122.401 E.00905
G1 X110.189 Y122.401 E.12115
G1 X108.07 Y115.81 E.21707
G1 X107.896 Y115.494 E.01131
G1 X107.654 Y115.288 E.00996
G1 X107.332 Y115.17 E.01075
G1 X106.911 Y115.186 E.01321
G1 X104.278 Y115.186 E.08256
G1 X103.357 Y115.214 E.02889
G1 X103.124 Y115.306 E.00785
G1 X102.894 Y115.488 E.0092
;WIDTH:0.469101
G1 X102.785 Y115.701 E.00848
;WIDTH:0.518202
G1 X102.677 Y115.915 E.00947
;WIDTH:0.567303
G1 X102.568 Y116.129 E.01047
G1 X102.568 Y117.862 E.07556
G1 X102.044 Y117.862 E.02285
G1 X102.044 Y116.129 E.07556
G1 X102.02 Y115.794 E.01464
;WIDTH:0.518202
G1 X101.995 Y115.46 E.01324
;WIDTH:0.469101
G1 X101.97 Y115.125 E.0119
;WIDTH:0.419999
G1 X101.97 Y114.75 E.01176
G1 X102.968 Y114.358 E.03362
G1 X103.138 Y114.205 E.00717
G1 X103.325 Y113.876 E.01187
G1 X103.37 Y113.586 E.0092
G1 X103.37 Y106.414 E.22487
G1 X103.325 Y106.124 E.0092
G1 X103.138 Y105.795 E.01187
G1 X102.968 Y105.642 E.00717
G1 X102.745 Y105.527 E.00787
G1 X101.97 Y105.25 E.02581
G1 X101.97 Y104.875 E.01176
;WIDTH:0.469101
G1 X101.995 Y104.54 E.0119
;WIDTH:0.518202
G1 X102.02 Y104.206 E.01324
;WIDTH:0.567303
G1 X102.044 Y103.871 E.01464
G1 X102.044 Y102.138 E.07556
G1 X102.568 Y102.138 E.02285
G1 X102.568 Y103.871 E.07556
;WIDTH:0.57699
G1 X102.579 Y104.048 E.00788
G1 X102.658 Y104.164 E.00623
G1 X103.027 Y103.917 F9000
;WIDTH:0.419999
G1 F1200
G1 X103.028 Y103.969 E.00163
G1 X103.17 Y104.256 E.01004
G1 X103.308 Y104.365 E.00551
G1 X103.585 Y104.437 E.00897
G1 X106.772 Y104.437 E.09993
G1 X107.085 Y104.46 E.00984
G1 X107.366 Y104.433 E.00885
G1 X107.619 Y104.249 E.00981
G1 X107.711 Y104.074 E.0062
G1 X109.915 Y97.222 E.22568
G1 X114.209 Y97.222 E.13464
G1 X114.346 Y97.359 E.00607
;WIDTH:0.464659
G1 X114.453 Y97.498 E.00615
;WIDTH:0.509319
G1 X114.561 Y97.637 E.00683
;WIDTH:0.553979
G1 X114.668 Y97.776 E.00745
;WIDTH:0.598639
G1 X114.775 Y97.915 E.00811
;WIDTH:0.643298
G1 X114.883 Y98.054 E.00879
G1 X114.752 Y98.064 E.00656
;WIDTH:0.598639
G1 X114.622 Y98.075 E.00603
;WIDTH:0.553979
G1 X114.492 Y98.086 E.00554
;WIDTH:0.509319
G1 X114.362 Y98.096 E.00506
;WIDTH:0.464659
G1 X114.232 Y98.107 E.00458
;WIDTH:0.419999
G1 X114.094 Y98.208 E.00536
G1 X110.912 Y101.39 E.14109
G1 X110.812 Y101.526 E.00529
G1 X110.747 Y101.79 E.00852
G1 X110.747 Y108.193 E.20076
G1 X108.374 Y108.201 E.0744
G1 X108.121 Y108.315 E.0087
G1 X107.984 Y108.472 E.00653
G1 X107.907 Y108.759 E.00932
G1 X107.907 Y111.001 E.0703
G1 X107.915 Y111.099 E.00308
G1 X108.001 Y111.315 E.00729
G1 X108.133 Y111.454 E.00601
G1 X108.285 Y111.535 E.0054
G1 X108.472 Y111.567 E.00595
G1 X110.747 Y111.567 E.07133
G1 X110.747 Y118.21 E.20829
G1 X110.774 Y118.383 E.00549
G1 X110.912 Y118.61 E.00833
G1 X114.094 Y121.792 E.14109
G1 X114.232 Y121.893 E.00536
;WIDTH:0.462668
G1 X114.379 Y121.888 E.00513
;WIDTH:0.505337
G1 X114.527 Y121.883 E.00569
;WIDTH:0.548005
G1 X114.674 Y121.878 E.00618
;WIDTH:0.590674
G1 X114.822 Y121.872 E.00675
;WIDTH:0.633342
G1 X114.969 Y121.867 E.00722
G1 X114.817 Y122.049 E.01164
;WIDTH:0.590674
G1 X114.665 Y122.231 E.0108
;WIDTH:0.548005
G1 X114.513 Y122.414 E.00999
;WIDTH:0.505337
G1 X114.361 Y122.596 E.00912
;WIDTH:0.462668
G1 X114.209 Y122.778 E.00828
;WIDTH:0.419999
G1 X109.915 Y122.778 E.13464
G1 X107.711 Y115.926 E.22568
G1 X107.607 Y115.736 E.00679
G1 X107.462 Y115.613 E.00596
G1 X107.268 Y115.542 E.00648
G1 X106.941 Y115.563 E.01027
G1 X104.278 Y115.563 E.0835
G1 X103.448 Y115.58 E.02603
G1 X103.17 Y115.744 E.01012
G1 X103.019 Y116.129 E.01297
G1 X103.019 Y118.313 E.06848
G1 X101.593 Y118.313 E.04471
G1 X101.593 Y114.484 E.12006
G1 X102.61 Y114.121 E.03386
G1 X102.854 Y113.957 E.00922
G1 X102.966 Y113.76 E.00711
G1 X102.993 Y113.586 E.00552
G1 X102.993 Y107.117 E.20283
G1 X102.966 Y106.24 E.02751
G1 X102.854 Y106.043 E.00711
G1 X102.618 Y105.882 E.00896
G1 X101.593 Y105.516 E.03413
G1 X101.593 Y101.687 E.12006
G1 X103.019 Y101.687 E.04471
G1 X103.027 Y103.857 E.06804
G1 X103.396 Y103.871 F9000
;TYPE:External perimeter
G1 F1200
G1 X103.447 Y104 E.00435
G1 X103.585 Y104.06 E.00472
G1 X106.772 Y104.06 E.09993
G1 X107.237 Y104.078 E.01459
G1 X107.352 Y103.959 E.00519
G1 X109.64 Y96.845 E.23431
G1 X114.365 Y96.845 E.14815
G1 X118.028 Y100.507 E.1624
G1 X118.161 Y100.562 E.00451
G1 X118.784 Y100.562 E.01953
G1 X118.784 Y101.53 E.03035
G1 X117.682 Y101.53 E.03455
G1 X114.627 Y98.475 E.13546
G1 X114.406 Y98.441 E.00701
G1 X114.36 Y98.475 E.00179
G1 X111.179 Y101.656 E.14105
G1 X111.124 Y101.79 E.00454
G1 X111.124 Y108.57 E.21258
G1 X108.472 Y108.57 E.08315
G1 X108.355 Y108.611 E.00389
G1 X108.284 Y108.759 E.00515
G1 X108.284 Y111.001 E.0703
G1 X108.359 Y111.152 E.00529
G1 X108.472 Y111.19 E.00374
G1 X111.124 Y111.19 E.08315
G1 X111.124 Y118.21 E.22011
G1 X111.179 Y118.344 E.00454
G1 X114.36 Y121.525 E.14105
G1 X114.406 Y121.559 E.00179
G1 X114.627 Y121.525 E.00701
G1 X117.682 Y118.47 E.13546
G1 X118.784 Y118.47 E.03455
G1 X118.784 Y118.954 E.01518
G1 X118.784 Y119.438 E.01518
G1 X118.161 Y119.438 E.01953
G1 X118.028 Y119.493 E.00451
G1 X114.365 Y123.155 E.1624
G1 X109.64 Y123.155 E.14815
G1 X107.352 Y116.041 E.23431
G1 X107.235 Y115.921 E.00525
G1 X106.97 Y115.94 E.00833
G1 X104.278 Y115.94 E.08441
G1 X103.493 Y115.964 E.02462
G1 X103.396 Y116.129 E.006
G1 X103.396 Y118.69 E.0803
G1 X101.216 Y118.69 E.06835
G1 X101.216 Y114.218 E.14022
G1 X102.07 Y113.913 E.02843
G1 X102.57 Y113.709 E.01693
G1 X102.616 Y113.586 E.00412
G1 X102.616 Y107.117 E.20283
G1 X102.607 Y106.356 E.02386
G1 X102.491 Y106.237 E.00521
G1 X101.216 Y105.782 E.04245
G1 X101.216 Y101.31 E.14022
G1 X103.396 Y101.31 E.06835
G1 X103.396 Y103.811 E.07842
;WIPE_START
G1 F7200
G1 X103.396 Y103.871 E-.01425
G1 X103.447 Y104 E-.03294
G1 X103.585 Y104.06 E-.03574
G1 X106.604 Y104.06 E-.71707
;WIPE_END
G1 X114.969 Y121.867 F9000
G1 E.8 F1800
;TYPE:Perimeter
;WIDTH:0.633342
G1 F1200
G1 X117.686 Y119.151 E.1886
;WIDTH:0.659939
G1 X117.79 Y119.066 E.00689
;WIDTH:0.68654
G1 X117.894 Y118.98 E.00722
G1 X118.097 Y118.967 E.01089
;WIDTH:0.659941
G1 X118.3 Y118.954 E.01044
;WIPE_START
G1 F7200
G1 X118.097 Y118.967 E-.04831
;WIPE_END
G1 E-.75169 F1800
G1 X118.3 Y101.046 F9000
G1 E.8 F1800
;WIDTH:0.659943
G1 F1200
G1 X118.097 Y101.033 E.01044
;WIDTH:0.686542
G1 X117.894 Y101.02 E.01089
G1 X117.79 Y100.935 E.00719
;WIDTH:0.659943
G1 X117.686 Y100.849 E.00692
;WIDTH:0.633344
G1 X114.969 Y98.133 E.1886
;WIDTH:0.643298
G1 X114.883 Y98.054 E.00583
;WIPE_START
G1 F7200
G1 X114.969 Y98.133 E-.02773
;WIPE_END
G1 E-.77227 F1800
G1 X113.509 Y98.089 F9000
G1 E.8 F1800
;TYPE:Solid infill
;WIDTH:0.421612
G1 F1200
G1 X113.309 Y97.889 E.00891
G1 X112.774 Y97.889 E.01685
G1 X113.121 Y98.237 E.01547
G1 X112.853 Y98.505 E.01193
G1 X112.238 Y97.889 E.02741
G1 X111.702 Y97.889 E.01688
G1 X112.586 Y98.773 E.03937
G1 X112.318 Y99.04 E.01191
G1 X111.167 Y97.889 E.05126
G1 X110.631 Y97.889 E.01688
G1 X112.05 Y99.308 E.06319
G1 X111.782 Y99.576 E.01193
G1 X110.327 Y98.12 E.06482
G1 X110.196 Y98.526 E.01343
G1 X111.514 Y99.844 E.05869
G1 X111.247 Y100.111 E.01189
G1 X110.066 Y98.931 E.05257
G1 X109.936 Y99.336 E.01339
G1 X110.979 Y100.379 E.04645
G1 X110.711 Y100.647 E.01193
G1 X109.806 Y99.741 E.04032
G1 X109.675 Y100.147 E.01343
G1 X110.443 Y100.915 E.0342
G1 X110.217 Y101.224 E.01205
G1 X109.545 Y100.552 E.02993
G1 X109.415 Y100.957 E.01339
G1 X110.09 Y101.632 E.03006
G1 X110.079 Y102.157 E.01654
G1 X109.284 Y101.362 E.0354
G1 X109.154 Y101.768 E.01342
G1 X110.079 Y102.693 E.04119
G1 X110.079 Y103.228 E.01685
G1 X109.024 Y102.173 E.04698
G1 X108.893 Y102.578 E.0134
G1 X110.079 Y103.764 E.05281
G1 X110.079 Y104.3 E.01688
G1 X108.763 Y102.983 E.05863
G1 X108.633 Y103.389 E.01342
G1 X110.079 Y104.835 E.06439
G1 X110.079 Y105.371 E.01688
G1 X108.503 Y103.794 E.0702
G1 X108.372 Y104.199 E.0134
G1 X110.079 Y105.906 E.07601
G1 X110.079 Y106.442 E.01688
G1 X108.199 Y104.561 E.08374
G1 X108.145 Y104.662 E.00361
G1 X107.941 Y104.839 E.0085
G1 X110.079 Y106.977 E.09521
G1 X110.079 Y107.513 E.01688
G1 X107.616 Y105.05 E.10968
G1 X107.382 Y105.117 E.00766
G1 X107.147 Y105.116 E.0074
G1 X109.556 Y107.525 E.10728
G1 X109.021 Y107.525 E.01685
G1 X106.61 Y105.114 E.10736
G1 X106.072 Y105.113 E.01694
G1 X108.485 Y107.525 E.10743
G1 X108.259 Y107.544 E.00714
G1 X108.033 Y107.609 E.0074
G1 X105.535 Y105.111 E.11124
G1 X104.998 Y105.109 E.01691
G1 X107.693 Y107.805 E.12003
G1 X107.444 Y108.091 E.01194
G1 X104.46 Y105.107 E.13288
G1 X103.923 Y105.106 E.01691
G1 X107.279 Y108.461 E.14942
G1 X107.239 Y108.752 E.00925
G1 X107.239 Y108.957 E.00646
G1 X103.36 Y105.078 E.17274
G1 X103.286 Y105.069 E.00235
G1 X102.98 Y104.947 E.01037
G1 X102.683 Y104.714 E.01189
G1 X102.373 Y104.327 E.01561
G1 X102.323 Y104.576 E.008
G1 X107.239 Y109.493 E.21894
G1 X107.239 Y110.028 E.01685
G1 X103.661 Y106.45 E.15933
G1 X103.661 Y106.985 E.01685
G1 X107.409 Y110.734 E.16693
;WIPE_START
G1 F7200
G1 X105.027 Y108.352 E-.8
;WIPE_END
G1 X109.811 Y112.065 F9000
G1 E.8 F1800
G1 F1200
G1 X110.079 Y112.333 E.01193
G1 X110.079 Y112.868 E.01685
G1 X109.445 Y112.235 E.02821
G1 X108.91 Y112.235 E.01685
G1 X110.079 Y113.404 E.05206
G1 X110.079 Y113.939 E.01685
G1 X108.366 Y112.226 E.07628
G1 X108.061 Y112.165 E.00979
G1 X107.731 Y111.989 E.01178
G1 X107.446 Y111.687 E.01308
G1 X107.293 Y111.366 E.0112
G1 X107.255 Y111.116 E.00796
G1 X103.661 Y107.521 E.16007
G1 X103.661 Y108.057 E.01688
G1 X110.079 Y114.475 E.2858
G1 X110.079 Y115.011 E.01688
G1 X103.661 Y108.592 E.28582
G1 X103.661 Y109.128 E.01688
G1 X110.079 Y115.546 E.2858
G1 X110.079 Y116.082 E.01688
G1 X103.661 Y109.663 E.28582
G1 X103.661 Y110.199 E.01688
G1 X110.079 Y116.617 E.2858
G1 X110.079 Y117.153 E.01688
G1 X103.661 Y110.734 E.28582
G1 X103.661 Y111.27 E.01688
G1 X107.271 Y114.88 E.16076
G1 X107.369 Y114.881 E.00309
G1 X107.581 Y114.935 E.00689
G1 X107.806 Y115.04 E.00782
G1 X108.121 Y115.308 E.01302
G1 X108.344 Y115.712 E.01453
G1 X108.458 Y116.067 E.01174
G1 X110.079 Y117.688 E.07219
G1 X110.08 Y118.225 E.01691
G1 X108.712 Y116.856 E.06094
G1 X108.965 Y117.646 E.02612
G1 X113.43 Y122.111 E.19883
G1 X112.895 Y122.111 E.01685
G1 X109.219 Y118.435 E.1637
G1 X109.473 Y119.224 E.0261
G1 X112.359 Y122.111 E.12854
G1 X111.824 Y122.111 E.01685
G1 X109.727 Y120.014 E.09338
G1 X109.981 Y120.803 E.0261
G1 X111.288 Y122.111 E.05822
G1 X110.753 Y122.111 E.01685
G1 X109.972 Y121.33 E.03478
;WIPE_START
G1 F7200
G1 X110.753 Y122.111 E-.26232
G1 X111.288 Y122.111 E-.12706
G1 X110.066 Y120.888 E-.41062
;WIPE_END
G1 X106.918 Y115.063 F9000
G1 E.8 F1800
G1 F1200
G1 X103.661 Y111.805 E.14506
G1 X103.661 Y112.341 E.01688
G1 X106.215 Y114.895 E.11373
G1 X105.68 Y114.895 E.01685
G1 X103.661 Y112.877 E.08989
G1 X103.661 Y113.412 E.01685
G1 X105.144 Y114.895 E.06604
G1 X104.609 Y114.895 E.01685
G1 X103.613 Y113.899 E.04435
G1 X103.602 Y113.968 E.0022
G1 X103.437 Y114.259 E.01053
G1 X104.073 Y114.895 E.02832
G1 X103.542 Y114.9 E.01672
G1 X103.19 Y114.547 E.0157
G1 X103.134 Y114.597 E.00236
G1 X102.85 Y114.744 E.01007
G1 X103.109 Y115.002 E.01151
G1 X102.974 Y115.056 E.00458
G1 X102.78 Y115.21 E.0078
G1 X102.456 Y114.885 E.01445
G1 X102.261 Y114.955 E.00652
G1 X102.279 Y115.244 E.00912
G1 X102.672 Y115.637 E.0175
; stop printing object Picatinny_To_Nerf_v1.stl id:0 copy 0
EXCLUDE_OBJECT_END NAME=Picatinny_To_Nerf_v1_stl_id_0_copy_0
M106 S255
;LAYER_CHANGE
;Z:0.48
;HEIGHT:0.28
;BEFORE_LAYER_CHANGE
G92 E0
;0.48


;WIPE_START
G1 F7200
