; generated by PrusaSlicer 2.7.1 on 2025-01-29 at 20:02:13 UTC


;
;

;
;
; 

; external perimeters extrusion width = 0.42mm
; perimeters extrusion width = 0.44mm
; infill extrusion width = 0.44mm
; solid infill extrusion width = 0.44mm
; top infill extrusion width = 0.40mm
; first layer extrusion width = 0.42mm

; external perimeters extrusion width = 0.42mm
; perimeters extrusion width = 0.44mm
; infill extrusion width = 0.44mm
; solid infill extrusion width = 0.44mm
; top infill extrusion width = 0.40mm
; first layer extrusion width = 0.42mm



; Pre-Processed for Cancel-Object support by preprocess_cancellation v0.2.0
; 2 known objects
EXCLUDE_OBJECT_DEFINE NAME=HDzero_Recessed_Nut_V2_stl_id_1_copy_0 CENTER=108.884,92.554 POLYGON=[[101.98,85.844],[101.98,99.326],[115.428,99.326],[115.428,85.844]]
EXCLUDE_OBJECT_DEFINE NAME=Revised_HDZero_goggle_finger_wrench_stl_id_0_copy_0 CENTER=110.335,109.967 POLYGON=[[103.272,103.303],[103.272,116.697],[116.669,116.697],[116.669,103.303]]
M201 X500 Y500 Z100 E5000 ; sets maximum accelerations, mm/sec^2
M203 X500 Y500 Z10 E60 ; sets maximum feedrates, mm / sec
M204 S500 T1000 ; sets acceleration (S) and retract acceleration (R), mm/sec^2
M205 X8.00 Y8.00 Z0.40 E5.00 ; sets the jerk limits, mm/sec
M205 S0 T0 ; sets the minimum extruding and travel feed rate, mm/sec

; printing object HDzero_Recessed_Nut_V2.stl id:1 copy 0
EXCLUDE_OBJECT_START NAME=HDzero_Recessed_Nut_V2_stl_id_1_copy_0
; stop printing object HDzero_Recessed_Nut_V2.stl id:1 copy 0
EXCLUDE_OBJECT_END NAME=HDzero_Recessed_Nut_V2_stl_id_1_copy_0
; printing object Revised_HDZero_goggle_finger_wrench.stl id:0 copy 0
EXCLUDE_OBJECT_START NAME=Revised_HDZero_goggle_finger_wrench_stl_id_0_copy_0
; stop printing object Revised_HDZero_goggle_finger_wrench.stl id:0 copy 0
EXCLUDE_OBJECT_END NAME=Revised_HDZero_goggle_finger_wrench_stl_id_0_copy_0

;TYPE:Custom
G90 ; use absolute coordinates
M83 ; extruder relative mode
G28
M109 S0
M190 S0
start_print EXTRUDER_TEMP=210 BED_TEMP=60

M104 S150 ; set temporary nozzle temp to prevent oozing during homing
M140 S60 ; set final bed temp
G4 S30 ; allow partial nozzle warmup
G28 ; home all axis and restore leveling

G1 Z50 F240
G1 X2.0 Y10 F3000
M104 S210 ; set final nozzle temp
M190 S60 ; wait for bed temp to stabilize
M109 S210 ; wait for nozzle temp to stabilize
G1 Z0.28 F240
G92 E0
G1 X2.0 Y140 E10 F1500 ; prime the nozzle
G1 X2.3 Y140 F5000
G92 E0
G1 X2.3 Y10 E10 F1200 ; prime the nozzle
G92 E0
G21 ; set units to millimeters
G90 ; use absolute coordinates
M83 ; use relative distances for extrusion
; Filament gcode
M107
;LAYER_CHANGE
;Z:0.2
;HEIGHT:0.2
;BEFORE_LAYER_CHANGE
G92 E0
;0.2


G1 E-.8 F1800
G1 Z.2 F9000
;AFTER_LAYER_CHANGE
;0.2
G1 X98.402 Y82.361
G1 Z.2
G1 E.8 F1800
M204 S500
;TYPE:Skirt/Brim
;WIDTH:0.42
G1 F1200
G1 X99.828 Y81.125 E.05917
G1 X101.76 Y79.858 E.07244
G1 X104.09 Y78.862 E.07945
G1 X106.221 Y78.318 E.06896
G1 X108.401 Y78.123 E.06863
G1 X109.593 Y78.158 E.03739
G1 X111.511 Y78.398 E.06061
G1 X114.096 Y79.183 E.08471
G1 X115.838 Y80.05 E.06101
G1 X117.328 Y80.994 E.0553
G1 X119.201 Y82.682 E.07906
G1 X119.95 Y83.561 E.03621
G1 X120.901 Y84.86 E.05048
G1 X121.823 Y86.595 E.0616
G1 X122.627 Y88.772 E.07276
G1 X123.073 Y91.263 E.07935
G1 X125.002 Y108.207 E.5347
G1 X124.95 Y112.385 E.13101
G1 X124.764 Y113.2 E.02621
G1 X123.605 Y116.588 E.11227
G1 X122.914 Y117.847 E.04503
G1 X120.724 Y120.669 E.112
G1 X119.654 Y121.637 E.04524
G1 X116.675 Y123.593 E.11174
G1 X115.996 Y123.936 E.02385
G1 X111.902 Y125.04 E.13295
G1 X111.12 Y125.146 E.02474
G1 X106.918 Y124.86 E.13206
G1 X106.142 Y124.705 E.02481
G1 X102.269 Y123.075 E.13175
G1 X101.604 Y122.69 E.02409
G1 X101.019 Y122.233 E.02328
G1 X98.457 Y119.887 E.10892
G1 X97.981 Y119.347 E.02257
G1 X97.529 Y118.667 E.0256
G1 X95.882 Y115.637 E.10813
G1 X95.386 Y114.169 E.04858
G1 X94.773 Y110.326 E.12202
G1 X94.217 Y91.414 E.59323
G1 X94.603 Y89.194 E.07065
G1 X95.355 Y86.85 E.07718
G1 X95.598 Y86.304 E.01874
G1 X96.535 Y84.68 E.05879
G1 X98.364 Y82.407 E.09148
;WIPE_START
G1 F7200
G1 X98.402 Y82.361 E-.01417
G1 X99.828 Y81.125 E-.44819
G1 X101.017 Y80.345 E-.33764
;WIPE_END
G1 X101.057 Y84.97 F9000
G1 E.8 F1800
G1 F1200
G1 X101.279 Y84.737 E.01009
G1 X102.206 Y83.956 E.03801
G1 X103.234 Y83.275 E.03866
G1 X104.202 Y82.776 E.03415
G1 X105.219 Y82.372 E.03431
G1 X106.979 Y81.941 E.05681
G1 X107.937 Y81.834 E.03022
G1 X109.053 Y81.816 E.035
G1 X110.213 Y81.921 E.03652
G1 X112.111 Y82.364 E.06111
G1 X113.13 Y82.761 E.03429
G1 X114.978 Y83.837 E.06705
G1 X115.61 Y84.34 E.02533
G1 X116.456 Y85.14 E.03651
G1 X117.213 Y86.006 E.03606
G1 X117.823 Y86.892 E.03373
G1 X118.811 Y88.894 E.07
G1 X119.191 Y90.24 E.04385
G1 X119.379 Y91.381 E.03626
G1 X119.465 Y92.525 E.03597
G1 X119.387 Y93.714 E.03736
G1 X119.197 Y94.904 E.03778
G1 X118.83 Y96.224 E.04296
G1 X117.814 Y98.293 E.07227
G1 X117.188 Y99.196 E.03445
G1 X116.015 Y100.444 E.0537
G1 X116.532 Y100.768 E.01913
G1 X117.097 Y101.276 E.02382
G1 X117.461 Y101.776 E.01939
G1 X118.434 Y102.494 E.03791
G1 X119.148 Y103.368 E.03539
G1 X119.53 Y104.04 E.02424
G1 X119.725 Y104.695 E.02143
G1 X120.118 Y105.151 E.01887
G1 X120.529 Y105.92 E.02734
G1 X120.87 Y106.979 E.03488
G1 X120.953 Y108.234 E.03944
G1 X121.148 Y108.74 E.017
G1 X121.284 Y109.633 E.02832
G1 X121.248 Y110.76 E.03535
G1 X120.941 Y111.853 E.0356
G1 X120.89 Y112.903 E.03296
G1 X120.473 Y114.209 E.04299
G1 X119.78 Y115.261 E.0395
G1 X119.282 Y116.427 E.03975
G1 X118.458 Y117.479 E.0419
G1 X117.958 Y117.914 E.02078
G1 X117.507 Y118.174 E.01632
G1 X116.869 Y118.949 E.03147
G1 X115.855 Y119.678 E.03916
G1 X115.03 Y120.06 E.02851
G1 X114.486 Y120.173 E.01742
G1 X113.563 Y120.723 E.03369
G1 X112.149 Y121.115 E.04601
G1 X111.47 Y121.165 E.02135
G1 X110.924 Y121.092 E.01727
G1 X109.466 Y121.336 E.04635
G1 X108.471 Y121.234 E.03136
G1 X107.818 Y121.073 E.02109
G1 X107.276 Y120.806 E.01894
G1 X105.814 Y120.564 E.04646
G1 X104.973 Y120.18 E.02899
G1 X104.375 Y119.808 E.02208
G1 X103.864 Y119.299 E.02261
G1 X103.108 Y118.99 E.02561
G1 X102.532 Y118.572 E.02231
G1 X101.824 Y117.894 E.03074
G1 X101.174 Y116.844 E.03872
G1 X100.343 Y115.991 E.03734
G1 X99.682 Y114.762 E.04375
G1 X99.484 Y114.113 E.02127
G1 X99.433 Y113.624 E.01542
G1 X98.96 Y112.672 E.03333
G1 X98.715 Y111.454 E.03895
G1 X98.712 Y110.535 E.02881
G1 X98.829 Y110.009 E.0169
G1 X98.69 Y108.826 E.03735
G1 X98.855 Y107.707 E.03546
G1 X99.098 Y106.958 E.02469
G1 X99.431 Y106.405 E.02024
G1 X99.486 Y105.879 E.01658
G1 X99.698 Y105.199 E.02233
G1 X100.345 Y104.006 E.04255
G1 X101.194 Y103.132 E.0382
G1 X101.429 Y102.64 E.0171
G1 X101.91 Y102.021 E.02458
G1 X102.536 Y101.448 E.02661
G1 X101.324 Y100.476 E.04871
G1 X100.557 Y99.686 E.03452
G1 X99.792 Y98.7 E.03913
G1 X99.182 Y97.709 E.03649
G1 X98.689 Y96.664 E.03623
G1 X98.314 Y95.587 E.03576
G1 X98.046 Y94.437 E.03702
G1 X97.908 Y93.258 E.03722
G1 X97.902 Y92.058 E.03763
G1 X98.029 Y90.837 E.03849
G1 X98.275 Y89.714 E.03605
G1 X98.698 Y88.478 E.04096
G1 X99.185 Y87.458 E.03544
G1 X99.781 Y86.482 E.03586
G1 X100.492 Y85.564 E.03641
G1 X101.016 Y85.013 E.02384
G1 X101.288 Y85.273 F9000
G1 F1200
G1 X101.544 Y85.005 E.01162
G1 X102.44 Y84.252 E.0367
G1 X103.433 Y83.595 E.03733
G1 X104.366 Y83.116 E.03288
G1 X105.346 Y82.727 E.03306
G1 X107.034 Y82.314 E.05449
G1 X109.03 Y82.192 E.0627
G1 X110.154 Y82.293 E.03538
G1 X111.985 Y82.719 E.05894
G1 X112.955 Y83.095 E.03262
G1 X114.771 Y84.152 E.06588
G1 X116.19 Y85.408 E.05942
G1 X116.921 Y86.246 E.03487
G1 X117.496 Y87.081 E.03179
G1 X118.452 Y89.01 E.0675
G1 X118.825 Y90.332 E.04307
G1 X119.088 Y92.514 E.06891
G1 X119.011 Y93.681 E.03667
G1 X118.826 Y94.833 E.03658
G1 X118.479 Y96.085 E.04074
G1 X117.488 Y98.104 E.07052
G1 X116.896 Y98.957 E.03256
G1 X116.271 Y99.678 E.02992
G1 X115.399 Y100.51 E.03779
G1 X116.293 Y101.06 E.03291
G1 X116.829 Y101.542 E.0226
G1 X117.19 Y102.045 E.01941
G1 X118.157 Y102.751 E.03754
G1 X118.846 Y103.594 E.03414
G1 X119.19 Y104.206 E.02201
G1 X119.386 Y104.881 E.02204
G1 X119.796 Y105.349 E.01951
G1 X120.188 Y106.083 E.02609
G1 X120.504 Y107.071 E.03252
G1 X120.563 Y108.274 E.03776
G1 X120.779 Y108.82 E.01841
G1 X120.907 Y109.639 E.02599
G1 X120.872 Y110.724 E.03404
G1 X120.565 Y111.792 E.03484
G1 X120.523 Y112.813 E.03204
G1 X120.121 Y114.073 E.04147
G1 X119.426 Y115.089 E.0386
G1 X118.97 Y116.215 E.03809
G1 X118.197 Y117.207 E.03943
G1 X117.725 Y117.616 E.01958
G1 X117.26 Y117.881 E.01678
G1 X116.628 Y118.658 E.0314
G1 X115.65 Y119.361 E.03776
G1 X114.894 Y119.708 E.02608
G1 X114.309 Y119.823 E.01869
G1 X113.394 Y120.385 E.03367
G1 X112.103 Y120.74 E.04198
G1 X111.463 Y120.787 E.02012
G1 X110.884 Y120.705 E.01834
G1 X109.479 Y120.959 E.04477
G1 X108.548 Y120.864 E.02934
G1 X107.93 Y120.712 E.01995
G1 X107.363 Y120.427 E.0199
G1 X105.949 Y120.211 E.04485
G1 X104.594 Y119.5 E.04798
G1 X104.077 Y118.978 E.02304
G1 X103.31 Y118.67 E.02592
G1 X102.132 Y117.675 E.04835
G1 X101.472 Y116.609 E.03931
G1 X100.661 Y115.788 E.03618
G1 X100.037 Y114.634 E.04113
G1 X99.851 Y114.021 E.02009
G1 X99.801 Y113.518 E.01585
G1 X99.325 Y112.572 E.0332
G1 X99.089 Y111.398 E.03755
G1 X99.089 Y110.558 E.02634
G1 X99.211 Y110.029 E.01702
G1 X99.067 Y108.856 E.03705
G1 X99.226 Y107.779 E.03413
G1 X99.449 Y107.098 E.02247
G1 X99.798 Y106.528 E.02096
G1 X99.852 Y105.972 E.01752
G1 X100.052 Y105.33 E.02108
G1 X100.663 Y104.21 E.04
G1 X101.508 Y103.35 E.0378
G1 X101.74 Y102.854 E.01717
G1 X102.198 Y102.265 E.02339
G1 X103.137 Y101.413 E.03975
G1 X101.575 Y100.195 E.06211
G1 X100.835 Y99.431 E.03335
G1 X100.097 Y98.477 E.03782
G1 X99.509 Y97.521 E.03519
G1 X99.042 Y96.53 E.03435
G1 X98.679 Y95.491 E.03451
G1 X98.42 Y94.382 E.03571
G1 X98.285 Y93.245 E.0359
G1 X98.278 Y92.086 E.03634
G1 X98.399 Y90.907 E.03716
G1 X98.636 Y89.826 E.0347
G1 X99.051 Y88.611 E.04026
G1 X99.521 Y87.629 E.03413
G1 X100.097 Y86.688 E.03459
G1 X100.784 Y85.803 E.03513
G1 X101.247 Y85.317 E.02105
G1 X101.519 Y85.577 F9000
G1 F1200
G1 X101.81 Y85.273 E.01319
G1 X102.674 Y84.548 E.03536
G1 X103.632 Y83.916 E.03598
G1 X105.473 Y83.082 E.06337
G1 X107.088 Y82.687 E.05213
G1 X107.968 Y82.588 E.02777
G1 X109.006 Y82.569 E.03255
G1 X110.095 Y82.666 E.03428
G1 X111.859 Y83.075 E.05678
G1 X112.78 Y83.429 E.03094
G1 X114.545 Y84.454 E.064
G1 X115.103 Y84.899 E.02238
G1 X115.925 Y85.676 E.03547
G1 X116.617 Y86.469 E.033
G1 X117.17 Y87.27 E.03052
G1 X118.101 Y89.15 E.06578
G1 X118.455 Y90.404 E.04085
G1 X118.711 Y92.529 E.06711
G1 X118.636 Y93.646 E.0351
G1 X118.46 Y94.743 E.03484
G1 X118.128 Y95.947 E.03916
G1 X117.161 Y97.915 E.06875
G1 X116.605 Y98.718 E.03062
G1 X115.992 Y99.424 E.02932
G1 X114.652 Y100.632 E.05657
G1 X115.136 Y100.793 E.01599
G1 X116.054 Y101.352 E.0337
G1 X116.56 Y101.808 E.02136
G1 X116.947 Y102.355 E.02101
G1 X117.913 Y103.039 E.03711
G1 X118.525 Y103.793 E.03045
G1 X118.85 Y104.37 E.02076
G1 X119.046 Y105.068 E.02273
G1 X119.475 Y105.548 E.02018
G1 X119.834 Y106.214 E.02372
G1 X120.137 Y107.163 E.03124
G1 X120.174 Y108.319 E.03626
G1 X120.41 Y108.902 E.01972
G1 X120.529 Y109.645 E.02359
G1 X120.496 Y110.688 E.03272
G1 X120.192 Y111.686 E.03271
G1 X120.156 Y112.723 E.03253
G1 X119.769 Y113.936 E.03992
G1 X119.345 Y114.624 E.02534
G1 X119.074 Y114.912 E.0124
G1 X118.656 Y116.005 E.03669
G1 X117.936 Y116.934 E.03685
G1 X117.493 Y117.318 E.01838
G1 X117.011 Y117.587 E.01731
G1 X116.387 Y118.367 E.03132
G1 X115.445 Y119.044 E.03637
G1 X114.76 Y119.354 E.02357
G1 X114.139 Y119.471 E.01981
G1 X113.224 Y120.047 E.0339
G1 X112.057 Y120.365 E.03792
G1 X111.457 Y120.409 E.01886
G1 X110.84 Y120.316 E.01956
G1 X109.491 Y120.581 E.04311
G1 X108.625 Y120.495 E.02729
G1 X108.042 Y120.351 E.01883
G1 X107.447 Y120.045 E.02098
G1 X106.082 Y119.858 E.0432
G1 X104.815 Y119.194 E.04485
G1 X104.291 Y118.656 E.02355
G1 X103.51 Y118.35 E.0263
G1 X102.409 Y117.418 E.04523
G1 X101.771 Y116.373 E.03839
G1 X100.979 Y115.583 E.03507
G1 X100.392 Y114.506 E.03846
G1 X100.217 Y113.931 E.01885
G1 X100.171 Y113.411 E.01637
G1 X99.689 Y112.472 E.03309
G1 X99.462 Y111.343 E.03611
G1 X99.466 Y110.583 E.02383
G1 X99.594 Y110.05 E.01719
G1 X99.444 Y108.885 E.03683
G1 X99.597 Y107.851 E.03277
G1 X99.8 Y107.239 E.02022
G1 X100.166 Y106.651 E.02172
G1 X100.218 Y106.064 E.01848
G1 X100.407 Y105.46 E.01984
G1 X100.98 Y104.415 E.03737
G1 X101.804 Y103.611 E.0361
G1 X102.052 Y103.067 E.01875
G1 X102.485 Y102.51 E.02212
G1 X103.236 Y101.833 E.0317
G1 X103.94 Y101.459 E.02499
G1 X102.982 Y100.853 E.03554
G1 X101.826 Y99.913 E.04672
G1 X101.114 Y99.177 E.03211
G1 X100.401 Y98.255 E.03654
G1 X99.836 Y97.333 E.0339
G1 X99.388 Y96.379 E.03305
G1 X99.044 Y95.395 E.03268
G1 X98.793 Y94.327 E.0344
G1 X98.662 Y93.231 E.03461
G1 X98.654 Y92.114 E.03502
G1 X98.77 Y90.976 E.03587
G1 X98.996 Y89.938 E.03331
G1 X99.405 Y88.744 E.03957
G1 X99.856 Y87.801 E.03277
G1 X100.413 Y86.894 E.03337
G1 X101.075 Y86.042 E.03383
G1 X101.478 Y85.62 E.0183
G1 X101.75 Y85.881 F9000
G1 F1200
G1 X102.075 Y85.541 E.01475
G1 X102.908 Y84.844 E.03406
G1 X103.831 Y84.237 E.03464
G1 X105.599 Y83.438 E.06083
G1 X107.143 Y83.061 E.04983
G1 X108.983 Y82.945 E.05781
G1 X110.036 Y83.039 E.03315
G1 X111.734 Y83.431 E.05464
G1 X112.606 Y83.764 E.02927
G1 X114.319 Y84.757 E.06208
G1 X115.659 Y85.943 E.05611
G1 X116.313 Y86.692 E.03118
G1 X116.843 Y87.459 E.02923
G1 X117.751 Y89.29 E.06408
G1 X118.084 Y90.475 E.03859
G1 X118.334 Y92.544 E.06534
G1 X118.089 Y94.673 E.06719
G1 X117.768 Y95.833 E.03774
G1 X116.835 Y97.726 E.06617
G1 X116.301 Y98.494 E.02933
G1 X114.841 Y100 E.06577
G1 X113.742 Y100.769 E.04206
G1 X114.965 Y101.13 E.03998
G1 X115.815 Y101.644 E.03115
G1 X116.291 Y102.073 E.02009
G1 X116.699 Y102.661 E.02244
G1 X117.637 Y103.297 E.03553
G1 X118.204 Y103.992 E.02812
G1 X118.51 Y104.534 E.01952
G1 X118.706 Y105.254 E.0234
G1 X119.156 Y105.749 E.02098
G1 X119.481 Y106.346 E.02131
G1 X119.77 Y107.254 E.02988
G1 X119.782 Y108.36 E.03468
G1 X120.042 Y108.986 E.02125
G1 X120.152 Y109.652 E.02116
G1 X120.12 Y110.652 E.03137
G1 X119.789 Y111.634 E.03249
G1 X119.78 Y112.682 E.03286
G1 X119.418 Y113.796 E.03673
G1 X119.036 Y114.406 E.02257
G1 X118.718 Y114.738 E.01441
G1 X118.341 Y115.796 E.03522
G1 X117.674 Y116.662 E.03427
G1 X117.262 Y117.02 E.01711
G1 X116.721 Y117.315 E.01932
G1 X116.145 Y118.076 E.02992
G1 X115.241 Y118.726 E.03491
G1 X114.628 Y119 E.02105
G1 X113.967 Y119.118 E.02105
G1 X113.055 Y119.71 E.03409
G1 X112.012 Y119.99 E.03386
G1 X111.452 Y120.032 E.01761
G1 X110.793 Y119.927 E.02092
G1 X109.502 Y120.203 E.04139
G1 X108.193 Y120.005 E.04151
G1 X107.525 Y119.662 E.02354
G1 X106.215 Y119.504 E.04137
G1 X105.036 Y118.888 E.04171
G1 X104.505 Y118.334 E.02406
G1 X103.709 Y118.029 E.02673
G1 X102.687 Y117.162 E.04202
G1 X102.081 Y116.12 E.03779
G1 X101.296 Y115.377 E.03389
G1 X100.747 Y114.377 E.03577
G1 X100.584 Y113.841 E.01757
G1 X100.537 Y113.254 E.01846
G1 X100.054 Y112.371 E.03156
G1 X99.836 Y111.288 E.03464
G1 X99.843 Y110.61 E.02126
G1 X99.991 Y110.021 E.01904
G1 X99.82 Y108.913 E.03515
G1 X99.961 Y107.95 E.03052
G1 X100.133 Y107.418 E.01753
G1 X100.534 Y106.772 E.02384
G1 X100.585 Y106.156 E.01938
G1 X100.761 Y105.591 E.01855
G1 X101.297 Y104.622 E.03472
G1 X102.104 Y103.867 E.03465
G1 X102.365 Y103.279 E.02017
G1 X102.751 Y102.778 E.01983
G1 X103.47 Y102.13 E.03035
G1 X104.517 Y101.655 E.03605
G1 X104.801 Y101.356 E.01293
G1 X104.13 Y101.133 E.02217
G1 X102.823 Y100.264 E.04921
G1 X101.405 Y98.938 E.06087
G1 X100.717 Y98.049 E.03525
G1 X100.173 Y97.163 E.0326
G1 X99.74 Y96.245 E.03182
G1 X99.403 Y95.28 E.03205
G1 X99.162 Y94.252 E.03311
G1 X99.039 Y93.218 E.03265
G1 X99.03 Y92.141 E.03377
G1 X99.141 Y91.046 E.03451
G1 X99.356 Y90.049 E.03198
G1 X99.758 Y88.876 E.03888
G1 X100.192 Y87.974 E.03139
G1 X100.729 Y87.1 E.03216
G1 X101.367 Y86.281 E.03255
G1 X101.709 Y85.924 E.0155
G1 X101.98 Y86.185 F9000
G1 F1200
G1 X102.34 Y85.81 E.0163
G1 X103.141 Y85.141 E.03272
G1 X104.029 Y84.558 E.03331
G1 X105.725 Y83.793 E.05834
G1 X107.198 Y83.434 E.04754
G1 X108.001 Y83.341 E.02535
G1 X108.961 Y83.322 E.03011
G1 X109.978 Y83.411 E.03201
