; generated by PrusaSlicer 2.7.1 on 2025-02-14 at 19:01:41 UTC


;
;

;
;
; 

; external perimeters extrusion width = 0.42mm
; perimeters extrusion width = 0.44mm
; infill extrusion width = 0.44mm
; solid infill extrusion width = 0.44mm
; top infill extrusion width = 0.40mm
; first layer extrusion width = 0.42mm



; Pre-Processed for Cancel-Object support by preprocess_cancellation v0.2.0
; 1 known objects
EXCLUDE_OBJECT_DEFINE NAME=sidewall_1_stl_id_0_copy_0 CENTER=110.881,137.669 POLYGON=[[97.817,90.223],[97.817,184.77],[117.464,184.77],[117.464,90.223]]
M201 X500 Y500 Z100 E5000 ; sets maximum accelerations, mm/sec^2
M203 X500 Y500 Z10 E60 ; sets maximum feedrates, mm / sec
M204 S500 T1000 ; sets acceleration (S) and retract acceleration (R), mm/sec^2
M205 X8.00 Y8.00 Z0.40 E5.00 ; sets the jerk limits, mm/sec
M205 S0 T0 ; sets the minimum extruding and travel feed rate, mm/sec

; printing object sidewall 1.stl id:0 copy 0
EXCLUDE_OBJECT_START NAME=sidewall_1_stl_id_0_copy_0
; stop printing object sidewall 1.stl id:0 copy 0
EXCLUDE_OBJECT_END NAME=sidewall_1_stl_id_0_copy_0

;TYPE:Custom
G90 ; use absolute coordinates
M83 ; extruder relative mode
G28
M109 S0
M190 S0
start_print EXTRUDER_TEMP=210 BED_TEMP=60

M104 S150 ; set temporary nozzle temp to prevent oozing during homing
M140 S60 ; set final bed temp
G4 S30 ; allow partial nozzle warmup
G28 ; home all axis and restore leveling

G1 Z50 F240
G1 X2.0 Y10 F3000
M104 S210 ; set final nozzle temp
M190 S60 ; wait for bed temp to stabilize
M109 S210 ; wait for nozzle temp to stabilize
G1 Z0.28 F240
G92 E0
G1 X2.0 Y140 E10 F1500 ; prime the nozzle
G1 X2.3 Y140 F5000
G92 E0
G1 X2.3 Y10 E10 F1200 ; prime the nozzle
G92 E0
G21 ; set units to millimeters
G90 ; use absolute coordinates
M83 ; use relative distances for extrusion
; Filament gcode
M107
;LAYER_CHANGE
;Z:0.2
;HEIGHT:0.2
;BEFORE_LAYER_CHANGE
G92 E0
;0.2


G1 E-.8 F1800
G1 Z.2 F9000
;AFTER_LAYER_CHANGE
;0.2
G1 X95.748 Y88.179
G1 Z.2
G1 E.8 F1800
M204 S500
;TYPE:Skirt/Brim
;WIDTH:0.42
G1 F1200
G1 X97.641 Y87.598 E.06209
G1 X117.641 Y87.598 E.62709
G1 X119.224 Y87.992 E.05115
G1 X120.437 Y89.083 E.05115
G1 X121.018 Y90.975 E.06206
G1 X121.018 Y184.013 E2.91714
G1 X120.624 Y185.596 E.05115
G1 X119.533 Y186.81 E.05118
G1 X117.641 Y187.39 E.06205
G1 X97.641 Y187.39 E.62709
G1 X96.057 Y186.996 E.05118
G1 X94.844 Y185.906 E.05113
G1 X94.264 Y184.013 E.06208
G1 X94.264 Y90.975 E2.91714
G1 X94.658 Y89.392 E.05115
G1 X95.708 Y88.223 E.04927
; printing object sidewall 1.stl id:0 copy 0
EXCLUDE_OBJECT_START NAME=sidewall_1_stl_id_0_copy_0
;WIPE_START
G1 F7200
G1 X95.748 Y88.179 E-.01412
G1 X97.641 Y87.598 E-.47029
G1 X98.97 Y87.598 E-.31559
;WIPE_END
G1 X113.994 Y99.631 F9000
G1 E.8 F1800
;TYPE:Perimeter
;WIDTH:0.419999
G1 F1200
G1 X114.503 Y99.726 E.01623
G1 X115.043 Y99.68 E.01699
G1 X115.582 Y99.491 E.01791
G1 X116.054 Y99.169 E.01791
G1 X116.427 Y98.736 E.01792
G1 X116.576 Y98.459 E.00986
G1 X116.576 Y103.345 E.1532
G1 X116.498 Y103.156 E.00641
G1 X116.176 Y102.684 E.01791
G1 X115.744 Y102.311 E.0179
G1 X115.229 Y102.064 E.01791
G1 X114.639 Y101.954 E.01882
G1 X114.098 Y102 E.01702
G1 X113.559 Y102.188 E.0179
G1 X113.087 Y102.51 E.01791
G1 X112.696 Y102.968 E.01888
G1 X112.466 Y103.458 E.01697
G1 X112.36 Y104.019 E.0179
G1 X112.403 Y104.588 E.01789
G1 X112.591 Y105.128 E.01793
G1 X112.924 Y105.614 E.01847
G1 X113.346 Y105.972 E.01735
G1 X113.86 Y106.22 E.01789
G1 X114.422 Y106.326 E.01793
G1 X114.991 Y106.284 E.01789
G1 X115.53 Y106.095 E.01791
G1 X116.002 Y105.774 E.0179
G1 X116.375 Y105.341 E.01792
G1 X116.576 Y104.939 E.01409
G1 X116.576 Y169.904 E2.03693
G1 X116.479 Y169.734 E.00614
G1 X116.106 Y169.302 E.0179
G1 X115.634 Y168.98 E.01791
G1 X115.095 Y168.791 E.01791
G1 X114.525 Y168.749 E.01792
G1 X113.964 Y168.855 E.0179
G1 X113.449 Y169.103 E.01792
G1 X113.017 Y169.476 E.0179
G1 X112.695 Y169.948 E.01791
G1 X112.506 Y170.487 E.01791
G1 X112.464 Y171.056 E.01789
G1 X112.57 Y171.618 E.01793
G1 X112.818 Y172.132 E.01789
G1 X113.191 Y172.565 E.01792
G1 X113.663 Y172.887 E.01791
G1 X114.202 Y173.075 E.0179
G1 X114.771 Y173.118 E.01789
G1 X115.333 Y173.012 E.01793
G1 X115.847 Y172.764 E.01789
G1 X116.28 Y172.391 E.01792
G1 X116.576 Y171.963 E.01632
G1 X116.576 Y176.616 E.14589
G1 X116.55 Y176.552 E.00217
G1 X116.228 Y176.08 E.01791
G1 X115.795 Y175.707 E.01792
G1 X115.281 Y175.459 E.01789
G1 X114.691 Y175.35 E.01881
G1 X114.15 Y175.396 E.01702
G1 X113.611 Y175.584 E.0179
G1 X113.139 Y175.906 E.01791
G1 X112.748 Y176.364 E.01888
G1 X112.518 Y176.853 E.01694
G1 X112.412 Y177.415 E.01793
G1 X112.455 Y177.984 E.01789
G1 X112.643 Y178.523 E.0179
G1 X112.965 Y178.995 E.01791
G1 X113.398 Y179.368 E.01792
G1 X113.912 Y179.616 E.01789
G1 X114.473 Y179.722 E.0179
G1 X115.043 Y179.68 E.01792
G1 X115.582 Y179.491 E.01791
G1 X116.054 Y179.169 E.01791
G1 X116.427 Y178.736 E.01792
G1 X116.576 Y178.459 E.00986
G1 X116.576 Y182.492 E.12645
G1 X98.705 Y182.492 E.56033
G1 X98.704 Y162.119 E.63878
G1 X106.874 Y170.288 E.36225
G1 X107.174 Y170.49 E.01134
G1 X107.56 Y170.564 E.01232
G1 X107.894 Y170.495 E.01069
G1 X108.207 Y170.288 E.01177
G1 X110.417 Y168.075 E.09806
G1 X110.597 Y167.775 E.01097
G1 X110.654 Y167.411 E.01155
G1 X110.596 Y167.123 E.00921
G1 X110.378 Y166.783 E.01266
G1 X98.705 Y155.11 E.5176
G1 X98.705 Y119.991 E1.10113
G1 X110.378 Y108.318 E.5176
G1 X110.483 Y108.194 E.00509
G1 X110.6 Y107.968 E.00798
G1 X110.655 Y107.661 E.00978
G1 X110.586 Y107.297 E.01162
G1 X110.378 Y106.984 E.01178
G1 X108.207 Y104.813 E.09627
G1 X107.875 Y104.598 E.0124
G1 X107.523 Y104.537 E.0112
G1 X107.145 Y104.624 E.01216
G1 X106.874 Y104.813 E.01036
G1 X98.704 Y112.982 E.36225
G1 X98.705 Y92.496 E.64232
G1 X116.576 Y92.496 E.56033
G1 X116.576 Y93.945 E.04543
G1 X116.576 Y96.616 E.08375
G1 X116.55 Y96.552 E.00217
G1 X116.228 Y96.08 E.01791
G1 X115.795 Y95.707 E.01792
G1 X115.281 Y95.459 E.01789
G1 X114.72 Y95.353 E.0179
G1 X114.11 Y95.402 E.01919
G1 X113.611 Y95.584 E.01665
G1 X113.139 Y95.906 E.01791
G1 X112.766 Y96.339 E.01792
G1 X112.518 Y96.853 E.01789
G1 X112.412 Y97.415 E.01793
G1 X112.455 Y97.984 E.01789
G1 X112.655 Y98.551 E.01885
G1 X112.965 Y98.995 E.01698
G1 X113.398 Y99.368 E.01792
G1 X113.912 Y99.616 E.01789
G1 X113.935 Y99.62 E.00073
;WIPE_START
G1 F7200
G1 X113.994 Y99.631 E-.01425
G1 X114.503 Y99.726 E-.12298
G1 X115.043 Y99.68 E-.12871
G1 X115.582 Y99.491 E-.13565
G1 X116.054 Y99.169 E-.1357
G1 X116.427 Y98.736 E-.13573
G1 X116.576 Y98.459 E-.0747
G1 X116.576 Y98.679 E-.05228
;WIPE_END
G1 X116.954 Y99.403 F9000
G1 E.8 F1800
G1 F1200
G1 X116.954 Y103.141 E.1172
;WIDTH:0.464389
G1 X116.931 Y103.328 E.0066
;WIDTH:0.508779
G1 X116.909 Y103.515 E.00729
;WIDTH:0.553169
G1 X116.887 Y103.703 E.00803
G1 X116.898 Y104.029 E.01384
;WIDTH:0.556067
G1 X116.886 Y104.619 E.02518
G1 X116.908 Y104.794 E.00753
;WIDTH:0.510711
G1 X116.931 Y104.969 E.00687
;WIDTH:0.465355
G1 X116.954 Y105.143 E.00617
;WIDTH:0.419999
G1 X116.954 Y169.701 E2.02417
;WIDTH:0.455752
G1 X116.936 Y170.279 E.01985
;WIDTH:0.479771
G1 X116.924 Y170.827 E.01991
;WIDTH:0.503887
G1 X116.912 Y171.402 E.02204
G1 X116.933 Y171.658 E.00985
;WIDTH:0.461943
G1 X116.954 Y171.914 E.00895
;WIDTH:0.419999
G1 X116.954 Y176.288 E.13714
;WIDTH:0.465341
G1 X116.931 Y176.873 E.02056
;WIDTH:0.505776
G1 X116.911 Y177.428 E.02137
;WIDTH:0.529977
G1 X116.899 Y178.01 E.02358
G1 X116.917 Y178.183 E.00704
;WIDTH:0.493318
G1 X116.935 Y178.356 E.00651
;WIDTH:0.456659
G1 X116.954 Y178.529 E.00599
;WIDTH:0.419999
G1 X116.954 Y182.869 E.13608
G1 X98.328 Y182.869 E.584
G1 X98.327 Y162 E.65433
G1 X98.299 Y161.141 E.02695
G1 X98.862 Y161.743 E.02584
G1 X106.503 Y169.385 E.33884
G1 X107.248 Y170.106 E.03251
G1 X107.475 Y170.184 E.00753
G1 X107.726 Y170.156 E.00792
G1 X107.94 Y170.022 E.00792
G1 X110.135 Y167.825 E.09737
G1 X110.263 Y167.576 E.00878
G1 X110.258 Y167.304 E.00853
G1 X110.112 Y167.05 E.00919
G1 X98.328 Y155.266 E.52252
G1 X98.328 Y119.835 E1.11091
G1 X110.112 Y108.051 E.52252
G1 X110.174 Y107.977 E.00303
G1 X110.262 Y107.782 E.00671
G1 X110.259 Y107.507 E.00862
G1 X110.112 Y107.251 E.00926
G1 X108.277 Y105.417 E.08134
G1 X107.858 Y105.012 E.01827
G1 X107.646 Y104.924 E.0072
G1 X107.384 Y104.936 E.00822
G1 X107.14 Y105.079 E.00887
G1 X98.895 Y113.325 E.36562
G1 X98.299 Y113.961 E.02733
G1 X98.327 Y113.09 E.02732
G1 X98.328 Y92.119 E.65753
G1 X116.954 Y92.119 E.584
G1 X116.954 Y93.945 E.05725
G1 X116.954 Y96.288 E.07346
;WIDTH:0.46534
G1 X116.931 Y96.873 E.02056
;WIDTH:0.505776
G1 X116.911 Y97.428 E.02137
;WIDTH:0.529977
G1 X116.899 Y98.01 E.02358
G1 X116.917 Y98.183 E.00704
;WIDTH:0.493318
G1 X116.935 Y98.356 E.00651
;WIDTH:0.456659
G1 X116.954 Y98.529 E.00599
;WIDTH:0.419999
G1 X116.954 Y99.343 E.02552
;WIPE_START
G1 F7200
G1 X116.954 Y99.403 E-.01425
G1 X116.954 Y102.711 E-.78575
;WIPE_END
G1 X109.845 Y107.518 F9000
G1 E.8 F1800
;TYPE:External perimeter
G1 F1200
G1 X107.673 Y105.346 E.09631
G1 X107.537 Y105.291 E.0046
G1 X107.407 Y105.346 E.00443
G1 X99.124 Y113.63 E.3673
G1 X98.483 Y114.316 E.02944
G1 X98.187 Y114.7 E.0152
G1 X97.864 Y115.011 E.01406
G1 X97.851 Y114.593 E.01311
G1 X97.917 Y114.082 E.01616
G1 X97.95 Y113.09 E.03112
G1 X97.951 Y91.742 E.66935
G1 X117.331 Y91.742 E.60765
G1 X117.331 Y93.945 E.06907
G1 X117.331 Y183.246 E2.79997
G1 X97.951 Y183.246 E.60765
G1 X97.95 Y162 E.66615
G1 X97.917 Y161.012 E.031
G1 X97.853 Y160.534 E.01512
G1 X97.864 Y160.09 E.01393
G1 X98.166 Y160.374 E.013
G1 X98.478 Y160.78 E.01605
G1 X99.128 Y161.476 E.02986
G1 X107.407 Y169.755 E.3671
G1 X107.518 Y169.809 E.00387
G1 X107.673 Y169.755 E.00515
G1 X109.845 Y167.583 E.09631
G1 X109.899 Y167.469 E.00396
G1 X109.845 Y167.317 E.00506
G1 X97.951 Y155.422 E.52742
G1 X97.951 Y119.679 E1.12069
G1 X109.845 Y107.784 E.52742
G1 X109.9 Y107.653 E.00445
G1 X109.868 Y107.573 E.0027
;WIPE_START
G1 F7200
G1 X109.845 Y107.518 E-.01416
G1 X107.673 Y105.346 E-.72952
G1 X107.537 Y105.291 E-.03484
G1 X107.454 Y105.326 E-.02148
;WIPE_END
G1 X114.067 Y99.259 F9000
G1 E.8 F1800
;TYPE:Perimeter
G1 F1200
G1 X114.005 Y99.246 E.00199
G1 X113.586 Y99.037 E.01468
G1 X113.235 Y98.727 E.01468
G1 X112.973 Y98.334 E.01481
G1 X112.828 Y97.935 E.01331
G1 X112.786 Y97.464 E.01483
G1 X112.867 Y96.998 E.01483
G1 X113.065 Y96.568 E.01484
G1 X113.368 Y96.205 E.01483
G1 X113.755 Y95.933 E.01483
G1 X114.199 Y95.769 E.01484
G1 X114.67 Y95.727 E.01483
G1 X115.136 Y95.808 E.01483
G1 X115.566 Y96.006 E.01484
G1 X115.929 Y96.309 E.01483
G1 X116.202 Y96.696 E.01485
;WIDTH:0.455721
G1 X116.274 Y96.842 E.00559
;WIDTH:0.491442
G1 X116.346 Y96.988 E.00607
;WIDTH:0.527163
G1 X116.418 Y97.133 E.00652
G1 X116.45 Y97.617 E.01953
;WIDTH:0.529977
G1 X116.415 Y97.968 E.01429
G1 X116.319 Y98.148 E.00826
;WIDTH:0.493318
G1 X116.224 Y98.327 E.00759
;WIDTH:0.456659
G1 X116.128 Y98.507 E.00702
;WIDTH:0.419999
G1 X115.825 Y98.87 E.01483
G1 X115.438 Y99.143 E.01485
G1 X114.942 Y99.313 E.01644
G1 X114.471 Y99.341 E.01479
G1 X114.126 Y99.271 E.01104
G1 X114.149 Y98.898 F9000
;TYPE:External perimeter
G1 F1200
G1 X113.816 Y98.738 E.01158
G1 X113.534 Y98.498 E.01161
G1 X113.321 Y98.19 E.01174
G1 X113.202 Y97.886 E.01024
G1 X113.168 Y97.453 E.01362
G1 X113.247 Y97.064 E.01245
G1 X113.364 Y96.798 E.00911
G1 X113.598 Y96.504 E.01178
G1 X113.899 Y96.281 E.01175
G1 X114.248 Y96.143 E.01177
G1 X114.621 Y96.101 E.01177
G1 X114.992 Y96.156 E.01176
G1 X115.336 Y96.305 E.01175
G1 X115.63 Y96.539 E.01178
G1 X115.853 Y96.84 E.01175
G1 X115.991 Y97.189 E.01177
G1 X116.033 Y97.562 E.01177
G1 X115.978 Y97.933 E.01176
G1 X115.829 Y98.277 E.01175
G1 X115.595 Y98.571 E.01178
G1 X115.294 Y98.794 E.01175
G1 X114.893 Y98.939 E.01337
G1 X114.52 Y98.968 E.01173
G1 X114.208 Y98.909 E.00996
;WIPE_START
G1 F7200
G1 X114.149 Y98.898 E-.01425
G1 X113.816 Y98.738 E-.08774
G1 X113.534 Y98.498 E-.08795
G1 X113.321 Y98.19 E-.08894
G1 X113.202 Y97.886 E-.07753
G1 X113.168 Y97.453 E-.10315
G1 X113.247 Y97.064 E-.09427
G1 X113.364 Y96.798 E-.06902
G1 X113.598 Y96.504 E-.08924
G1 X113.896 Y96.284 E-.08791
;WIPE_END
G1 X115.82 Y102.866 F9000
G1 E.8 F1800
;TYPE:Perimeter
G1 F1200
G1 X115.877 Y102.914 E.00234
G1 X116.15 Y103.3 E.01482
;WIDTH:0.464389
G1 X116.226 Y103.446 E.00577
;WIDTH:0.508779
G1 X116.303 Y103.591 E.00636
;WIDTH:0.553169
G1 X116.379 Y103.736 E.00695
G1 X116.411 Y104.223 E.02071
;WIDTH:0.556067
G1 X116.376 Y104.575 E.01509
G1 X116.276 Y104.754 E.00875
;WIDTH:0.510711
G1 X116.176 Y104.932 E.00794
;WIDTH:0.465355
G1 X116.076 Y105.111 E.0072
;WIDTH:0.419999
G1 X115.773 Y105.474 E.01483
G1 X115.386 Y105.747 E.01485
G1 X114.942 Y105.91 E.01483
G1 X114.471 Y105.953 E.01483
G1 X114.005 Y105.872 E.01483
G1 X113.575 Y105.673 E.01486
G1 X113.212 Y105.37 E.01483
G1 X112.94 Y104.983 E.01483
G1 X112.777 Y104.539 E.01483
G1 X112.733 Y104.205 E.01056
G1 X112.792 Y103.669 E.01691
G1 X113.002 Y103.188 E.01646
G1 X113.353 Y102.781 E.01685
G1 X113.755 Y102.515 E.01511
G1 X114.199 Y102.367 E.01467
G1 X114.67 Y102.338 E.0148
G1 X115.085 Y102.412 E.01322
G1 X115.514 Y102.611 E.01483
G1 X115.774 Y102.827 E.0106
G1 X115.939 Y103.794 F9000
;TYPE:External perimeter
G1 F1200
G1 X115.982 Y104.166 E.01174
G1 X115.926 Y104.538 E.0118
G1 X115.777 Y104.882 E.01175
G1 X115.543 Y105.175 E.01176
G1 X115.242 Y105.399 E.01176
G1 X114.893 Y105.536 E.01176
G1 X114.52 Y105.579 E.01177
G1 X114.149 Y105.523 E.01176
G1 X113.805 Y105.374 E.01175
G1 X113.511 Y105.14 E.01178
G1 X113.288 Y104.839 E.01175
G1 X113.15 Y104.49 E.01177
G1 X113.107 Y104.163 E.01034
G1 X113.18 Y103.706 E.01451
G1 X113.339 Y103.368 E.01171
G1 X113.583 Y103.08 E.01184
G1 X113.899 Y102.864 E.012
G1 X114.248 Y102.741 E.0116
G1 X114.621 Y102.712 E.01173
G1 X114.94 Y102.76 E.01011
G1 X115.284 Y102.91 E.01177
G1 X115.578 Y103.143 E.01176
G1 X115.801 Y103.445 E.01177
G1 X115.917 Y103.738 E.00988
;WIPE_START
G1 F7200
G1 X115.939 Y103.794 E-.01429
G1 X115.982 Y104.166 E-.08894
G1 X115.926 Y104.538 E-.08935
G1 X115.777 Y104.882 E-.08903
G1 X115.543 Y105.175 E-.08906
G1 X115.242 Y105.399 E-.08911
G1 X114.893 Y105.536 E-.08905
G1 X114.52 Y105.579 E-.08917
G1 X114.149 Y105.523 E-.08911
G1 X113.867 Y105.401 E-.07289
;WIPE_END
G1 X108.775 Y102.972 F9000
G1 E.8 F1800
;TYPE:Perimeter
G1 F1200
G1 X108.4 Y102.944 E.01179
G1 X107.86 Y102.756 E.01793
G1 X107.388 Y102.434 E.01791
G1 X107.054 Y102.051 E.01593
G1 X106.893 Y101.788 E.00967
G1 X106.71 Y101.289 E.01666
G1 X106.662 Y100.679 E.01919
G1 X106.704 Y100.356 E.01021
G1 X106.893 Y99.817 E.01791
G1 X107.214 Y99.345 E.0179
G1 X107.647 Y98.972 E.01792
G1 X108.162 Y98.724 E.01792
G1 X108.723 Y98.618 E.0179
G1 X109.287 Y98.66 E.01773
G1 X109.832 Y98.849 E.01809
G1 X110.304 Y99.171 E.01791
G1 X110.677 Y99.603 E.0179
G1 X110.925 Y100.118 E.01792
G1 X111.031 Y100.679 E.0179
G1 X110.988 Y101.249 E.01792
G1 X110.8 Y101.788 E.0179
G1 X110.478 Y102.26 E.01791
G1 X110.045 Y102.633 E.01792
G1 X109.531 Y102.881 E.01789
G1 X108.969 Y102.987 E.01793
G1 X108.835 Y102.977 E.00421
G1 X108.847 Y102.606 F9000
G1 F1200
G1 X108.772 Y102.613 E.00236
G1 X108.306 Y102.532 E.01483
G1 X107.877 Y102.333 E.01483
G1 X107.514 Y102.03 E.01483
G1 X107.241 Y101.644 E.01482
G1 X107.078 Y101.2 E.01483
G1 X107.035 Y100.728 E.01486
G1 X107.078 Y100.405 E.01022
G1 X107.241 Y99.961 E.01483
G1 X107.561 Y99.52 E.01708
G1 X108.005 Y99.197 E.01722
G1 X108.449 Y99.034 E.01483
G1 X108.92 Y98.992 E.01483
G1 X109.442 Y99.095 E.01668
G1 X109.857 Y99.303 E.01455
G1 X110.208 Y99.612 E.01466
G1 X110.47 Y100.005 E.01481
G1 X110.621 Y100.456 E.01491
G1 X110.651 Y100.922 E.01464
G1 X110.56 Y101.382 E.0147
G1 X110.351 Y101.806 E.01482
G1 X110.038 Y102.163 E.01489
G1 X109.657 Y102.42 E.01441
G1 X109.244 Y102.57 E.01378
G1 X108.907 Y102.601 E.01061
G1 X108.822 Y102.239 F9000
;TYPE:External perimeter
G1 F1200
G1 X108.451 Y102.184 E.01176
G1 X108.106 Y102.034 E.0118
G1 X107.813 Y101.801 E.01174
G1 X107.59 Y101.499 E.01177
G1 X107.452 Y101.15 E.01177
G1 X107.409 Y100.778 E.01174
G1 X107.452 Y100.454 E.01025
G1 X107.614 Y100.063 E.01327
G1 X107.848 Y99.769 E.01178
G1 X108.149 Y99.546 E.01175
G1 X108.498 Y99.408 E.01177
G1 X108.871 Y99.365 E.01177
