; generated by PrusaSlicer 2.7.1 on 2025-02-14 at 21:21:33 UTC


;
;

;
;
; 

; external perimeters extrusion width = 0.42mm
; perimeters extrusion width = 0.44mm
; infill extrusion width = 0.44mm
; solid infill extrusion width = 0.44mm
; top infill extrusion width = 0.40mm
; first layer extrusion width = 0.42mm



; Pre-Processed for Cancel-Object support by preprocess_cancellation v0.2.0
; 1 known objects
EXCLUDE_OBJECT_DEFINE NAME=sidewall_1_v3_stl_id_0_copy_0 CENTER=112.887,73.792 POLYGON=[[106.443,24.817],[106.443,122.897],[118.023,122.897],[118.023,24.817]]
M201 X500 Y500 Z100 E5000 ; sets maximum accelerations, mm/sec^2
M203 X500 Y500 Z10 E60 ; sets maximum feedrates, mm / sec
M204 S500 T1000 ; sets acceleration (S) and retract acceleration (R), mm/sec^2
M205 X8.00 Y8.00 Z0.40 E5.00 ; sets the jerk limits, mm/sec
M205 S0 T0 ; sets the minimum extruding and travel feed rate, mm/sec

; printing object sidewall 1 v3.stl id:0 copy 0
EXCLUDE_OBJECT_START NAME=sidewall_1_v3_stl_id_0_copy_0
; stop printing object sidewall 1 v3.stl id:0 copy 0
EXCLUDE_OBJECT_END NAME=sidewall_1_v3_stl_id_0_copy_0

;TYPE:Custom
G90 ; use absolute coordinates
M83 ; extruder relative mode
G28
M109 S0
M190 S0
start_print EXTRUDER_TEMP=210 BED_TEMP=60

M104 S150 ; set temporary nozzle temp to prevent oozing during homing
M140 S60 ; set final bed temp
G4 S30 ; allow partial nozzle warmup
G28 ; home all axis and restore leveling

G1 Z50 F240
G1 X2.0 Y10 F3000
M104 S210 ; set final nozzle temp
M190 S60 ; wait for bed temp to stabilize
M109 S210 ; wait for nozzle temp to stabilize
G1 Z0.28 F240
G92 E0
G1 X2.0 Y140 E10 F1500 ; prime the nozzle
G1 X2.3 Y140 F5000
G92 E0
G1 X2.3 Y10 E10 F1200 ; prime the nozzle
G92 E0
G21 ; set units to millimeters
G90 ; use absolute coordinates
M83 ; use relative distances for extrusion
; Filament gcode
M107
;LAYER_CHANGE
;Z:0.2
;HEIGHT:0.2
;BEFORE_LAYER_CHANGE
G92 E0
;0.2


G1 E-.8 F1800
G1 Z.2 F9000
;AFTER_LAYER_CHANGE
;0.2
G1 X102.856 Y24.607
G1 Z.2
G1 E.8 F1800
M204 S500
;TYPE:Skirt/Brim
;WIDTH:0.42
G1 F1200
G1 X103.25 Y23.024 E.05115
G1 X104.34 Y21.81 E.05116
G1 X106.233 Y21.23 E.06208
G1 X118.233 Y21.23 E.37625
G1 X119.816 Y21.624 E.05115
G1 X121.03 Y22.714 E.05116
G1 X121.61 Y24.607 E.06208
G1 X121.61 Y123.107 E3.0884
G1 X121.216 Y124.69 E.05115
G1 X120.125 Y125.904 E.05118
G1 X118.233 Y126.484 E.06205
G1 X106.233 Y126.484 E.37625
G1 X104.65 Y126.09 E.05115
G1 X103.436 Y125 E.05116
G1 X102.856 Y123.107 E.06208
G1 X102.856 Y24.667 E3.08652
; printing object sidewall 1 v3.stl id:0 copy 0
EXCLUDE_OBJECT_START NAME=sidewall_1_v3_stl_id_0_copy_0
;WIPE_START
G1 F7200
G1 X102.856 Y24.607 E-.01425
G1 X103.25 Y23.024 E-.38743
G1 X104.34 Y21.81 E-.38749
G1 X104.384 Y21.797 E-.01083
;WIPE_END
G1 X116.714 Y32.294 F9000
G1 E.8 F1800
;TYPE:Perimeter
;WIDTH:0.419999
G1 F1200
G1 X116.387 Y32.014 E.0135
G1 X115.873 Y31.766 E.01789
G1 X115.312 Y31.659 E.01791
G1 X114.69 Y31.71 E.01957
G1 X114.203 Y31.891 E.01629
G1 X113.731 Y32.212 E.0179
G1 X113.358 Y32.645 E.01792
G1 X113.11 Y33.16 E.01792
G1 X113.004 Y33.721 E.0179
G1 X113.047 Y34.291 E.01792
G1 X113.247 Y34.857 E.01882
G1 X113.557 Y35.302 E.017
G1 X113.99 Y35.674 E.0179
G1 X114.504 Y35.922 E.01789
G1 X115.095 Y36.032 E.01885
G1 X115.635 Y35.986 E.01699
G1 X116.174 Y35.797 E.01791
G1 X116.646 Y35.476 E.0179
G1 X117.019 Y35.043 E.01792
G1 X117.169 Y34.766 E.00988
G1 X117.169 Y39.652 E.1532
G1 X117.09 Y39.463 E.00642
G1 X116.769 Y38.991 E.0179
G1 X116.336 Y38.618 E.01792
G1 X115.821 Y38.37 E.01792
G1 X115.231 Y38.26 E.01882
G1 X114.69 Y38.306 E.01702
G1 X114.151 Y38.495 E.01791
G1 X113.679 Y38.817 E.01791
G1 X113.288 Y39.275 E.01888
G1 X113.059 Y39.764 E.01693
G1 X112.952 Y40.325 E.01791
G1 X112.995 Y40.895 E.01792
G1 X113.183 Y41.434 E.0179
G1 X113.505 Y41.906 E.01791
G1 X113.938 Y42.279 E.01792
G1 X114.453 Y42.527 E.01792
G1 X115.014 Y42.633 E.0179
G1 X115.583 Y42.59 E.01789
G1 X116.123 Y42.402 E.01793
G1 X116.595 Y42.08 E.01791
G1 X116.967 Y41.647 E.0179
G1 X117.169 Y41.245 E.01411
G1 X117.169 Y106.21 E2.03693
G1 X117.071 Y106.041 E.00613
G1 X116.698 Y105.608 E.01792
G1 X116.226 Y105.286 E.01791
G1 X115.687 Y105.098 E.0179
G1 X115.117 Y105.055 E.01792
G1 X114.556 Y105.161 E.0179
G1 X114.042 Y105.409 E.01789
G1 X113.609 Y105.782 E.01792
G1 X113.287 Y106.254 E.01791
G1 X113.098 Y106.793 E.01791
G1 X113.056 Y107.363 E.01792
G1 X113.162 Y107.924 E.0179
G1 X113.41 Y108.438 E.01789
G1 X113.783 Y108.871 E.01792
G1 X114.255 Y109.193 E.01791
G1 X114.794 Y109.382 E.01791
G1 X115.363 Y109.424 E.01789
G1 X115.925 Y109.318 E.01793
G1 X116.439 Y109.07 E.01789
G1 X116.872 Y108.697 E.01792
G1 X117.169 Y108.269 E.01633
G1 X117.169 Y112.922 E.14589
G1 X117.142 Y112.858 E.00218
G1 X116.82 Y112.386 E.01791
G1 X116.387 Y112.014 E.0179
G1 X115.873 Y111.766 E.01789
G1 X115.283 Y111.656 E.01882
G1 X114.742 Y111.702 E.01702
G1 X114.203 Y111.891 E.01791
G1 X113.731 Y112.212 E.0179
G1 X113.34 Y112.67 E.01888
G1 X113.11 Y113.16 E.01697
G1 X113.004 Y113.721 E.0179
G1 X113.047 Y114.291 E.01792
G1 X113.235 Y114.83 E.0179
G1 X113.557 Y115.302 E.01791
G1 X113.99 Y115.674 E.0179
G1 X114.504 Y115.922 E.01789
G1 X115.066 Y116.029 E.01794
G1 X115.635 Y115.986 E.01789
G1 X116.174 Y115.797 E.01791
G1 X116.646 Y115.476 E.0179
G1 X117.019 Y115.043 E.01792
G1 X117.169 Y114.766 E.00988
G1 X117.169 Y122.043 E.22816
G1 X107.297 Y122.043 E.30953
G1 X107.297 Y111.538 E.32938
;WIDTH:0.448894
G1 X107.311 Y111.267 E.00916
;WIDTH:0.477788
G1 X107.326 Y110.996 E.00981
G1 X107.4 Y111.194 E.00764
;WIDTH:0.446302
G1 X107.66 Y111.703 E.01917
;WIDTH:0.419999
G1 X108.032 Y112.136 E.0179
G1 X108.504 Y112.458 E.01791
G1 X109.044 Y112.646 E.01793
G1 X109.613 Y112.689 E.01789
G1 X110.174 Y112.583 E.0179
G1 X110.689 Y112.335 E.01792
G1 X111.122 Y111.962 E.01792
G1 X111.444 Y111.49 E.01791
G1 X111.632 Y110.951 E.0179
G1 X111.675 Y110.381 E.01792
G1 X111.568 Y109.82 E.01791
G1 X111.32 Y109.305 E.01792
G1 X110.948 Y108.873 E.01787
G1 X110.476 Y108.551 E.01791
G1 X109.937 Y108.362 E.01791
G1 X109.367 Y108.32 E.01792
G1 X108.806 Y108.426 E.0179
G1 X108.291 Y108.674 E.01792
G1 X107.858 Y109.047 E.01792
G1 X107.537 Y109.519 E.0179
;WIDTH:0.445729
G1 X107.43 Y109.787 E.00967
;WIDTH:0.471458
G1 X107.323 Y110.054 E.01025
G1 X107.31 Y109.763 E.01038
;WIDTH:0.445729
G1 X107.297 Y109.471 E.00979
;WIDTH:0.419999
G1 X107.297 Y93.304 E.5069
G1 X112.487 Y93.304 E.16273
G1 X112.792 Y93.253 E.0097
G1 X113.137 Y93.044 E.01265
G1 X113.287 Y92.859 E.00747
G1 X113.392 Y92.625 E.00804
G1 X113.429 Y92.361 E.00836
G1 X113.429 Y88.118 E.13304
G1 X113.392 Y87.854 E.00836
G1 X113.287 Y87.62 E.00804
G1 X113.137 Y87.436 E.00744
G1 X112.792 Y87.226 E.01266
G1 X112.487 Y87.175 E.0097
G1 X107.297 Y87.175 E.16273
G1 X107.297 Y60.512 E.836
G1 X112.409 Y60.512 E.16028
G1 X112.715 Y60.461 E.00973
G1 X113.059 Y60.252 E.01262
G1 X113.209 Y60.068 E.00744
G1 X113.314 Y59.834 E.00804
G1 X113.352 Y59.57 E.00836
G1 X113.352 Y55.327 E.13304
G1 X113.314 Y55.063 E.00836
G1 X113.209 Y54.829 E.00804
G1 X113.059 Y54.644 E.00747
G1 X112.715 Y54.435 E.01262
G1 X112.409 Y54.384 E.00973
G1 X107.297 Y54.384 E.16028
G1 X107.297 Y38.132 E.50957
;WIDTH:0.425606
G1 X107.3 Y37.596 E.01706
G1 X107.359 Y37.793 E.00654
;WIDTH:0.422633
G1 X107.608 Y38.307 E.01803
;WIDTH:0.419999
G1 X107.981 Y38.74 E.01792
G1 X108.453 Y39.062 E.01791
G1 X108.992 Y39.251 E.01791
G1 X109.561 Y39.293 E.01789
G1 X110.123 Y39.187 E.01793
G1 X110.637 Y38.939 E.01789
G1 X111.07 Y38.566 E.01792
G1 X111.392 Y38.094 E.01791
G1 X111.58 Y37.555 E.0179
G1 X111.623 Y36.986 E.01789
G1 X111.517 Y36.424 E.01793
G1 X111.269 Y35.91 E.01789
G1 X110.896 Y35.477 E.01792
G1 X110.424 Y35.155 E.01791
G1 X109.885 Y34.967 E.0179
G1 X109.315 Y34.924 E.01792
G1 X108.754 Y35.03 E.0179
G1 X108.239 Y35.278 E.01792
G1 X107.807 Y35.651 E.0179
G1 X107.485 Y36.123 E.01791
G1 X107.297 Y36.662 E.0179
G1 X107.297 Y25.671 E.34461
G1 X117.169 Y25.671 E.30953
G1 X117.169 Y28.717 E.09551
G1 X117.169 Y32.922 E.13184
G1 X117.142 Y32.858 E.00218
G1 X116.82 Y32.386 E.01791
G1 X116.759 Y32.333 E.00253
G1 X117.541 Y32.715 F9000
;WIDTH:0.465342
G1 F1200
G1 X117.523 Y33.179 E.01631
;WIDTH:0.505776
G1 X117.503 Y33.734 E.02137
;WIDTH:0.529977
G1 X117.491 Y34.317 E.02362
G1 X117.509 Y34.489 E.007
;WIDTH:0.493318
G1 X117.527 Y34.662 E.00651
;WIDTH:0.456659
G1 X117.546 Y34.835 E.00599
;WIDTH:0.419999
G1 X117.546 Y39.447 E.14461
;WIDTH:0.464389
G1 X117.523 Y39.634 E.0066
;WIDTH:0.508779
G1 X117.501 Y39.822 E.00733
;WIDTH:0.553169
G1 X117.479 Y40.009 E.00799
G1 X117.49 Y40.335 E.01384
;WIDTH:0.556068
G1 X117.478 Y40.926 E.02522
G1 X117.5 Y41.1 E.00748
;WIDTH:0.510712
G1 X117.523 Y41.275 E.00687
;WIDTH:0.465356
G1 X117.546 Y41.45 E.0062
;WIDTH:0.419999
G1 X117.546 Y106.008 E2.02417
;WIDTH:0.455751
G1 X117.528 Y106.585 E.01982
;WIDTH:0.479771
G1 X117.516 Y107.133 E.01991
;WIDTH:0.503887
G1 X117.504 Y107.708 E.02204
G1 X117.525 Y107.964 E.00985
;WIDTH:0.461943
G1 X117.546 Y108.22 E.00895
;WIDTH:0.419999
G1 X117.546 Y112.594 E.13714
;WIDTH:0.465343
G1 X117.523 Y113.179 E.02056
;WIDTH:0.505776
G1 X117.503 Y113.734 E.02137
;WIDTH:0.529977
G1 X117.491 Y114.317 E.02362
G1 X117.509 Y114.489 E.007
;WIDTH:0.493318
G1 X117.527 Y114.662 E.00651
;WIDTH:0.456659
G1 X117.546 Y114.835 E.00599
;WIDTH:0.419999
G1 X117.546 Y122.42 E.23782
G1 X106.92 Y122.42 E.33317
G1 X106.92 Y92.927 E.92473
G1 X112.487 Y92.927 E.17455
G1 X112.774 Y92.848 E.00933
G1 X112.967 Y92.66 E.00845
G1 X113.052 Y92.361 E.00975
G1 X113.052 Y88.118 E.13304
G1 X112.967 Y87.819 E.00975
G1 X112.774 Y87.631 E.00845
G1 X112.487 Y87.553 E.00933
G1 X106.92 Y87.553 E.17455
G1 X106.92 Y60.135 E.85967
G1 X112.409 Y60.135 E.1721
G1 X112.696 Y60.057 E.00933
G1 X112.889 Y59.869 E.00845
G1 X112.975 Y59.57 E.00976
G1 X112.975 Y55.327 E.13304
G1 X112.889 Y55.028 E.00976
G1 X112.696 Y54.839 E.00847
G1 X112.409 Y54.761 E.00933
G1 X106.92 Y54.761 E.1721
G1 X106.92 Y25.294 E.92392
G1 X117.546 Y25.294 E.33317
G1 X117.546 Y28.717 E.10733
G1 X117.546 Y32.594 E.12156
;WIDTH:0.465342
G1 X117.543 Y32.655 E.00215
;WIPE_START
G1 F7200
G1 X117.541 Y32.715 E-.01426
G1 X117.523 Y33.179 E-.11028
;WIPE_END
G1 E-.67546 F1800
G1 X117.923 Y24.917 F9000
G1 E.8 F1800
;TYPE:External perimeter
;WIDTH:0.419999
G1 F1200
G1 X117.923 Y28.717 E.11915
G1 X117.923 Y122.797 E2.94981
G1 X106.543 Y122.797 E.35681
G1 X106.543 Y92.55 E.94837
G1 X112.487 Y92.55 E.18637
G1 X112.617 Y92.498 E.00439
G1 X112.675 Y92.361 E.00466
G1 X112.675 Y88.118 E.13304
G1 X112.617 Y87.982 E.00464
G1 X112.487 Y87.93 E.00439
G1 X106.543 Y87.93 E.18637
G1 X106.543 Y59.758 E.88331
G1 X112.409 Y59.758 E.18392
G1 X112.539 Y59.706 E.00439
G1 X112.598 Y59.57 E.00465
G1 X112.598 Y55.327 E.13304
G1 X112.539 Y55.19 E.00468
G1 X112.409 Y55.138 E.00439
G1 X106.543 Y55.138 E.18392
G1 X106.543 Y24.917 E.94756
G1 X117.863 Y24.917 E.35493
;WIPE_START
G1 F7200
G1 X117.923 Y24.917 E-.01425
G1 X117.923 Y28.226 E-.78575
;WIPE_END
G1 X116.463 Y32.568 F9000
G1 E.8 F1800
;TYPE:Perimeter
G1 F1200
G1 X116.521 Y32.616 E.00236
G1 X116.794 Y33.003 E.01485
;WIDTH:0.455721
G1 X116.866 Y33.148 E.00556
;WIDTH:0.491443
G1 X116.938 Y33.294 E.00607
;WIDTH:0.527164
G1 X117.01 Y33.44 E.00655
G1 X117.042 Y33.923 E.01949
;WIDTH:0.529977
G1 X117.007 Y34.275 E.01433
G1 X116.911 Y34.454 E.00823
;WIDTH:0.493318
G1 X116.816 Y34.634 E.00762
;WIDTH:0.456659
G1 X116.72 Y34.813 E.00699
;WIDTH:0.419999
G1 X116.417 Y35.177 E.01485
G1 X116.03 Y35.449 E.01483
G1 X115.534 Y35.619 E.01644
G1 X115.063 Y35.648 E.0148
G1 X114.597 Y35.552 E.01492
G1 X114.275 Y35.413 E.011
G1 X113.856 Y35.072 E.01694
G1 X113.565 Y34.641 E.01631
G1 X113.414 Y34.19 E.01491
G1 X113.386 Y33.71 E.01508
G1 X113.471 Y33.274 E.01393
G1 X113.657 Y32.875 E.0138
G1 X113.96 Y32.511 E.01485
G1 X114.347 Y32.239 E.01483
G1 X114.791 Y32.076 E.01483
G1 X115.262 Y32.033 E.01483
G1 X115.729 Y32.114 E.01486
G1 X116.158 Y32.313 E.01483
G1 X116.417 Y32.529 E.01057
G1 X116.222 Y32.845 F9000
;TYPE:External perimeter
G1 F1200
G1 X116.445 Y33.147 E.01177
G1 X116.583 Y33.496 E.01177
G1 X116.625 Y33.869 E.01177
G1 X116.57 Y34.24 E.01176
G1 X116.421 Y34.584 E.01175
G1 X116.187 Y34.877 E.01176
G1 X115.886 Y35.101 E.01176
G1 X115.485 Y35.245 E.01336
G1 X115.112 Y35.274 E.01173
G1 X114.741 Y35.204 E.01184
G1 X114.467 Y35.089 E.00932
G1 X114.126 Y34.804 E.01393
G1 X113.913 Y34.497 E.01172
G1 X113.788 Y34.141 E.01183
G1 X113.76 Y33.76 E.01198
G1 X113.82 Y33.418 E.01089
G1 X113.957 Y33.104 E.01074
G1 X114.19 Y32.811 E.01174
G1 X114.491 Y32.587 E.01176
G1 X114.84 Y32.45 E.01176
G1 X115.213 Y32.407 E.01177
G1 X115.584 Y32.462 E.01176
G1 X115.928 Y32.612 E.01177
G1 X116.175 Y32.808 E.00989
;WIPE_START
G1 F7200
G1 X116.222 Y32.845 E-.01421
G1 X116.445 Y33.147 E-.08916
G1 X116.583 Y33.496 E-.08913
G1 X116.625 Y33.869 E-.08915
G1 X116.57 Y34.24 E-.08908
G1 X116.421 Y34.584 E-.08903
G1 X116.187 Y34.877 E-.08906
G1 X115.886 Y35.101 E-.08911
G1 X115.485 Y35.245 E-.10119
G1 X115.23 Y35.265 E-.06088
;WIPE_END
G1 X116.412 Y39.172 F9000
G1 E.8 F1800
;TYPE:Perimeter
G1 F1200
G1 X116.469 Y39.22 E.00234
G1 X116.742 Y39.607 E.01485
;WIDTH:0.464389
G1 X116.818 Y39.752 E.00574
;WIDTH:0.508779
G1 X116.895 Y39.897 E.00636
;WIDTH:0.553169
G1 X116.971 Y40.042 E.00695
G1 X117.003 Y40.529 E.02071
;WIDTH:0.556068
G1 X116.968 Y40.881 E.01509
G1 X116.868 Y41.06 E.00875
;WIDTH:0.510712
G1 X116.768 Y41.239 E.00798
;WIDTH:0.465356
G1 X116.668 Y41.418 E.0072
;WIDTH:0.419999
G1 X116.365 Y41.781 E.01483
G1 X115.978 Y42.053 E.01483
G1 X115.534 Y42.216 E.01483
G1 X115.063 Y42.259 E.01483
G1 X114.597 Y42.178 E.01483
G1 X114.168 Y41.979 E.01483
G1 X113.804 Y41.676 E.01485
G1 X113.532 Y41.29 E.01481
G1 X113.362 Y40.792 E.0165
G1 X113.332 Y40.328 E.01458
G1 X113.423 Y39.868 E.0147
G1 X113.632 Y39.445 E.01479
G1 X113.946 Y39.087 E.01493
G1 X114.347 Y38.822 E.01507
G1 X114.791 Y38.673 E.01468
G1 X115.262 Y38.644 E.0148
G1 X115.677 Y38.718 E.01322
G1 X116.106 Y38.917 E.01483
G1 X116.366 Y39.133 E.0106
G1 X116.17 Y39.45 F9000
;TYPE:External perimeter
G1 F1200
G1 X116.394 Y39.751 E.01176
G1 X116.531 Y40.1 E.01176
G1 X116.574 Y40.473 E.01177
G1 X116.518 Y40.844 E.01176
G1 X116.369 Y41.188 E.01175
G1 X116.135 Y41.482 E.01178
G1 X115.834 Y41.705 E.01175
G1 X115.485 Y41.843 E.01177
G1 X115.112 Y41.885 E.01177
G1 X114.741 Y41.83 E.01176
G1 X114.397 Y41.68 E.01177
G1 X114.103 Y41.447 E.01176
G1 X113.88 Y41.145 E.01177
G1 X113.735 Y40.743 E.0134
G1 X113.706 Y40.378 E.01148
G1 X113.772 Y40.013 E.01163
G1 X113.931 Y39.674 E.01174
G1 X114.175 Y39.387 E.01181
G1 X114.491 Y39.17 E.01202
G1 X114.84 Y39.047 E.0116
G1 X115.213 Y39.018 E.01173
G1 X115.532 Y39.067 E.01012
G1 X115.877 Y39.216 E.01178
G1 X116.123 Y39.412 E.00986
;WIPE_START
G1 F7200
G1 X116.17 Y39.45 E-.01435
G1 X116.394 Y39.751 E-.08911
G1 X116.531 Y40.1 E-.08905
G1 X116.574 Y40.473 E-.08917
G1 X116.518 Y40.844 E-.08911
G1 X116.369 Y41.188 E-.08903
G1 X116.135 Y41.482 E-.08924
G1 X115.834 Y41.705 E-.08897
G1 X115.485 Y41.843 E-.08913
G1 X115.18 Y41.877 E-.07284
;WIPE_END
G1 X110.972 Y38.053 F9000
G1 E.8 F1800
;TYPE:Perimeter
G1 F1200
G1 X110.943 Y38.112 E.00206
G1 X110.63 Y38.47 E.01491
G1 X110.23 Y38.734 E.01503
G1 X109.836 Y38.877 E.01314
G1 X109.364 Y38.919 E.01486
G1 X108.898 Y38.839 E.01482
G1 X108.469 Y38.64 E.01483
G1 X108.106 Y38.337 E.01483
G1 X107.833 Y37.95 E.01485
G1 X107.674 Y37.53 E.01408
G1 X107.628 Y37.035 E.01559
G1 X107.708 Y36.569 E.01482
G1 X107.907 Y36.139 E.01486
G1 X108.21 Y35.776 E.01483
G1 X108.597 Y35.504 E.01483
G1 X109.041 Y35.34 E.01484
G1 X109.512 Y35.298 E.01483
G1 X110.034 Y35.402 E.01669
G1 X110.449 Y35.609 E.01454
G1 X110.8 Y35.919 E.01468
G1 X111.062 Y36.312 E.01481
G1 X111.213 Y36.763 E.01491
G1 X111.243 Y37.229 E.01464
G1 X111.152 Y37.689 E.0147
G1 X110.999 Y37.999 E.01084
;WIPE_START
G1 F7200
G1 X110.972 Y38.053 E-.01434
G1 X110.943 Y38.112 E-.01561
G1 X110.63 Y38.47 E-.11294
G1 X110.23 Y38.734 E-.11383
G1 X109.836 Y38.877 E-.09955
G1 X109.364 Y38.919 E-.11254
G1 X108.898 Y38.839 E-.11229
G1 X108.469 Y38.64 E-.11232
G1 X108.124 Y38.352 E-.10658
;WIPE_END
G1 X108.741 Y35.852 F9000
G1 E.8 F1800
;TYPE:External perimeter
G1 F1200
