; generated by PrusaSlicer 2.7.1 on 2024-04-18 at 23:30:08 UTC


;
;

;
;
; 

; external perimeters extrusion width = 0.42mm
; perimeters extrusion width = 0.44mm
; infill extrusion width = 0.44mm
; solid infill extrusion width = 0.44mm
; top infill extrusion width = 0.40mm
; first layer extrusion width = 0.42mm



; Pre-Processed for Cancel-Object support by preprocess_cancellation v0.2.0
; 1 known objects
EXCLUDE_OBJECT_DEFINE NAME=Side_2_stl_id_0_copy_0 CENTER=109.926,110.131 POLYGON=[[79.713,66.963],[79.713,153.037],[140.287,153.037],[140.287,66.963]]
M201 X500 Y500 Z100 E5000 ; sets maximum accelerations, mm/sec^2
M203 X500 Y500 Z10 E60 ; sets maximum feedrates, mm / sec
M204 S500 T1000 ; sets acceleration (S) and retract acceleration (R), mm/sec^2
M205 X8.00 Y8.00 Z0.40 E5.00 ; sets the jerk limits, mm/sec
M205 S0 T0 ; sets the minimum extruding and travel feed rate, mm/sec

; printing object Side_2.stl id:0 copy 0
EXCLUDE_OBJECT_START NAME=Side_2_stl_id_0_copy_0
; stop printing object Side_2.stl id:0 copy 0
EXCLUDE_OBJECT_END NAME=Side_2_stl_id_0_copy_0

;TYPE:Custom
G90 ; use absolute coordinates
M83 ; extruder relative mode
G28
M109 S0
M190 S0
start_print EXTRUDER_TEMP=210 BED_TEMP=60

M104 S150 ; set temporary nozzle temp to prevent oozing during homing
M140 S60 ; set final bed temp
G4 S30 ; allow partial nozzle warmup
G28 ; home all axis and restore leveling

G1 Z50 F240
G1 X2.0 Y10 F3000
M104 S210 ; set final nozzle temp
M190 S60 ; wait for bed temp to stabilize
M109 S210 ; wait for nozzle temp to stabilize
G1 Z0.28 F240
G92 E0
G1 X2.0 Y140 E10 F1500 ; prime the nozzle
G1 X2.3 Y140 F5000
G92 E0
G1 X2.3 Y10 E10 F1200 ; prime the nozzle
G92 E0
G21 ; set units to millimeters
G90 ; use absolute coordinates
M83 ; use relative distances for extrusion
; Filament gcode
M107
;LAYER_CHANGE
;Z:0.1
;HEIGHT:0.1
;BEFORE_LAYER_CHANGE
G92 E0
;0.1


G1 E-.8 F1800
G1 Z.1 F9000
;AFTER_LAYER_CHANGE
;0.1
G1 X78.777 Y68.018
G1 Z.1
G1 E.8 F1800
M204 S500
;TYPE:Skirt/Brim
;WIDTH:0.42
G1 F1200
G1 X79.61 Y67.053 E.02112
G1 X80.374 Y66.34 E.01732
G1 X81.625 Y65.424 E.02569
G1 X82.792 Y64.784 E.02205
G1 X83.762 Y64.38 E.01741
G1 X85.276 Y63.954 E.02606
G1 X86.571 Y63.767 E.02168
G1 X132.621 Y63.728 E.76302
G1 X134.724 Y63.954 E.03505
G1 X135.701 Y64.203 E.01671
G1 X136.949 Y64.665 E.02205
G1 X138.561 Y65.543 E.03041
G1 X140.192 Y66.856 E.03469
G1 X141.397 Y68.242 E.03043
G1 X142.476 Y70.061 E.03504
G1 X143.104 Y71.741 E.02972
G1 X143.483 Y73.821 E.03503
G1 X143.524 Y145.25 E1.18353
G1 X143.428 Y146.692 E.02395
G1 X143.11 Y148.239 E.02617
G1 X142.585 Y149.699 E.02571
G1 X142.116 Y150.639 E.01741
G1 X141.264 Y151.935 E.0257
G1 X140.39 Y152.947 E.02216
G1 X139.626 Y153.66 E.01732
G1 X138.375 Y154.576 E.02569
G1 X136.988 Y155.318 E.02606
G1 X135.736 Y155.787 E.02215
G1 X134.724 Y156.046 E.01731
G1 X133.187 Y156.251 E.02569
G1 X87.379 Y156.272 E.75901
G1 X85.811 Y156.143 E.02607
G1 X84.525 Y155.864 E.0218
G1 X83.051 Y155.335 E.02595
G1 X82.13 Y154.876 E.01705
G1 X81.009 Y154.159 E.02205
G1 X79.808 Y153.144 E.02605
G1 X79.105 Y152.392 E.01706
G1 X78.174 Y151.125 E.02605
G1 X77.524 Y149.939 E.02241
G1 X76.96 Y148.478 E.02595
G1 X76.704 Y147.474 E.01717
G1 X76.499 Y145.937 E.02569
G1 X76.478 Y74.629 E1.18153
G1 X76.607 Y73.061 E.02607
G1 X76.89 Y71.761 E.02204
G1 X77.415 Y70.301 E.02571
G1 X77.884 Y69.361 E.01741
G1 X78.736 Y68.065 E.0257
; printing object Side_2.stl id:0 copy 0
EXCLUDE_OBJECT_START NAME=Side_2_stl_id_0_copy_0
;WIPE_START
G1 F7200
G1 X78.777 Y68.018 E-.01481
G1 X79.61 Y67.053 E-.30276
G1 X80.374 Y66.34 E-.24819
G1 X81.17 Y65.757 E-.23424
;WIPE_END
G1 X83.265 Y82.23 F9000
G1 E.8 F1800
;TYPE:Perimeter
;WIDTH:0.419999
G1 F1200
G1 X83.1 Y82.196 E.00279
G1 X82.378 Y82.206 E.01196
G1 X81.894 Y82.169 E.00804
G1 X81.575 Y81.999 E.00599
G1 X81.36 Y81.687 E.00628
G1 X81.301 Y81.373 E.00529
G1 X81.301 Y74.883 E.10753
G1 X81.311 Y74.477 E.00673
G1 X81.363 Y73.886 E.00983
G1 X81.504 Y73.236 E.01102
G1 X81.639 Y72.745 E.00844
G1 X81.861 Y72.175 E.01014
G1 X82.166 Y71.6 E.01078
G1 X82.441 Y71.175 E.00839
G1 X82.804 Y70.705 E.00984
G1 X83.455 Y70.054 E.01525
G1 X83.925 Y69.691 E.00984
G1 X84.35 Y69.416 E.00839
G1 X84.925 Y69.111 E.01078
G1 X85.548 Y68.871 E.01106
G1 X86.182 Y68.693 E.01091
G1 X86.84 Y68.591 E.01103
G1 X87.52 Y68.551 E.01129
G1 X132.462 Y68.551 E.74466
G1 X133.146 Y68.599 E.01136
G1 X133.651 Y68.663 E.00843
G1 X134.229 Y68.798 E.00983
G1 X135.091 Y69.12 E.01525
G1 X135.705 Y69.449 E.01154
G1 X136.2 Y69.778 E.00985
G1 X136.703 Y70.213 E.01102
G1 X137.069 Y70.566 E.00843
G1 X137.451 Y71.021 E.00984
G1 X137.948 Y71.795 E.01524
G1 X138.243 Y72.427 E.01156
G1 X138.442 Y72.987 E.00985
G1 X138.583 Y73.637 E.01102
G1 X138.665 Y74.139 E.00843
G1 X138.699 Y74.77 E.01047
G1 X138.693 Y81.397 E.1098
G1 X138.601 Y81.774 E.00643
G1 X138.438 Y81.98 E.00435
G1 X138.096 Y82.165 E.00644
G1 X137.611 Y82.205 E.00806
G1 X136.663 Y82.222 E.01571
G1 X136.362 Y82.346 E.00539
G1 X136.141 Y82.533 E.0048
G1 X135.951 Y82.852 E.00615
G1 X135.891 Y83.193 E.00574
G1 X135.891 Y136.799 E.88822
G1 X135.977 Y137.203 E.00684
G1 X136.199 Y137.52 E.00641
G1 X136.489 Y137.713 E.00577
G1 X136.901 Y137.796 E.00696
G1 X137.622 Y137.786 E.01195
G1 X138.105 Y137.822 E.00803
G1 X138.425 Y137.992 E.006
G1 X138.64 Y138.304 E.00628
G1 X138.699 Y138.643 E.0057
G1 X138.689 Y145.523 E.114
G1 X138.637 Y146.114 E.00983
G1 X138.496 Y146.764 E.01102
G1 X138.361 Y147.255 E.00844
G1 X138.139 Y147.825 E.01014
G1 X137.834 Y148.4 E.01078
G1 X137.559 Y148.825 E.00839
G1 X137.196 Y149.295 E.00984
G1 X136.545 Y149.946 E.01525
G1 X136.075 Y150.309 E.00984
G1 X135.65 Y150.584 E.00839
G1 X135.075 Y150.889 E.01078
G1 X134.452 Y151.129 E.01106
G1 X133.818 Y151.307 E.01091
G1 X133.16 Y151.409 E.01103
G1 X132.48 Y151.449 E.01129
G1 X87.633 Y151.449 E.74308
G1 X87.058 Y151.433 E.00953
G1 X86.4 Y151.346 E.011
G1 X85.754 Y151.198 E.01098
G1 X85.129 Y150.973 E.01101
G1 X84.529 Y150.69 E.01099
G1 X83.967 Y150.338 E.01099
G1 X83.441 Y149.935 E.01098
G1 X82.966 Y149.471 E.011
G1 X82.538 Y148.965 E.01098
G1 X82.172 Y148.411 E.011
G1 X81.862 Y147.825 E.01098
G1 X81.622 Y147.206 E.011
G1 X81.443 Y146.568 E.01098
G1 X81.341 Y145.912 E.011
G1 X81.301 Y145.23 E.01132
G1 X81.301 Y139.616 E.09302
G1 X81.331 Y138.395 E.02024
G1 X81.507 Y138.06 E.00627
G1 X81.819 Y137.845 E.00628
G1 X82.203 Y137.798 E.00641
G1 X83.346 Y137.767 E.01895
G1 X83.641 Y137.644 E.0053
G1 X83.859 Y137.459 E.00474
G1 X84.049 Y137.139 E.00617
G1 X84.109 Y136.799 E.00572
G1 X84.109 Y83.193 E.88822
G1 X84.023 Y82.789 E.00684
G1 X83.801 Y82.472 E.00641
G1 X83.511 Y82.279 E.00577
G1 X83.324 Y82.242 E.00316
G1 X83.188 Y82.612 F9000
G1 F1200
G1 X83.105 Y82.595 E.0014
G1 X82.311 Y82.605 E.01316
G1 X81.805 Y82.561 E.00842
G1 X81.545 Y82.463 E.0046
G1 X81.217 Y82.196 E.00701
G1 X80.984 Y81.829 E.0072
G1 X80.902 Y81.385 E.00748
G1 X80.902 Y74.883 E.10773
G1 X80.913 Y74.463 E.00696
G1 X80.969 Y73.822 E.01066
G1 X81.114 Y73.151 E.01137
G1 X81.319 Y72.444 E.0122
G1 X81.594 Y71.819 E.01131
G1 X81.841 Y71.367 E.00853
G1 X82.114 Y70.947 E.0083
G1 X82.507 Y70.438 E.01066
G1 X83.188 Y69.757 E.01596
G1 X83.697 Y69.364 E.01066
G1 X84.146 Y69.073 E.00887
G1 X84.759 Y68.749 E.01149
G1 X85.422 Y68.493 E.01178
G1 X86.098 Y68.303 E.01163
G1 X86.797 Y68.194 E.01172
G1 X87.513 Y68.152 E.01188
G1 X132.477 Y68.152 E.74502
G1 X133.174 Y68.202 E.01158
G1 X133.721 Y68.271 E.00914
G1 X134.348 Y68.417 E.01067
G1 X135.25 Y68.754 E.01595
G1 X135.909 Y69.106 E.01238
G1 X136.445 Y69.462 E.01066
G1 X136.964 Y69.912 E.01138
G1 X137.361 Y70.295 E.00914
G1 X137.775 Y70.788 E.01067
G1 X138.295 Y71.598 E.01595
G1 X138.611 Y72.274 E.01236
G1 X138.827 Y72.881 E.01068
G1 X138.973 Y73.552 E.01138
G1 X139.061 Y74.096 E.00913
G1 X139.098 Y74.763 E.01107
G1 X139.098 Y81.131 E.10551
G1 X139.059 Y81.692 E.00932
G1 X138.88 Y82.072 E.00696
G1 X138.59 Y82.377 E.00697
G1 X138.201 Y82.555 E.00709
G1 X137.606 Y82.604 E.00989
G1 X136.753 Y82.61 E.01413
G1 X136.516 Y82.724 E.00436
G1 X136.36 Y82.912 E.00405
G1 X136.29 Y83.193 E.0048
G1 X136.29 Y136.799 E.88822
G1 X136.304 Y136.931 E.0022
G1 X136.44 Y137.195 E.00492
G1 X136.648 Y137.347 E.00427
G1 X136.896 Y137.397 E.00419
G1 X137.689 Y137.386 E.01314
G1 X138.195 Y137.43 E.00842
G1 X138.454 Y137.528 E.00459
G1 X138.783 Y137.795 E.00702
G1 X139.016 Y138.162 E.0072
G1 X139.098 Y138.643 E.00808
G1 X139.087 Y145.537 E.11423
G1 X139.031 Y146.178 E.01066
G1 X138.886 Y146.849 E.01137
G1 X138.681 Y147.556 E.0122
G1 X138.406 Y148.181 E.01131
G1 X138.159 Y148.633 E.00853
G1 X137.886 Y149.053 E.0083
G1 X137.493 Y149.562 E.01066
G1 X136.812 Y150.243 E.01596
G1 X136.303 Y150.636 E.01066
G1 X135.854 Y150.927 E.00887
G1 X135.241 Y151.251 E.01149
G1 X134.578 Y151.507 E.01178
G1 X133.902 Y151.697 E.01163
G1 X133.203 Y151.806 E.01172
G1 X132.487 Y151.848 E.01188
G1 X87.633 Y151.848 E.7432
G1 X87.029 Y151.831 E.01001
G1 X86.329 Y151.739 E.0117
G1 X85.641 Y151.58 E.0117
G1 X84.977 Y151.341 E.01169
G1 X84.338 Y151.04 E.0117
G1 X83.74 Y150.666 E.01169
G1 X83.18 Y150.236 E.0117
G1 X82.674 Y149.743 E.01171
G1 X82.218 Y149.204 E.0117
G1 X81.83 Y148.614 E.0117
G1 X81.499 Y147.991 E.01169
G1 X81.244 Y147.332 E.01171
G1 X81.053 Y146.652 E.0117
G1 X80.945 Y145.955 E.01169
G1 X80.902 Y145.237 E.01192
G1 X80.902 Y138.703 E.10826
G1 X80.941 Y138.299 E.00673
G1 X81.125 Y137.912 E.0071
G1 X81.422 Y137.603 E.0071
G1 X81.816 Y137.435 E.0071
G1 X82.201 Y137.4 E.00641
G1 X83.253 Y137.38 E.01743
G1 X83.484 Y137.267 E.00426
G1 X83.64 Y137.08 E.00404
G1 X83.71 Y136.799 E.0048
G1 X83.71 Y83.193 E.88822
G1 X83.696 Y83.062 E.00218
G1 X83.56 Y82.797 E.00494
G1 X83.352 Y82.645 E.00427
G1 X83.246 Y82.623 E.00179
G1 X83.11 Y82.993 F9000
;TYPE:External perimeter
G1 F1200
G1 X82.296 Y83.004 E.01349
G1 X81.715 Y82.953 E.00966
G1 X81.359 Y82.818 E.00631
G1 X81.042 Y82.6 E.00637
G1 X80.788 Y82.312 E.00636
G1 X80.609 Y81.972 E.00637
G1 X80.504 Y81.397 E.00968
G1 X80.504 Y74.883 E.10793
G1 X80.514 Y74.449 E.00719
G1 X80.575 Y73.758 E.01149
G1 X80.788 Y72.775 E.01667
G1 X81.021 Y72.122 E.01149
G1 X81.253 Y71.609 E.00933
G1 X81.498 Y71.163 E.00843
G1 X81.786 Y70.72 E.00876
G1 X82.21 Y70.171 E.01149
G1 X82.921 Y69.46 E.01666
G1 X83.47 Y69.036 E.01149
G1 X83.913 Y68.748 E.00876
G1 X84.359 Y68.503 E.00843
G1 X84.817 Y68.293 E.00835
G1 X85.287 Y68.118 E.00831
G1 X85.767 Y67.976 E.00829
G1 X86.261 Y67.869 E.00838
G1 X87.001 Y67.772 E.01237
G1 X87.506 Y67.754 E.00837
G1 X132.491 Y67.754 E.74537
G1 X133.202 Y67.804 E.01181
G1 X133.792 Y67.878 E.00985
G1 X134.468 Y68.036 E.0115
G1 X135.41 Y68.388 E.01666
G1 X136.112 Y68.763 E.01319
G1 X136.69 Y69.147 E.0115
G1 X137.225 Y69.611 E.01173
G1 X137.652 Y70.023 E.00983
G1 X138.099 Y70.555 E.01151
G1 X138.642 Y71.4 E.01664
G1 X138.979 Y72.122 E.0132
G1 X139.212 Y72.776 E.0115
G1 X139.362 Y73.467 E.01172
G1 X139.478 Y74.251 E.01313
G1 X139.496 Y74.756 E.00837
G1 X139.496 Y81.289 E.10825
G1 X139.448 Y81.788 E.00831
G1 X139.312 Y82.147 E.00636
G1 X139.094 Y82.464 E.00637
G1 X138.81 Y82.715 E.00628
G1 X138.306 Y82.945 E.00918
G1 X137.703 Y83.004 E.01004
G1 X136.89 Y82.993 E.01347
G1 X136.75 Y83.049 E.0025
G1 X136.688 Y83.193 E.0026
G1 X136.688 Y136.799 E.88822
G1 X136.738 Y136.931 E.00234
G1 X136.89 Y136.999 E.00276
G1 X137.703 Y136.988 E.01347
G1 X138.284 Y137.038 E.00966
G1 X138.474 Y137.11 E.00337
G1 X138.787 Y137.273 E.00585
G1 X139.081 Y137.531 E.00648
G1 X139.3 Y137.846 E.00636
G1 X139.437 Y138.204 E.00635
G1 X139.496 Y138.643 E.00734
G1 X139.486 Y145.551 E.11446
G1 X139.425 Y146.242 E.01149
G1 X139.212 Y147.225 E.01667
G1 X138.979 Y147.878 E.01149
G1 X138.747 Y148.391 E.00933
G1 X138.502 Y148.837 E.00843
G1 X138.214 Y149.28 E.00876
G1 X137.79 Y149.829 E.01149
G1 X137.079 Y150.54 E.01666
G1 X136.53 Y150.964 E.01149
G1 X136.087 Y151.252 E.00876
G1 X135.641 Y151.497 E.00843
G1 X135.183 Y151.707 E.00835
G1 X134.713 Y151.882 E.00831
G1 X134.233 Y152.024 E.00829
G1 X133.739 Y152.131 E.00838
G1 X132.999 Y152.228 E.01237
G1 X132.494 Y152.246 E.00837
G1 X87.378 Y152.242 E.74754
G1 X86.753 Y152.202 E.01038
G1 X86.013 Y152.086 E.01241
G1 X85.292 Y151.884 E.01241
G1 X84.594 Y151.614 E.0124
G1 X83.932 Y151.263 E.01242
G1 X83.307 Y150.851 E.0124
G1 X82.736 Y150.367 E.0124
G1 X82.213 Y149.832 E.0124
G1 X81.757 Y149.238 E.01241
G1 X81.36 Y148.603 E.01241
G1 X81.04 Y147.926 E.01241
G1 X80.787 Y147.221 E.01241
G1 X80.619 Y146.491 E.01241
G1 X80.522 Y145.749 E.0124
G1 X80.504 Y145.244 E.00837
G1 X80.504 Y138.703 E.10838
G1 X80.552 Y138.203 E.00832
G1 X80.688 Y137.844 E.00636
G1 X80.906 Y137.528 E.00636
G1 X81.194 Y137.273 E.00637
G1 X81.534 Y137.094 E.00637
G1 X81.908 Y137.002 E.00638
G1 X83.113 Y136.998 E.01997
G1 X83.25 Y136.943 E.00245
G1 X83.312 Y136.799 E.0026
G1 X83.312 Y83.193 E.88822
G1 X83.262 Y83.061 E.00234
G1 X83.165 Y83.018 E.00176
;WIPE_START
G1 F7200
G1 X83.11 Y82.993 E-.01435
G1 X82.296 Y83.004 E-.19334
G1 X81.715 Y82.953 E-.13852
G1 X81.359 Y82.818 E-.09043
G1 X81.042 Y82.6 E-.09137
G1 X80.788 Y82.312 E-.0912
G1 X80.609 Y81.972 E-.09126
G1 X80.541 Y81.601 E-.08953
;WIPE_END
G1 X137.655 Y71.574 F9000
G1 E.8 F1800
;TYPE:Solid infill
;WIDTH:0.42083
G1 F1200
G1 X136.68 Y70.599 E.02289
G1 X136.013 Y70.021 E.01465
G1 X135.504 Y69.686 E.01012
G1 X134.886 Y69.371 E.01152
G1 X137.888 Y72.372 E.07048
G1 X138.02 Y72.691 E.00573
G1 X138.146 Y73.068 E.0066
G1 X138.181 Y73.23 E.00275
G1 X134.01 Y69.059 E.09794
G1 X133.752 Y68.993 E.00442
G1 X133.305 Y68.918 E.00753
G1 X138.336 Y73.95 E.11815
G1 X138.385 Y74.564 E.01023
G1 X132.696 Y68.875 E.13359
G1 X132.114 Y68.858 E.00967
G1 X138.392 Y75.136 E.14742
G1 X138.392 Y75.701 E.00938
G1 X131.549 Y68.858 E.16068
G1 X130.984 Y68.858 E.00938
G1 X138.392 Y76.266 E.17395
G1 X138.392 Y76.83 E.00936
G1 X130.42 Y68.858 E.18719
G1 X129.855 Y68.858 E.00938
G1 X138.392 Y77.395 E.20046
G1 X138.392 Y77.96 E.00938
G1 X129.29 Y68.858 E.21373
G1 X128.725 Y68.858 E.00938
G1 X138.392 Y78.525 E.22699
G1 X138.392 Y79.09 E.00938
G1 X128.16 Y68.858 E.24026
G1 X127.596 Y68.858 E.00936
G1 X138.392 Y79.654 E.25351
G1 X138.392 Y80.219 E.00938
G1 X127.031 Y68.858 E.26677
G1 X126.466 Y68.858 E.00938
G1 X138.392 Y80.784 E.28004
G1 X138.39 Y81.346 E.00933
G1 X125.901 Y68.858 E.29325
G1 X125.336 Y68.858 E.00938
G1 X138.232 Y81.753 E.3028
G1 X138.015 Y81.864 E.00405
G1 X137.8 Y81.885 E.00359
G1 X124.772 Y68.858 E.3059
G1 X124.207 Y68.858 E.00938
G1 X137.243 Y81.894 E.3061
G1 X136.897 Y81.89 E.00575
G1 X136.696 Y81.911 E.00336
G1 X123.642 Y68.858 E.30651
G1 X123.077 Y68.858 E.00938
G1 X136.269 Y82.049 E.30976
G1 X136.197 Y82.087 E.00135
G1 X135.95 Y82.295 E.00536
G1 X122.513 Y68.858 E.31552
G1 X121.948 Y68.858 E.00938
G1 X135.718 Y82.628 E.32334
G1 X135.615 Y82.906 E.00492
G1 X135.597 Y83.072 E.00277
G1 X121.383 Y68.858 E.33376
G1 X120.818 Y68.858 E.00938
G1 X135.584 Y83.624 E.34673
G1 X135.584 Y84.188 E.00936
G1 X120.253 Y68.858 E.35998
G1 X119.689 Y68.858 E.00936
G1 X135.584 Y84.753 E.37324
G1 X135.584 Y85.318 E.00938
G1 X119.124 Y68.858 E.3865
G1 X118.559 Y68.858 E.00938
G1 X135.584 Y85.883 E.39977
G1 X135.584 Y86.448 E.00938
G1 X117.994 Y68.858 E.41304
G1 X117.429 Y68.858 E.00938
G1 X135.584 Y87.012 E.42629
G1 X135.584 Y87.577 E.00938
G1 X116.865 Y68.858 E.43955
G1 X116.3 Y68.858 E.00938
G1 X135.584 Y88.142 E.45282
G1 X135.584 Y88.707 E.00938
G1 X115.735 Y68.858 E.46608
G1 X115.17 Y68.858 E.00938
G1 X135.584 Y89.272 E.47935
G1 X135.584 Y89.837 E.00938
G1 X114.605 Y68.858 E.49262
G1 X114.041 Y68.858 E.00936
G1 X135.584 Y90.401 E.50586
G1 X135.584 Y90.966 E.00938
G1 X113.476 Y68.858 E.51913
G1 X112.911 Y68.858 E.00938
G1 X135.584 Y91.531 E.53239
G1 X135.585 Y92.096 E.00938
G1 X112.346 Y68.858 E.54567
G1 X111.781 Y68.858 E.00938
G1 X135.585 Y92.661 E.55894
G1 X135.585 Y93.225 E.00936
G1 X111.217 Y68.858 E.57218
G1 X110.652 Y68.858 E.00938
G1 X135.585 Y93.79 E.58545
G1 X135.585 Y94.355 E.00938
G1 X110.087 Y68.858 E.59872
G1 X109.522 Y68.858 E.00938
G1 X135.585 Y94.92 E.61198
G1 X135.585 Y95.485 E.00938
G1 X108.957 Y68.858 E.62525
G1 X108.393 Y68.858 E.00936
G1 X135.585 Y96.049 E.6385
G1 X135.585 Y96.614 E.00938
G1 X107.828 Y68.858 E.65176
