; generated by PrusaSlicer 2.7.1 on 2025-02-15 at 03:21:30 UTC


;
;

;
;
; 

; external perimeters extrusion width = 0.42mm
; perimeters extrusion width = 0.44mm
; infill extrusion width = 0.44mm
; solid infill extrusion width = 0.44mm
; top infill extrusion width = 0.40mm
; first layer extrusion width = 0.42mm

; external perimeters extrusion width = 0.42mm
; perimeters extrusion width = 0.44mm
; infill extrusion width = 0.44mm
; solid infill extrusion width = 0.44mm
; top infill extrusion width = 0.40mm
; first layer extrusion width = 0.42mm



; Pre-Processed for Cancel-Object support by preprocess_cancellation v0.2.0
; 2 known objects
EXCLUDE_OBJECT_DEFINE NAME=sidewall_1_v4_stl_id_1_copy_0 CENTER=115.924,134.066 POLYGON=[[109.469,85.306],[109.469,183.386],[121.049,183.386],[121.049,85.306]]
EXCLUDE_OBJECT_DEFINE NAME=sidewall_1_v4_stl_id_0_copy_0 CENTER=99.188,134.349 POLYGON=[[93.936,85.314],[93.936,183.394],[105.516,183.394],[105.516,85.314]]
M201 X500 Y500 Z100 E5000 ; sets maximum accelerations, mm/sec^2
M203 X500 Y500 Z10 E60 ; sets maximum feedrates, mm / sec
M204 S500 T1000 ; sets acceleration (S) and retract acceleration (R), mm/sec^2
M205 X8.00 Y8.00 Z0.40 E5.00 ; sets the jerk limits, mm/sec
M205 S0 T0 ; sets the minimum extruding and travel feed rate, mm/sec

; printing object sidewall 1 v4.stl id:1 copy 0
EXCLUDE_OBJECT_START NAME=sidewall_1_v4_stl_id_1_copy_0
; stop printing object sidewall 1 v4.stl id:1 copy 0
EXCLUDE_OBJECT_END NAME=sidewall_1_v4_stl_id_1_copy_0
; printing object sidewall 1 v4.stl id:0 copy 0
EXCLUDE_OBJECT_START NAME=sidewall_1_v4_stl_id_0_copy_0
; stop printing object sidewall 1 v4.stl id:0 copy 0
EXCLUDE_OBJECT_END NAME=sidewall_1_v4_stl_id_0_copy_0

;TYPE:Custom
G90 ; use absolute coordinates
M83 ; extruder relative mode
G28
M109 S0
M190 S0
start_print EXTRUDER_TEMP=210 BED_TEMP=60

M104 S150 ; set temporary nozzle temp to prevent oozing during homing
M140 S60 ; set final bed temp
G4 S30 ; allow partial nozzle warmup
G28 ; home all axis and restore leveling

G1 Z50 F240
G1 X2.0 Y10 F3000
M104 S210 ; set final nozzle temp
M190 S60 ; wait for bed temp to stabilize
M109 S210 ; wait for nozzle temp to stabilize
G1 Z0.28 F240
G92 E0
G1 X2.0 Y140 E10 F1500 ; prime the nozzle
G1 X2.3 Y140 F5000
G92 E0
G1 X2.3 Y10 E10 F1200 ; prime the nozzle
G92 E0
G21 ; set units to millimeters
G90 ; use absolute coordinates
M83 ; use relative distances for extrusion
; Filament gcode
M107
;LAYER_CHANGE
;Z:0.2
;HEIGHT:0.2
;BEFORE_LAYER_CHANGE
G92 E0
;0.2


G1 E-.8 F1800
G1 Z.2 F9000
;AFTER_LAYER_CHANGE
;0.2
G1 X91.739 Y82.411
G1 Z.2
G1 E.8 F1800
M204 S500
;TYPE:Skirt/Brim
;WIDTH:0.42
G1 F1200
G1 X91.833 Y82.307 E.0044
G1 X93.724 Y81.727 E.06202
G1 X121.259 Y81.719 E.86334
G1 X122.842 Y82.113 E.05115
G1 X124.055 Y83.203 E.05113
G1 X124.636 Y85.096 E.06209
G1 X124.636 Y183.596 E3.0884
G1 X124.242 Y185.179 E.05115
G1 X123.151 Y186.393 E.05118
G1 X121.26 Y186.973 E.06202
G1 X93.726 Y186.981 E.86331
G1 X92.142 Y186.587 E.05118
G1 X90.929 Y185.496 E.05115
G1 X90.349 Y183.604 E.06205
G1 X90.349 Y85.104 E3.0884
G1 X90.743 Y83.521 E.05115
G1 X91.699 Y82.456 E.04487
; printing object sidewall 1 v4.stl id:0 copy 0
EXCLUDE_OBJECT_START NAME=sidewall_1_v4_stl_id_0_copy_0
;WIPE_START
G1 F7200
G1 X91.739 Y82.411 E-.0143
G1 X91.833 Y82.307 E-.03329
G1 X93.724 Y81.727 E-.46976
G1 X94.914 Y81.727 E-.28265
;WIPE_END
G1 X100.42 Y170.538 F9000
G1 E.8 F1800
;TYPE:Perimeter
;WIDTH:0.419999
G1 F1200
G1 X100.336 Y170.963 E.01358
G1 X100.375 Y171.533 E.01791
G1 X100.446 Y171.795 E.00851
G1 X100.682 Y172.289 E.01717
G1 X101.052 Y172.725 E.01793
G1 X101.523 Y173.049 E.01792
G1 X102.058 Y173.241 E.01782
G1 X102.627 Y173.288 E.0179
G1 X103.189 Y173.185 E.01791
G1 X103.706 Y172.941 E.01792
G1 X104.141 Y172.572 E.01789
G1 X104.466 Y172.102 E.01792
;WIDTH:0.427782
G1 X104.658 Y171.598 E.01726
G1 X104.661 Y172.141 E.01738
;WIDTH:0.419999
G1 X104.661 Y182.54 E.32605
G1 X94.79 Y182.54 E.3095
G1 X94.79 Y175.291 E.22729
G1 X95.126 Y175.812 E.01944
G1 X95.556 Y176.188 E.01791
G1 X96.069 Y176.44 E.01792
G1 X96.63 Y176.55 E.01792
G1 X97.261 Y176.503 E.01984
G1 X97.74 Y176.328 E.01599
G1 X98.215 Y176.01 E.01792
G1 X98.591 Y175.58 E.01791
G1 X98.844 Y175.065 E.01799
G1 X98.953 Y174.506 E.01786
G1 X98.915 Y173.936 E.01791
G1 X98.714 Y173.358 E.01919
G1 X98.42 Y172.931 E.01625
G1 X97.982 Y172.545 E.01831
G1 X97.47 Y172.294 E.01788
G1 X96.869 Y172.178 E.01919
G1 X96.363 Y172.218 E.01591
G1 X95.815 Y172.399 E.0181
G1 X95.325 Y172.724 E.01844
G1 X94.949 Y173.154 E.01791
G1 X94.79 Y173.446 E.01042
G1 X94.79 Y168.558 E.15326
G1 X94.86 Y168.733 E.00591
G1 X95.178 Y169.207 E.0179
G1 X95.608 Y169.583 E.01791
G1 X96.158 Y169.845 E.0191
G1 X96.721 Y169.951 E.01796
G1 X97.248 Y169.908 E.01658
G1 X97.804 Y169.716 E.01844
G1 X98.274 Y169.398 E.01779
G1 X98.669 Y168.94 E.01896
G1 X98.896 Y168.46 E.01665
G1 X99.005 Y167.9 E.01789
G1 X98.967 Y167.33 E.01791
G1 X98.783 Y166.792 E.01783
G1 X98.465 Y166.318 E.0179
G1 X98.035 Y165.942 E.01791
G1 X97.522 Y165.69 E.01792
G1 X96.962 Y165.579 E.0179
G1 X96.392 Y165.617 E.01791
G1 X95.851 Y165.801 E.01792
G1 X95.377 Y166.119 E.0179
G1 X95.001 Y166.549 E.01791
G1 X94.79 Y166.965 E.01463
G1 X94.79 Y102 E2.03693
G1 X95.075 Y102.416 E.01581
G1 X95.505 Y102.792 E.01791
G1 X96.017 Y103.044 E.01789
G1 X96.578 Y103.155 E.01793
G1 X97.148 Y103.117 E.01791
G1 X97.718 Y102.92 E.01891
G1 X98.163 Y102.614 E.01693
G1 X98.539 Y102.184 E.01791
G1 X98.791 Y101.671 E.01792
G1 X98.902 Y101.11 E.01793
G1 X98.863 Y100.54 E.01791
G1 X98.663 Y99.962 E.01918
G1 X98.375 Y99.545 E.01589
G1 X98.164 Y99.338 E.00927
G1 X97.719 Y99.025 E.01706
G1 X97.172 Y98.831 E.0182
G1 X96.611 Y98.786 E.01765
G1 X96.089 Y98.878 E.01662
G1 X95.533 Y99.131 E.01915
G1 X95.098 Y99.501 E.01791
G1 X94.79 Y99.94 E.01681
G1 X94.79 Y95.291 E.14577
G1 X95.126 Y95.811 E.01941
G1 X95.557 Y96.188 E.01795
G1 X96.106 Y96.449 E.01906
G1 X96.669 Y96.555 E.01796
G1 X97.196 Y96.513 E.01658
G1 X97.752 Y96.32 E.01845
G1 X98.222 Y96.002 E.01779
G1 X98.617 Y95.544 E.01896
G1 X98.844 Y95.064 E.01665
G1 X98.954 Y94.504 E.01789
G1 X98.915 Y93.934 E.01791
G1 X98.731 Y93.396 E.01783
G1 X98.413 Y92.922 E.0179
G1 X97.983 Y92.546 E.01791
G1 X97.47 Y92.294 E.01792
G1 X96.91 Y92.183 E.0179
G1 X96.34 Y92.221 E.01791
G1 X95.799 Y92.406 E.01793
G1 X95.325 Y92.723 E.01788
G1 X94.949 Y93.153 E.01791
G1 X94.79 Y93.447 E.01048
G1 X94.79 Y86.168 E.22823
G1 X104.661 Y86.168 E.3095
G1 X104.661 Y96.689 E.32988
;WIDTH:0.468036
G1 X104.637 Y97.272 E.02063
G1 X104.429 Y96.735 E.02036
;WIDTH:0.419999
G1 X104.111 Y96.26 E.01792
G1 X103.68 Y95.885 E.01791
G1 X103.168 Y95.633 E.01789
G1 X102.607 Y95.523 E.01792
G1 X102.033 Y95.562 E.01804
G1 X101.494 Y95.747 E.01787
G1 X101.02 Y96.066 E.01791
G1 X100.621 Y96.528 E.01914
G1 X100.395 Y97.007 E.01661
G1 X100.285 Y97.567 E.01789
G1 X100.323 Y98.137 E.01791
G1 X100.394 Y98.399 E.00851
G1 X100.631 Y98.894 E.01721
G1 X101.001 Y99.329 E.01791
G1 X101.471 Y99.654 E.01792
G1 X102.024 Y99.848 E.01837
G1 X102.576 Y99.892 E.01736
G1 X103.138 Y99.79 E.01791
G1 X103.654 Y99.545 E.01791
G1 X104.09 Y99.176 E.01791
G1 X104.415 Y98.706 E.01792
;WIDTH:0.449982
G1 X104.523 Y98.456 E.00922
;WIDTH:0.479964
G1 X104.631 Y98.207 E.00986
G1 X104.646 Y98.481 E.00997
;WIDTH:0.449982
G1 X104.661 Y98.756 E.00932
;WIDTH:0.419999
G1 X104.661 Y114.907 E.5064
G1 X99.472 Y114.907 E.1627
G1 X99.166 Y114.958 E.00973
G1 X98.821 Y115.167 E.01265
G1 X98.671 Y115.352 E.00747
G1 X98.567 Y115.586 E.00803
G1 X98.529 Y115.85 E.00836
G1 X98.529 Y120.092 E.133
G1 X98.543 Y120.255 E.00513
G1 X98.671 Y120.59 E.01124
G1 X98.821 Y120.775 E.00747
G1 X99.166 Y120.984 E.01265
G1 X99.472 Y121.035 E.00973
G1 X104.661 Y121.035 E.1627
G1 X104.661 Y147.698 E.836
G1 X99.549 Y147.698 E.16028
G1 X99.244 Y147.749 E.0097
G1 X98.899 Y147.958 E.01265
G1 X98.749 Y148.143 E.00747
G1 X98.644 Y148.377 E.00804
G1 X98.607 Y148.641 E.00836
G1 X98.607 Y152.884 E.13304
G1 X98.621 Y153.047 E.00513
G1 X98.749 Y153.382 E.01124
G1 X98.899 Y153.567 E.00747
G1 X99.244 Y153.776 E.01265
G1 X99.549 Y153.827 E.0097
G1 X104.661 Y153.827 E.16028
G1 X104.661 Y158.762 E.15473
G1 X104.663 Y170.671 E.3734
G1 X104.481 Y170.13 E.0179
G1 X104.162 Y169.656 E.01791
G1 X103.732 Y169.28 E.01791
G1 X103.219 Y169.029 E.01791
G1 X102.659 Y168.918 E.0179
G1 X102.079 Y168.958 E.01823
G1 X101.546 Y169.143 E.01769
G1 X101.072 Y169.462 E.01791
G1 X100.673 Y169.924 E.01914
G1 X100.447 Y170.403 E.01661
G1 X100.432 Y170.479 E.00243
;WIPE_START
G1 F7200
G1 X100.42 Y170.538 E-.0143
G1 X100.336 Y170.963 E-.10289
G1 X100.375 Y171.533 E-.13569
G1 X100.446 Y171.795 E-.06447
G1 X100.682 Y172.289 E-.13003
G1 X101.052 Y172.725 E-.13581
G1 X101.523 Y173.049 E-.13577
G1 X101.844 Y173.164 E-.08104
;WIPE_END
G1 X99.463 Y153.426 F9000
G1 E.8 F1800
G1 F1200
G1 X99.549 Y153.449 E.00279
G1 X105.039 Y153.449 E.17213
G1 X105.039 Y158.762 E.16659
G1 X105.039 Y182.917 E.75736
G1 X94.413 Y182.917 E.33317
G1 X94.413 Y175.598 E.22948
;WIDTH:0.448998
G1 X94.427 Y175.306 E.00987
;WIDTH:0.477997
G1 X94.442 Y175.015 E.01054
;WIDTH:0.505284
G1 X94.455 Y174.46 E.02134
;WIDTH:0.528823
G1 X94.467 Y173.914 E.02207
G1 X94.449 Y173.729 E.00751
;WIDTH:0.492549
G1 X94.431 Y173.544 E.00695
;WIDTH:0.456274
G1 X94.413 Y173.359 E.00639
;WIDTH:0.419999
G1 X94.413 Y168.746 E.14464
;WIDTH:0.464933
G1 X94.435 Y168.574 E.00608
;WIDTH:0.509867
G1 X94.458 Y168.402 E.00674
;WIDTH:0.5548
G1 X94.48 Y168.23 E.00738
G1 X94.468 Y167.859 E.0158
;WIDTH:0.554952
G1 X94.48 Y167.306 E.02355
G1 X94.458 Y167.119 E.00802
;WIDTH:0.509968
G1 X94.435 Y166.931 E.00736
;WIDTH:0.464984
G1 X94.413 Y166.744 E.00661
;WIDTH:0.419999
G1 X94.413 Y102.185 E2.0242
;WIDTH:0.465228
G1 X94.435 Y101.609 E.02024
;WIDTH:0.479292
G1 X94.442 Y101.061 E.01989
;WIDTH:0.502804
G1 X94.454 Y100.522 E.02062
G1 X94.433 Y100.248 E.01051
;WIDTH:0.461402
G1 X94.413 Y99.974 E.00956
;WIDTH:0.419999
G1 X94.413 Y95.598 E.13721
;WIDTH:0.449028
G1 X94.427 Y95.306 E.00987
;WIDTH:0.478057
G1 X94.442 Y95.014 E.01058
;WIDTH:0.505379
G1 X94.455 Y94.46 E.02131
;WIDTH:0.528932
G1 X94.467 Y93.914 E.02207
G1 X94.449 Y93.729 E.00751
;WIDTH:0.492621
G1 X94.431 Y93.544 E.00695
;WIDTH:0.45631
G1 X94.413 Y93.359 E.00639
;WIDTH:0.419999
G1 X94.413 Y85.791 E.23729
G1 X105.039 Y85.791 E.33317
G1 X105.039 Y115.284 E.92473
G1 X99.472 Y115.284 E.17455
G1 X99.184 Y115.362 E.00936
G1 X98.991 Y115.551 E.00847
G1 X98.906 Y115.85 E.00975
G1 X98.906 Y120.092 E.133
G1 X98.991 Y120.391 E.00975
G1 X99.184 Y120.58 E.00847
G1 X99.472 Y120.658 E.00936
G1 X105.039 Y120.658 E.17455
G1 X105.039 Y148.075 E.85964
G1 X99.549 Y148.075 E.17213
G1 X99.262 Y148.154 E.00933
G1 X99.069 Y148.342 E.00845
G1 X98.984 Y148.641 E.00975
G1 X98.984 Y152.884 E.13304
G1 X99.069 Y153.183 E.00975
G1 X99.262 Y153.371 E.00845
G1 X99.406 Y153.41 E.00468
G1 X99.361 Y152.884 F9000
;TYPE:External perimeter
G1 F1200
G1 X99.419 Y153.02 E.00464
G1 X99.549 Y153.072 E.00439
G1 X105.416 Y153.072 E.18396
G1 X105.416 Y158.762 E.17841
G1 X105.416 Y183.294 E.76918
G1 X94.036 Y183.294 E.35681
G1 X94.036 Y85.414 E3.06895
G1 X105.416 Y85.414 E.35681
G1 X105.416 Y115.661 E.94837
G1 X99.472 Y115.661 E.18637
G1 X99.342 Y115.713 E.00439
G1 X99.283 Y115.85 E.00468
G1 X99.283 Y120.092 E.133
G1 X99.342 Y120.229 E.00468
G1 X99.472 Y120.281 E.00439
G1 X105.416 Y120.281 E.18637
G1 X105.416 Y148.452 E.88328
G1 X99.549 Y148.452 E.18396
G1 X99.419 Y148.504 E.00439
G1 X99.361 Y148.641 E.00466
G1 X99.361 Y152.824 E.13115
;WIPE_START
G1 F7200
G1 X99.361 Y152.884 E-.01425
G1 X99.419 Y153.02 E-.03511
G1 X99.549 Y153.072 E-.03325
G1 X102.569 Y153.072 E-.71739
;WIPE_END
G1 X100.782 Y170.62 F9000
G1 E.8 F1800
;TYPE:Perimeter
G1 F1200
G1 X100.795 Y170.547 E.00232
G1 X100.996 Y170.122 E.01474
G1 X101.302 Y169.76 E.01486
G1 X101.628 Y169.521 E.01267
G1 X102.13 Y169.332 E.01682
G1 X102.607 Y169.292 E.01501
G1 X103.073 Y169.376 E.01485
G1 X103.501 Y169.578 E.01484
G1 X103.862 Y169.883 E.01482
G1 X104.131 Y170.272 E.01483
G1 X104.291 Y170.717 E.01483
G1 X104.33 Y171.189 E.01485
G1 X104.246 Y171.655 E.01485
G1 X104.044 Y172.082 E.01481
G1 X103.739 Y172.444 E.01484
G1 X103.35 Y172.713 E.01483
G1 X102.905 Y172.873 E.01483
G1 X102.433 Y172.912 E.01485
G1 X101.968 Y172.828 E.01482
G1 X101.54 Y172.626 E.01484
G1 X101.179 Y172.321 E.01482
G1 X100.909 Y171.932 E.01485
G1 X100.749 Y171.487 E.01483
G1 X100.712 Y171 E.01531
G1 X100.771 Y170.679 E.01023
G1 X101.143 Y170.694 F9000
;TYPE:External perimeter
G1 F1200
G1 X101.293 Y170.353 E.01168
G1 X101.529 Y170.061 E.01177
G1 X101.811 Y169.85 E.01104
G1 X102.182 Y169.705 E.01249
G1 X102.555 Y169.665 E.01176
G1 X102.926 Y169.723 E.01177
G1 X103.269 Y169.875 E.01176
G1 X103.561 Y170.111 E.01177
G1 X103.782 Y170.414 E.01176
G1 X103.917 Y170.764 E.01176
G1 X103.957 Y171.137 E.01176
G1 X103.899 Y171.508 E.01177
G1 X103.747 Y171.851 E.01176
G1 X103.511 Y172.143 E.01177
G1 X103.208 Y172.364 E.01176
G1 X102.858 Y172.499 E.01176
G1 X102.485 Y172.539 E.01176
G1 X102.114 Y172.481 E.01177
G1 X101.771 Y172.329 E.01176
G1 X101.479 Y172.093 E.01177
G1 X101.258 Y171.79 E.01176
G1 X101.123 Y171.44 E.01176
G1 X101.086 Y171.051 E.01225
G1 X101.133 Y170.753 E.00946
;WIPE_START
G1 F7200
G1 X101.143 Y170.694 E-.01421
G1 X101.293 Y170.353 E-.08848
G1 X101.529 Y170.061 E-.08917
G1 X101.811 Y169.85 E-.08365
G1 X102.182 Y169.705 E-.0946
G1 X102.555 Y169.665 E-.0891
G1 X102.926 Y169.723 E-.08918
G1 X103.269 Y169.875 E-.0891
G1 X103.561 Y170.111 E-.08917
G1 X103.743 Y170.36 E-.07334
;WIPE_END
G1 X104.663 Y170.671 F9000
G1 E.8 F1800
;TYPE:Perimeter
;WIDTH:0.41605
G1 F1200
G1 X104.683 Y171.238 E.0176
;WIDTH:0.402584
G1 X104.67 Y171.418 E.0054
;WIDTH:0.427782
G1 X104.658 Y171.598 E.00577
;WIPE_START
G1 F7200
G1 X104.67 Y171.418 E-.04284
;WIPE_END
G1 E-.75716 F1800
G1 X98.036 Y175.652 F9000
G1 E.8 F1800
;WIDTH:0.419999
G1 F1200
G1 X97.987 Y175.709 E.00236
G1 X97.599 Y175.978 E.0148
G1 X97.153 Y176.138 E.01486
G1 X96.682 Y176.177 E.01482
G1 X96.216 Y176.093 E.01485
G1 X95.788 Y175.89 E.01485
G1 X95.427 Y175.585 E.01482
G1 X95.158 Y175.196 E.01483
;WIDTH:0.455129
G1 X95.087 Y175.049 E.0056
;WIDTH:0.490258
G1 X95.017 Y174.903 E.00602
;WIDTH:0.525387
G1 X94.946 Y174.757 E.00651
G1 X94.917 Y174.273 E.01945
;WIDTH:0.528823
G1 X94.951 Y173.948 E.0132
G1 X95.049 Y173.76 E.00857
;WIDTH:0.492549
G1 X95.148 Y173.573 E.00791
;WIDTH:0.456274
G1 X95.246 Y173.385 E.00729
;WIDTH:0.419999
G1 X95.552 Y173.025 E.01481
G1 X95.95 Y172.751 E.01515
G1 X96.409 Y172.593 E.01522
G1 X96.858 Y172.557 E.01412
G1 X97.324 Y172.642 E.01485
G1 X97.759 Y172.849 E.0151
G1 X98.126 Y173.167 E.01523
G1 X98.381 Y173.538 E.01412
G1 X98.541 Y173.983 E.01483
G1 X98.58 Y174.455 E.01485
G1 X98.496 Y174.919 E.01478
G1 X98.293 Y175.348 E.01488
G1 X98.075 Y175.606 E.01059
G1 X97.457 Y175.629 F9000
;TYPE:External perimeter
G1 F1200
G1 X97.107 Y175.764 E.01176
G1 X96.734 Y175.804 E.01176
G1 X96.363 Y175.745 E.01178
G1 X96.02 Y175.593 E.01176
G1 X95.728 Y175.357 E.01177
G1 X95.507 Y175.054 E.01176
G1 X95.373 Y174.704 E.01175
G1 X95.333 Y174.331 E.01176
G1 X95.391 Y173.96 E.01177
G1 X95.543 Y173.617 E.01176
G1 X95.779 Y173.325 E.01177
G1 X96.086 Y173.103 E.01188
G1 X96.456 Y172.967 E.01236
G1 X96.806 Y172.93 E.01104
G1 X97.177 Y172.989 E.01178
G1 X97.522 Y173.143 E.01185
G1 X97.825 Y173.395 E.01236
G1 X98.032 Y173.68 E.01104
G1 X98.167 Y174.03 E.01176
G1 X98.206 Y174.403 E.01176
G1 X98.148 Y174.773 E.01174
G1 X97.996 Y175.116 E.01176
G1 X97.76 Y175.408 E.01177
G1 X97.506 Y175.594 E.00987
;WIPE_START
G1 F7200
G1 X97.457 Y175.629 E-.0143
G1 X97.107 Y175.764 E-.08909
G1 X96.734 Y175.804 E-.0891
G1 X96.363 Y175.745 E-.08922
G1 X96.02 Y175.593 E-.0891
G1 X95.728 Y175.357 E-.08917
G1 X95.507 Y175.054 E-.08907
G1 X95.373 Y174.704 E-.08901
G1 X95.333 Y174.331 E-.0891
G1 X95.38 Y174.028 E-.07284
;WIPE_END
G1 X95.253 Y168.653 F9000
G1 E.8 F1800
;TYPE:Perimeter
G1 F1200
G1 X95.21 Y168.591 E.00237
;WIDTH:0.463819
G1 X95.135 Y168.445 E.00574
;WIDTH:0.507639
G1 X95.06 Y168.3 E.00631
;WIDTH:0.551459
G1 X94.985 Y168.154 E.00694
G1 X94.952 Y167.753 E.01701
;WIDTH:0.554952
G1 X94.99 Y167.342 E.01757
