; generated by PrusaSlicer 2.7.1 on 2024-04-19 at 03:32:47 UTC


;
;

;
;
; 

; external perimeters extrusion width = 0.42mm
; perimeters extrusion width = 0.44mm
; infill extrusion width = 0.44mm
; solid infill extrusion width = 0.44mm
; top infill extrusion width = 0.40mm
; first layer extrusion width = 0.42mm



; Pre-Processed for Cancel-Object support by preprocess_cancellation v0.2.0
; 1 known objects
EXCLUDE_OBJECT_DEFINE NAME=Side_1_stl_id_0_copy_0 CENTER=109.935,119.052 POLYGON=[[79.711,66.961],[79.711,153.039],[140.289,153.039],[140.289,66.961]]
M201 X500 Y500 Z100 E5000 ; sets maximum accelerations, mm/sec^2
M203 X500 Y500 Z10 E60 ; sets maximum feedrates, mm / sec
M204 S500 T1000 ; sets acceleration (S) and retract acceleration (R), mm/sec^2
M205 X8.00 Y8.00 Z0.40 E5.00 ; sets the jerk limits, mm/sec
M205 S0 T0 ; sets the minimum extruding and travel feed rate, mm/sec

; printing object Side_1.stl id:0 copy 0
EXCLUDE_OBJECT_START NAME=Side_1_stl_id_0_copy_0
; stop printing object Side_1.stl id:0 copy 0
EXCLUDE_OBJECT_END NAME=Side_1_stl_id_0_copy_0

;TYPE:Custom
G90 ; use absolute coordinates
M83 ; extruder relative mode
G28
M109 S0
M190 S0
start_print EXTRUDER_TEMP=210 BED_TEMP=60

M104 S150 ; set temporary nozzle temp to prevent oozing during homing
M140 S60 ; set final bed temp
G4 S30 ; allow partial nozzle warmup
G28 ; home all axis and restore leveling

G1 Z50 F240
G1 X2.0 Y10 F3000
M104 S210 ; set final nozzle temp
M190 S60 ; wait for bed temp to stabilize
M109 S210 ; wait for nozzle temp to stabilize
G1 Z0.28 F240
G92 E0
G1 X2.0 Y140 E10 F1500 ; prime the nozzle
G1 X2.3 Y140 F5000
G92 E0
G1 X2.3 Y10 E10 F1200 ; prime the nozzle
G92 E0
G21 ; set units to millimeters
G90 ; use absolute coordinates
M83 ; use relative distances for extrusion
; Filament gcode
M107
;LAYER_CHANGE
;Z:0.1
;HEIGHT:0.1
;BEFORE_LAYER_CHANGE
G92 E0
;0.1


G1 E-.8 F1800
G1 Z.1 F9000
;AFTER_LAYER_CHANGE
;0.1
G1 X79.434 Y67.213
G1 Z.1
G1 E.8 F1800
M204 S500
;TYPE:Skirt/Brim
;WIDTH:0.42
G1 F1200
G1 X79.598 Y67.02 E.0042
G1 X80.764 Y65.985 E.02583
G1 X81.611 Y65.396 E.01709
G1 X82.793 Y64.748 E.02234
G1 X84.252 Y64.184 E.02592
G1 X85.269 Y63.923 E.0174
G1 X86.578 Y63.734 E.02191
G1 X132.621 Y63.696 E.7629
G1 X134.731 Y63.923 E.03516
G1 X136.459 Y64.429 E.02983
G1 X138.358 Y65.376 E.03516
G1 X139.816 Y66.464 E.03014
G1 X141.268 Y68.019 E.03525
G1 X142.251 Y69.543 E.03005
G1 X143.07 Y71.514 E.03537
G1 X143.459 Y73.297 E.03024
G1 X143.556 Y74.75 E.02413
G1 X143.556 Y145.25 E1.16814
G1 X143.459 Y146.698 E.02405
G1 X143.14 Y148.248 E.02622
G1 X142.814 Y149.227 E.0171
G1 X142.152 Y150.638 E.02582
G1 X141.429 Y151.767 E.02221
G1 X140.402 Y152.98 E.02633
G1 X139.236 Y154.015 E.02583
G1 X138.389 Y154.604 E.01709
G1 X137.207 Y155.252 E.02234
G1 X135.748 Y155.816 E.02592
G1 X134.731 Y156.077 E.0174
G1 X133.186 Y156.283 E.02583
G1 X87.379 Y156.304 E.75899
G1 X85.807 Y156.174 E.02614
G1 X84.515 Y155.893 E.02191
G1 X83.035 Y155.362 E.02605
G1 X82.112 Y154.902 E.01709
G1 X80.794 Y154.037 E.02612
G1 X79.774 Y153.156 E.02233
G1 X78.735 Y151.986 E.02593
G1 X78.135 Y151.124 E.0174
G1 X77.395 Y149.732 E.02612
G1 X76.93 Y148.486 E.02204
G1 X76.673 Y147.481 E.01719
G1 X76.467 Y145.936 E.02583
G1 X76.446 Y74.629 E1.18151
G1 X76.576 Y73.057 E.02614
G1 X76.86 Y71.752 E.02213
G1 X77.186 Y70.773 E.0171
G1 X77.848 Y69.362 E.02582
G1 X78.571 Y68.233 E.02221
G1 X79.395 Y67.259 E.02114
; printing object Side_1.stl id:0 copy 0
EXCLUDE_OBJECT_START NAME=Side_1_stl_id_0_copy_0
;WIPE_START
G1 F7200
G1 X79.434 Y67.213 E-.01432
G1 X79.598 Y67.02 E-.06015
G1 X80.764 Y65.985 E-.37029
G1 X81.611 Y65.396 E-.24502
G1 X82.018 Y65.173 E-.11022
;WIPE_END
G1 X83.099 Y82.226 F9000
G1 E.8 F1800
;TYPE:Perimeter
;WIDTH:0.419999
G1 F1200
G1 X82.249 Y82.213 E.01409
G1 X81.865 Y82.071 E.00678
G1 X81.553 Y81.792 E.00694
G1 X81.338 Y81.428 E.007
G1 X81.259 Y80.981 E.00752
G1 X81.259 Y74.884 E.10102
G1 X81.276 Y74.305 E.0096
G1 X81.363 Y73.643 E.01106
G1 X81.513 Y72.992 E.01107
G1 X81.739 Y72.364 E.01106
G1 X82.023 Y71.76 E.01106
G1 X82.378 Y71.193 E.01108
G1 X82.784 Y70.664 E.01105
G1 X83.251 Y70.186 E.01107
G1 X83.761 Y69.755 E.01106
G1 X84.318 Y69.387 E.01106
G1 X84.908 Y69.074 E.01107
G1 X85.531 Y68.833 E.01107
G1 X86.174 Y68.653 E.01106
G1 X86.833 Y68.55 E.01105
G1 X87.52 Y68.509 E.0114
G1 X132.462 Y68.509 E.74466
G1 X133.15 Y68.558 E.01143
G1 X133.658 Y68.622 E.00848
G1 X134.258 Y68.763 E.01021
G1 X134.875 Y68.984 E.01086
G1 X135.338 Y69.197 E.00844
G1 X135.858 Y69.492 E.00991
G1 X136.599 Y70.046 E.01533
G1 X137.099 Y70.539 E.01163
G1 X137.484 Y70.997 E.00991
G1 X137.985 Y71.775 E.01533
G1 X138.241 Y72.316 E.00992
G1 X138.421 Y72.792 E.00843
G1 X138.597 Y73.424 E.01087
G1 X138.701 Y74.087 E.01112
G1 X138.741 Y74.77 E.01134
G1 X138.741 Y80.953 E.10245
G1 X138.654 Y81.426 E.00797
G1 X138.454 Y81.795 E.00695
G1 X138.131 Y82.064 E.00696
G1 X137.742 Y82.223 E.00696
G1 X137.322 Y82.238 E.00696
G1 X136.76 Y82.224 E.00931
G1 X136.424 Y82.352 E.00596
G1 X136.192 Y82.547 E.00502
G1 X136.004 Y82.865 E.00612
G1 X135.944 Y83.204 E.0057
G1 X135.944 Y136.787 E.88783
G1 X135.984 Y137.068 E.0047
G1 X136.16 Y137.407 E.00633
G1 X136.418 Y137.636 E.00572
G1 X136.737 Y137.763 E.00569
G1 X137.751 Y137.779 E.0168
G1 X138.135 Y137.921 E.00678
G1 X138.447 Y138.2 E.00694
G1 X138.662 Y138.563 E.00699
G1 X138.741 Y139.046 E.00811
G1 X138.741 Y145.116 E.10058
G1 X138.724 Y145.695 E.0096
G1 X138.637 Y146.359 E.0111
G1 X138.487 Y147.008 E.01104
G1 X138.26 Y147.639 E.01111
G1 X137.977 Y148.24 E.01101
G1 X137.619 Y148.811 E.01117
G1 X137.216 Y149.336 E.01097
G1 X136.758 Y149.806 E.01087
G1 X136.373 Y150.138 E.00842
G1 X135.888 Y150.489 E.00992
G1 X135.076 Y150.933 E.01533
G1 X134.448 Y151.174 E.01115
G1 X133.826 Y151.347 E.0107
G1 X133.161 Y151.451 E.01115
G1 X132.48 Y151.491 E.0113
G1 X127.358 Y151.491 E.08487
G1 X126.779 Y151.474 E.0096
G1 X126.111 Y151.386 E.01116
G1 X125.466 Y151.237 E.01097
G1 X124.849 Y151.016 E.01086
G1 X124.386 Y150.803 E.00844
G1 X123.866 Y150.508 E.00991
G1 X123.125 Y149.954 E.01533
G1 X122.625 Y149.461 E.01163
G1 X122.24 Y149.003 E.00991
G1 X121.739 Y148.225 E.01533
G1 X121.483 Y147.684 E.00992
G1 X121.303 Y147.208 E.00843
G1 X121.127 Y146.576 E.01087
G1 X121.023 Y145.913 E.01112
G1 X120.983 Y145.224 E.01144
G1 X120.96 Y143.506 E.02847
G1 X120.896 Y142.833 E.0112
G1 X120.74 Y141.933 E.01513
G1 X120.623 Y141.43 E.00856
G1 X120.457 Y140.854 E.00993
G1 X120.23 Y140.217 E.0112
G1 X119.965 Y139.595 E.0112
G1 X119.662 Y138.99 E.01121
G1 X119.322 Y138.405 E.01121
G1 X118.947 Y137.842 E.01121
G1 X118.537 Y137.304 E.01121
G1 X118.096 Y136.791 E.01121
G1 X117.624 Y136.307 E.0112
G1 X117.122 Y135.852 E.01123
G1 X116.686 Y135.503 E.00925
G1 X116.041 Y135.041 E.01315
G1 X115.465 Y134.686 E.01121
G1 X114.868 Y134.368 E.01121
G1 X114.253 Y134.087 E.0112
G1 X113.621 Y133.844 E.01122
G1 X112.976 Y133.641 E.0112
G1 X112.32 Y133.478 E.0112
G1 X111.654 Y133.355 E.01122
G1 X110.983 Y133.274 E.0112
G1 X110.308 Y133.234 E.0112
G1 X109.631 Y133.236 E.01122
G1 X108.956 Y133.28 E.01121
G1 X108.285 Y133.365 E.01121
G1 X107.62 Y133.491 E.01121
G1 X106.965 Y133.658 E.0112
G1 X106.321 Y133.864 E.0112
G1 X105.691 Y134.111 E.01121
G1 X105.061 Y134.404 E.01151
G1 X104.233 Y134.872 E.01576
G1 X103.357 Y135.467 E.01755
G1 X102.831 Y135.892 E.0112
G1 X102.332 Y136.349 E.01121
G1 X101.863 Y136.836 E.0112
G1 X101.424 Y137.351 E.01121
G1 X101.018 Y137.892 E.01121
G1 X100.646 Y138.457 E.01121
G1 X100.309 Y139.044 E.01122
G1 X100.009 Y139.65 E.0112
G1 X99.748 Y140.274 E.01121
G1 X99.525 Y140.913 E.01121
G1 X99.341 Y141.564 E.01121
G1 X99.198 Y142.225 E.01121
G1 X99.096 Y142.894 E.01121
G1 X99.036 Y143.587 E.01153
G1 X99 Y145.695 E.03493
G1 X98.913 Y146.357 E.01106
G1 X98.763 Y147.008 E.01107
G1 X98.537 Y147.636 E.01106
G1 X98.253 Y148.24 E.01106
G1 X97.898 Y148.807 E.01108
G1 X97.492 Y149.336 E.01105
G1 X97.025 Y149.814 E.01107
G1 X96.515 Y150.245 E.01106
G1 X95.958 Y150.613 E.01106
G1 X95.368 Y150.926 E.01107
G1 X94.745 Y151.167 E.01107
G1 X94.102 Y151.347 E.01106
G1 X93.443 Y151.45 E.01105
G1 X92.756 Y151.491 E.0114
G1 X87.634 Y151.491 E.08487
G1 X87.055 Y151.474 E.0096
G1 X86.393 Y151.387 E.01106
G1 X85.742 Y151.237 E.01107
G1 X85.114 Y151.011 E.01106
G1 X84.51 Y150.727 E.01106
G1 X83.944 Y150.372 E.01107
G1 X83.414 Y149.966 E.01106
G1 X82.936 Y149.499 E.01107
G1 X82.505 Y148.989 E.01106
G1 X82.137 Y148.432 E.01106
G1 X81.824 Y147.842 E.01107
G1 X81.583 Y147.219 E.01107
G1 X81.403 Y146.576 E.01106
G1 X81.3 Y145.917 E.01105
G1 X81.259 Y145.23 E.0114
G1 X81.259 Y139.039 E.10258
G1 X81.346 Y138.566 E.00797
G1 X81.546 Y138.196 E.00697
G1 X81.869 Y137.928 E.00695
G1 X82.258 Y137.769 E.00696
G1 X82.678 Y137.753 E.00696
G1 X83.24 Y137.767 E.00931
G1 X83.576 Y137.639 E.00596
G1 X83.828 Y137.421 E.00552
G1 X83.981 Y137.165 E.00494
G1 X84.056 Y136.787 E.00639
G1 X84.056 Y83.204 E.88783
G1 X84.017 Y82.927 E.00463
G1 X83.859 Y82.609 E.00588
G1 X83.582 Y82.356 E.00622
G1 X83.263 Y82.229 E.00569
G1 X83.159 Y82.227 E.00172
G1 X83.114 Y82.622 F9000
G1 F1200
G1 X83.029 Y82.607 E.00143
G1 X82.358 Y82.641 E.01113
G1 X81.998 Y82.569 E.00608
G1 X81.658 Y82.415 E.00618
G1 X81.362 Y82.187 E.00619
G1 X81.125 Y81.898 E.00619
G1 X80.96 Y81.563 E.00619
G1 X80.861 Y80.993 E.00959
G1 X80.861 Y74.884 E.10122
G1 X80.878 Y74.276 E.01008
G1 X80.971 Y73.572 E.01177
G1 X81.13 Y72.88 E.01176
G1 X81.371 Y72.211 E.01178
G1 X81.673 Y71.568 E.01177
G1 X82.05 Y70.966 E.01177
G1 X82.483 Y70.403 E.01177
G1 X82.979 Y69.894 E.01178
G1 X83.522 Y69.435 E.01178
G1 X84.115 Y69.044 E.01177
G1 X84.742 Y68.711 E.01176
G1 X85.405 Y68.455 E.01178
G1 X86.089 Y68.263 E.01177
G1 X86.791 Y68.154 E.01177
G1 X87.513 Y68.111 E.01198
G1 X132.477 Y68.111 E.74502
G1 X133.455 Y68.181 E.01625
G1 X134.09 Y68.309 E.01073
G1 X134.574 Y68.448 E.00834
G1 X135.059 Y68.629 E.00858
G1 X135.516 Y68.84 E.00834
G1 X136.08 Y69.16 E.01074
G1 X136.855 Y69.74 E.01604
G1 X137.391 Y70.267 E.01245
G1 X137.808 Y70.763 E.01074
G1 X138.331 Y71.578 E.01605
G1 X138.61 Y72.163 E.01074
G1 X138.799 Y72.667 E.00892
G1 X138.987 Y73.339 E.01156
G1 X139.097 Y74.045 E.01184
G1 X139.139 Y74.763 E.01192
G1 X139.139 Y80.875 E.10127
G1 X139.092 Y81.384 E.00847
G1 X138.967 Y81.735 E.00617
G1 X138.765 Y82.049 E.00619
G1 X138.496 Y82.309 E.0062
G1 X138.176 Y82.502 E.00619
G1 X137.821 Y82.616 E.00618
G1 X137.432 Y82.649 E.00647
G1 X136.832 Y82.616 E.00996
G1 X136.57 Y82.735 E.00477
G1 X136.412 Y82.924 E.00408
G1 X136.343 Y83.204 E.00478
G1 X136.343 Y136.787 E.88783
G1 X136.393 Y137.029 E.00409
G1 X136.569 Y137.256 E.00476
G1 X136.818 Y137.373 E.00456
G1 X137.431 Y137.361 E.01016
G1 X137.829 Y137.388 E.00661
G1 X138.162 Y137.495 E.0058
G1 X138.487 Y137.688 E.00626
G1 X138.755 Y137.947 E.00618
G1 X138.957 Y138.26 E.00617
G1 X139.082 Y138.609 E.00614
G1 X139.139 Y139.046 E.0073
G1 X139.132 Y145.445 E.10603
G1 X139.096 Y145.96 E.00855
G1 X138.987 Y146.661 E.01175
G1 X138.794 Y147.347 E.01181
G1 X138.539 Y148.008 E.01174
G1 X138.204 Y148.639 E.01184
G1 X137.815 Y149.228 E.0117
G1 X137.361 Y149.765 E.01165
G1 X137.005 Y150.121 E.00834
G1 X136.623 Y150.448 E.00833
G1 X136.098 Y150.829 E.01075
G1 X135.248 Y151.293 E.01605
G1 X134.574 Y151.552 E.01196
G1 X133.911 Y151.737 E.01141
G1 X133.204 Y151.847 E.01186
G1 X132.487 Y151.889 E.0119
G1 X127.399 Y151.889 E.0843
G1 X126.511 Y151.846 E.01473
G1 X125.813 Y151.737 E.01171
G1 X125.136 Y151.547 E.01165
G1 X124.665 Y151.371 E.00833
G1 X124.208 Y151.16 E.00834
G1 X123.644 Y150.84 E.01074
G1 X122.869 Y150.26 E.01604
G1 X122.333 Y149.733 E.01245
G1 X121.916 Y149.237 E.01074
G1 X121.393 Y148.422 E.01605
G1 X121.114 Y147.837 E.01074
G1 X120.925 Y147.333 E.00892
G1 X120.737 Y146.661 E.01156
G1 X120.627 Y145.955 E.01184
G1 X120.585 Y145.234 E.01197
G1 X120.563 Y143.543 E.02802
G1 X120.502 Y142.894 E.0108
G1 X120.401 Y142.25 E.0108
G1 X120.239 Y141.539 E.01208
G1 X120.081 Y140.987 E.00951
G1 X119.863 Y140.372 E.01081
G1 X119.608 Y139.772 E.0108
G1 X119.317 Y139.189 E.0108
G1 X118.99 Y138.625 E.0108
G1 X118.629 Y138.082 E.0108
G1 X118.235 Y137.563 E.0108
G1 X117.81 Y137.069 E.0108
G1 X117.355 Y136.601 E.01082
G1 X116.873 Y136.163 E.01079
G1 X116.453 Y135.826 E.00892
G1 X115.831 Y135.379 E.01269
G1 X115.276 Y135.037 E.0108
G1 X114.702 Y134.73 E.01079
G1 X114.109 Y134.458 E.01081
G1 X113.501 Y134.224 E.01079
G1 X112.879 Y134.027 E.01081
G1 X112.246 Y133.869 E.01081
G1 X111.605 Y133.751 E.0108
G1 X110.958 Y133.672 E.0108
G1 X110.308 Y133.633 E.01079
G1 X109.656 Y133.634 E.0108
G1 X109.005 Y133.675 E.01081
G1 X108.358 Y133.756 E.0108
G1 X107.718 Y133.877 E.01079
G1 X107.086 Y134.037 E.0108
G1 X106.465 Y134.236 E.0108
G1 X105.857 Y134.473 E.01081
G1 X105.256 Y134.751 E.01097
G1 X104.456 Y135.202 E.01522
G1 X103.607 Y135.777 E.01699
G1 X103.099 Y136.187 E.01082
G1 X102.618 Y136.627 E.0108
G1 X102.165 Y137.096 E.0108
G1 X101.742 Y137.592 E.0108
G1 X101.35 Y138.112 E.01079
G1 X100.991 Y138.656 E.0108
G1 X100.666 Y139.222 E.01081
G1 X100.377 Y139.806 E.0108
G1 X100.123 Y140.406 E.0108
G1 X99.908 Y141.022 E.01081
G1 X99.731 Y141.649 E.01079
G1 X99.592 Y142.286 E.0108
G1 X99.493 Y142.93 E.0108
G1 X99.434 Y143.591 E.011
G1 X99.398 Y145.724 E.03535
G1 X99.305 Y146.428 E.01177
G1 X99.146 Y147.12 E.01176
G1 X98.905 Y147.789 E.01178
G1 X98.603 Y148.432 E.01177
G1 X98.226 Y149.034 E.01177
G1 X97.793 Y149.597 E.01177
G1 X97.297 Y150.106 E.01178
G1 X96.754 Y150.565 E.01178
G1 X96.161 Y150.956 E.01177
G1 X95.534 Y151.289 E.01176
G1 X94.871 Y151.545 E.01178
G1 X94.187 Y151.737 E.01177
G1 X93.485 Y151.846 E.01177
G1 X92.763 Y151.889 E.01198
G1 X87.634 Y151.889 E.08498
G1 X87.026 Y151.872 E.01008
G1 X86.322 Y151.779 E.01177
G1 X85.63 Y151.62 E.01176
G1 X84.961 Y151.379 E.01178
G1 X84.318 Y151.077 E.01177
G1 X83.716 Y150.7 E.01177
G1 X83.153 Y150.267 E.01177
G1 X82.644 Y149.771 E.01178
G1 X82.185 Y149.228 E.01178
G1 X81.794 Y148.635 E.01177
G1 X81.461 Y148.008 E.01176
G1 X81.205 Y147.345 E.01178
G1 X81.013 Y146.661 E.01177
G1 X80.904 Y145.959 E.01177
G1 X80.861 Y145.237 E.01198
G1 X80.861 Y139.116 E.10142
G1 X80.908 Y138.607 E.00847
G1 X81.033 Y138.256 E.00617
G1 X81.235 Y137.942 E.00619
G1 X81.504 Y137.682 E.0062
G1 X81.824 Y137.49 E.00618
G1 X82.179 Y137.375 E.00618
G1 X82.568 Y137.343 E.00647
G1 X83.168 Y137.375 E.00996
G1 X83.43 Y137.257 E.00476
G1 X83.591 Y137.062 E.00419
G1 X83.657 Y136.787 E.00469
G1 X83.657 Y83.204 E.88783
G1 X83.643 Y83.074 E.00217
G1 X83.509 Y82.81 E.00491
G1 X83.293 Y82.654 E.00441
G1 X83.173 Y82.632 E.00202
G1 X83.05 Y83.005 F9000
;TYPE:External perimeter
G1 F1200
G1 X82.329 Y83.042 E.01196
G1 X81.875 Y82.951 E.00767
G1 X81.452 Y82.758 E.0077
G1 X81.083 Y82.475 E.00771
G1 X80.788 Y82.115 E.00771
G1 X80.583 Y81.698 E.0077
G1 X80.53 Y81.473 E.00383
G1 X80.462 Y81.004 E.00785
G1 X80.462 Y74.756 E.10353
G1 X80.48 Y74.248 E.00842
G1 X80.534 Y73.748 E.00833
G1 X80.623 Y73.254 E.00832
G1 X80.748 Y72.767 E.00833
G1 X80.906 Y72.291 E.00831
G1 X81.098 Y71.827 E.00832
G1 X81.323 Y71.377 E.00834
G1 X81.58 Y70.945 E.00833
G1 X81.866 Y70.533 E.00831
G1 X82.181 Y70.141 E.00833
G1 X82.524 Y69.774 E.00832
G1 X82.891 Y69.431 E.00832
G1 X83.283 Y69.116 E.00833
G1 X83.695 Y68.83 E.00831
G1 X84.127 Y68.573 E.00833
G1 X84.577 Y68.348 E.00834
G1 X85.041 Y68.156 E.00832
G1 X85.517 Y67.998 E.00831
G1 X86.004 Y67.873 E.00833
G1 X86.498 Y67.784 E.00832
G1 X86.998 Y67.73 E.00833
G1 X87.506 Y67.712 E.00842
G1 X132.491 Y67.712 E.74537
G1 X133.505 Y67.785 E.01684
G1 X134.189 Y67.923 E.01156
G1 X134.733 Y68.081 E.00939
G1 X135.212 Y68.261 E.00848
G1 X135.694 Y68.484 E.0088
G1 X136.302 Y68.828 E.01157
G1 X136.872 Y69.255 E.0118
G1 X137.33 Y69.638 E.00989
G1 X137.683 Y69.995 E.00832
G1 X138.132 Y70.53 E.01157
G1 X138.516 Y71.129 E.01179
G1 X138.902 Y71.827 E.01322
G1 X139.094 Y72.291 E.00832
G1 X139.252 Y72.767 E.00831
G1 X139.377 Y73.254 E.00833
G1 X139.466 Y73.748 E.00832
G1 X139.52 Y74.248 E.00833
G1 X139.538 Y74.756 E.00842
G1 X139.538 Y80.875 E.10139
G1 X139.483 Y81.475 E.00998
G1 X139.327 Y81.913 E.0077
G1 X139.075 Y82.304 E.00771
G1 X138.741 Y82.627 E.0077
G1 X138.342 Y82.867 E.00771
