; generated by PrusaSlicer 2.7.1 on 2025-06-09 at 01:46:10 UTC


;
;

;
;
; 

; external perimeters extrusion width = 0.42mm
; perimeters extrusion width = 0.44mm
; infill extrusion width = 0.44mm
; solid infill extrusion width = 0.44mm
; top infill extrusion width = 0.40mm
; first layer extrusion width = 0.42mm



; Pre-Processed for Cancel-Object support by preprocess_cancellation v0.2.0
; 1 known objects
EXCLUDE_OBJECT_DEFINE NAME=Slim_enclosure_for_Heltec_Wireless_Tracker__M5Stack_CardKB_Case_Reinforced_stl_stl_id_0_copy_0 CENTER=134.942,119.572 POLYGON=[[66.21,68.21],[66.21,151.79],[153.79,151.79],[153.79,68.21]]
M201 X500 Y500 Z100 E5000 ; sets maximum accelerations, mm/sec^2
M203 X500 Y500 Z10 E60 ; sets maximum feedrates, mm / sec
M204 S500 T1000 ; sets acceleration (S) and retract acceleration (R), mm/sec^2
M205 X8.00 Y8.00 Z0.40 E5.00 ; sets the jerk limits, mm/sec
M205 S0 T0 ; sets the minimum extruding and travel feed rate, mm/sec

; printing object Slim_enclosure_for_Heltec_Wireless_Tracker__M5Stack_CardKB_Case_Reinforced.stl.stl id:0 copy 0
EXCLUDE_OBJECT_START NAME=Slim_enclosure_for_Heltec_Wireless_Tracker__M5Stack_CardKB_Case_Reinforced_stl_stl_id_0_copy_0
; stop printing object Slim_enclosure_for_Heltec_Wireless_Tracker__M5Stack_CardKB_Case_Reinforced.stl.stl id:0 copy 0
EXCLUDE_OBJECT_END NAME=Slim_enclosure_for_Heltec_Wireless_Tracker__M5Stack_CardKB_Case_Reinforced_stl_stl_id_0_copy_0

;TYPE:Custom
G90 ; use absolute coordinates
M83 ; extruder relative mode
G28
M109 S0
M190 S0
start_print EXTRUDER_TEMP=210 BED_TEMP=60

M104 S150 ; set temporary nozzle temp to prevent oozing during homing
M140 S60 ; set final bed temp
G4 S30 ; allow partial nozzle warmup
G28 ; home all axis and restore leveling

G1 Z50 F240
G1 X2.0 Y10 F3000
M104 S210 ; set final nozzle temp
M190 S60 ; wait for bed temp to stabilize
M109 S210 ; wait for nozzle temp to stabilize
G1 Z0.28 F240
G92 E0
G1 X2.0 Y140 E10 F1500 ; prime the nozzle
G1 X2.3 Y140 F5000
G92 E0
G1 X2.3 Y10 E10 F1200 ; prime the nozzle
G92 E0
G21 ; set units to millimeters
G90 ; use absolute coordinates
M83 ; use relative distances for extrusion
; Filament gcode
M107
;LAYER_CHANGE
;Z:0.2
;HEIGHT:0.2
;BEFORE_LAYER_CHANGE
G92 E0
;0.2


G1 E-.8 F1800
G1 Z.2 F9000
;AFTER_LAYER_CHANGE
;0.2
G1 X64.296 Y65.672
G1 Z.2
G1 E.8 F1800
M204 S500
;TYPE:Skirt/Brim
;WIDTH:0.42
G1 F1200
G1 X65.307 Y65.041 E.03737
G1 X66.449 Y64.693 E.03743
G1 X67.2 Y64.623 E.02365
G1 X153.241 Y64.652 E2.69776
G1 X154.692 Y65.041 E.0471
G1 X155.704 Y65.672 E.03739
G1 X156.328 Y66.296 E.02767
G1 X157.079 Y67.597 E.0471
G1 X157.307 Y68.449 E.02765
G1 X157.377 Y69.2 E.02365
G1 X157.377 Y150.8 E2.55851
G1 X157.307 Y151.551 E.02365
G1 X157.079 Y152.403 E.02765
G1 X156.328 Y153.704 E.0471
G1 X155.704 Y154.328 E.02767
G1 X154.692 Y154.959 E.03739
G1 X153.551 Y155.307 E.0374
G1 X152.8 Y155.377 E.02365
G1 X67.2 Y155.377 E2.68393
G1 X66.449 Y155.307 E.02365
G1 X65.597 Y155.079 E.02765
G1 X64.296 Y154.328 E.0471
G1 X63.672 Y153.704 E.02767
G1 X63.041 Y152.692 E.03739
G1 X62.693 Y151.551 E.0374
G1 X62.624 Y150.806 E.02346
G1 X62.623 Y69.2 E2.5587
G1 X62.693 Y68.449 E.02365
G1 X62.921 Y67.597 E.02765
G1 X63.672 Y66.296 E.0471
G1 X64.253 Y65.715 E.02576
; printing object Slim_enclosure_for_Heltec_Wireless_Tracker__M5Stack_CardKB_Case_Reinforced.stl.stl id:0 copy 0
EXCLUDE_OBJECT_START NAME=Slim_enclosure_for_Heltec_Wireless_Tracker__M5Stack_CardKB_Case_Reinforced_stl_stl_id_0_copy_0
;WIPE_START
G1 F7200
G1 X64.296 Y65.672 E-.01444
G1 X65.307 Y65.041 E-.28304
G1 X66.449 Y64.693 E-.28354
G1 X67.2 Y64.623 E-.17914
G1 X67.368 Y64.623 E-.03984
;WIPE_END
G1 X67.11 Y69.11 F9000
G1 E.8 F1800
;TYPE:Perimeter
;WIDTH:0.419999
G1 F1200
G1 X67.27 Y69.064 E.00522
G1 X152.716 Y69.064 E2.67909
G1 X152.89 Y69.11 E.00564
G1 X152.936 Y69.284 E.00564
G1 X152.936 Y150.716 E2.55324
G1 X152.89 Y150.89 E.00564
G1 X152.73 Y150.936 E.00522
G1 X67.284 Y150.936 E2.67909
G1 X67.11 Y150.89 E.00564
G1 X67.064 Y150.73 E.00522
G1 X67.064 Y69.284 E2.55368
G1 X67.095 Y69.168 E.00376
G1 X66.955 Y68.759 F9000
G1 F1200
G1 X67.245 Y68.687 E.00937
G1 X152.716 Y68.687 E2.67988
G1 X152.931 Y68.71 E.00678
G1 X153.159 Y68.841 E.00824
G1 X153.264 Y69.008 E.00619
G1 X153.313 Y69.284 E.00879
G1 X153.313 Y150.755 E2.55446
G1 X153.239 Y151.053 E.00963
G1 X153.054 Y151.239 E.00823
G1 X152.755 Y151.313 E.00966
G1 X67.245 Y151.313 E2.6811
G1 X66.947 Y151.239 E.00963
G1 X66.761 Y151.054 E.00823
G1 X66.687 Y150.755 E.00966
G1 X66.687 Y69.245 E2.55568
G1 X66.761 Y68.947 E.00963
G1 X66.91 Y68.797 E.00663
G1 X66.863 Y68.387 F9000
;TYPE:External perimeter
G1 F1200
G1 X67.22 Y68.31 E.01145
G1 X152.716 Y68.31 E2.68066
G1 X152.915 Y68.328 E.00626
G1 X153.244 Y68.432 E.01082
G1 X153.498 Y68.664 E.01079
G1 X153.657 Y68.97 E.01081
G1 X153.69 Y69.284 E.0099
G1 X153.69 Y150.78 E2.55525
G1 X153.613 Y151.137 E.01145
G1 X153.427 Y151.427 E.0108
G1 X153.137 Y151.613 E.0108
G1 X152.78 Y151.69 E.01145
G1 X67.22 Y151.69 E2.68267
G1 X66.863 Y151.613 E.01145
G1 X66.573 Y151.427 E.0108
G1 X66.387 Y151.137 E.0108
G1 X66.31 Y150.78 E.01145
G1 X66.31 Y69.22 E2.55725
G1 X66.387 Y68.863 E.01145
G1 X66.573 Y68.573 E.0108
G1 X66.813 Y68.419 E.00894
;WIPE_START
G1 F7200
G1 X66.863 Y68.387 E-.0141
G1 X67.22 Y68.31 E-.08674
G1 X70.164 Y68.31 E-.69916
;WIPE_END
G1 X152.815 Y69.949 F9000
G1 E.8 F1800
;TYPE:Solid infill
;WIDTH:0.420937
G1 F1200
G1 X152.221 Y69.355 E.0264
G1 X151.686 Y69.355 E.01682
G1 X152.645 Y70.314 E.04263
G1 X152.645 Y70.849 E.01682
G1 X151.151 Y69.355 E.06641
G1 X150.617 Y69.355 E.01678
G1 X152.645 Y71.383 E.09015
G1 X152.645 Y71.918 E.01682
G1 X150.082 Y69.355 E.11393
G1 X149.548 Y69.355 E.01678
G1 X152.645 Y72.453 E.13769
G1 X152.645 Y72.987 E.01678
G1 X149.013 Y69.355 E.16145
G1 X148.479 Y69.355 E.01678
G1 X152.645 Y73.522 E.18521
G1 X152.645 Y74.056 E.01678
G1 X147.944 Y69.355 E.20897
G1 X147.409 Y69.355 E.01682
G1 X152.645 Y74.591 E.23275
G1 X152.645 Y75.125 E.01678
G1 X146.875 Y69.355 E.25649
G1 X146.34 Y69.355 E.01682
G1 X152.645 Y75.66 E.28027
G1 X152.645 Y76.195 E.01682
G1 X145.806 Y69.355 E.30403
G1 X145.271 Y69.355 E.01682
G1 X152.645 Y76.729 E.32779
G1 X152.645 Y77.264 E.01682
G1 X144.737 Y69.355 E.35155
G1 X144.202 Y69.355 E.01682
G1 X152.645 Y77.798 E.37531
G1 X152.645 Y78.333 E.01682
G1 X143.667 Y69.355 E.39909
G1 X143.133 Y69.355 E.01678
G1 X152.645 Y78.867 E.42283
G1 X152.645 Y79.402 E.01682
G1 X142.598 Y69.355 E.44661
G1 X142.064 Y69.355 E.01678
G1 X152.645 Y79.937 E.47037
G1 X152.645 Y80.471 E.01678
G1 X141.529 Y69.355 E.49413
G1 X140.995 Y69.355 E.01678
G1 X152.645 Y81.006 E.51789
G1 X152.645 Y81.54 E.01678
G1 X140.46 Y69.355 E.54165
G1 X139.925 Y69.355 E.01682
G1 X152.645 Y82.075 E.56543
G1 X152.645 Y82.609 E.01678
G1 X139.391 Y69.355 E.58917
G1 X138.856 Y69.355 E.01682
G1 X152.645 Y83.144 E.61295
G1 X152.645 Y83.679 E.01682
G1 X138.322 Y69.355 E.63671
G1 X137.787 Y69.355 E.01682
G1 X152.645 Y84.213 E.66047
G1 X152.645 Y84.748 E.01682
G1 X137.252 Y69.355 E.68425
G1 X136.718 Y69.355 E.01678
G1 X152.645 Y85.282 E.70799
G1 X152.645 Y85.817 E.01682
G1 X136.183 Y69.355 E.73177
G1 X135.649 Y69.355 E.01678
G1 X152.645 Y86.351 E.7555
G1 X152.645 Y86.886 E.01682
G1 X135.114 Y69.355 E.77929
G1 X134.58 Y69.355 E.01678
G1 X152.645 Y87.421 E.80305
G1 X152.645 Y87.955 E.01678
G1 X134.045 Y69.355 E.82681
G1 X133.51 Y69.355 E.01682
G1 X152.645 Y88.49 E.85059
G1 X152.645 Y89.024 E.01678
G1 X132.976 Y69.356 E.8743
G1 X132.441 Y69.356 E.01682
G1 X152.645 Y89.559 E.89808
G1 X152.645 Y90.093 E.01678
G1 X131.907 Y69.356 E.92182
G1 X131.372 Y69.356 E.01682
G1 X152.645 Y90.628 E.9456
G1 X152.645 Y91.163 E.01682
G1 X130.838 Y69.356 E.96936
G1 X130.303 Y69.356 E.01682
G1 X152.645 Y91.697 E.99312
G1 X152.645 Y92.232 E.01682
G1 X129.768 Y69.356 E1.0169
G1 X129.234 Y69.356 E.01678
G1 X152.645 Y92.766 E1.04064
G1 X152.644 Y93.301 E.01682
G1 X128.699 Y69.356 E1.0644
G1 X128.165 Y69.356 E.01678
G1 X152.644 Y93.835 E1.08814
G1 X152.644 Y94.37 E.01682
G1 X127.63 Y69.356 E1.11192
G1 X127.096 Y69.356 E.01678
G1 X152.644 Y94.905 E1.13568
G1 X152.644 Y95.439 E.01678
G1 X126.561 Y69.356 E1.15944
G1 X126.026 Y69.356 E.01682
G1 X152.644 Y95.974 E1.18322
G1 X152.644 Y96.508 E.01678
G1 X125.492 Y69.356 E1.20696
G1 X124.957 Y69.356 E.01682
G1 X152.644 Y97.043 E1.23074
G1 X152.644 Y97.577 E.01678
G1 X124.423 Y69.356 E1.25448
G1 X123.888 Y69.356 E.01682
G1 X152.644 Y98.112 E1.27826
G1 X152.644 Y98.647 E.01682
G1 X123.353 Y69.356 E1.30204
G1 X122.819 Y69.356 E.01678
G1 X152.644 Y99.181 E1.32578
G1 X152.644 Y99.716 E.01682
G1 X122.284 Y69.356 E1.34956
G1 X121.75 Y69.356 E.01678
G1 X152.644 Y100.25 E1.3733
G1 X152.644 Y100.785 E.01682
G1 X121.215 Y69.356 E1.39708
G1 X120.681 Y69.356 E.01678
G1 X152.644 Y101.32 E1.42084
G1 X152.644 Y101.854 E.01678
G1 X120.146 Y69.356 E1.4446
G1 X119.611 Y69.356 E.01682
G1 X152.644 Y102.389 E1.46838
G1 X152.644 Y102.923 E.01678
G1 X119.077 Y69.356 E1.49212
G1 X118.542 Y69.356 E.01682
G1 X152.644 Y103.458 E1.5159
G1 X152.644 Y103.992 E.01678
G1 X118.008 Y69.356 E1.53964
G1 X117.473 Y69.356 E.01682
G1 X152.644 Y104.527 E1.56342
G1 X152.644 Y105.062 E.01682
G1 X116.939 Y69.356 E1.58718
G1 X116.404 Y69.356 E.01682
G1 X152.644 Y105.596 E1.61094
G1 X152.644 Y106.131 E.01682
G1 X115.869 Y69.356 E1.63472
G1 X115.335 Y69.356 E.01678
G1 X152.644 Y106.665 E1.65846
G1 X152.644 Y107.2 E.01682
G1 X114.8 Y69.356 E1.68224
G1 X114.266 Y69.356 E.01678
G1 X152.644 Y107.734 E1.70598
G1 X152.644 Y108.269 E.01682
G1 X113.731 Y69.356 E1.72976
G1 X113.197 Y69.356 E.01678
G1 X152.644 Y108.804 E1.75352
G1 X152.644 Y109.338 E.01678
G1 X112.662 Y69.356 E1.77728
G1 X112.127 Y69.356 E.01682
G1 X152.644 Y109.873 E1.80106
G1 X152.644 Y110.407 E.01678
G1 X111.593 Y69.356 E1.8248
G1 X111.058 Y69.356 E.01682
G1 X152.644 Y110.942 E1.84858
G1 X152.644 Y111.476 E.01678
G1 X110.524 Y69.356 E1.87231
G1 X109.989 Y69.356 E.01682
G1 X152.644 Y112.011 E1.8961
G1 X152.644 Y112.546 E.01682
G1 X109.454 Y69.356 E1.91988
G1 X108.92 Y69.356 E.01678
G1 X152.644 Y113.08 E1.94362
G1 X152.644 Y113.615 E.01682
G1 X108.385 Y69.356 E1.9674
G1 X107.851 Y69.356 E.01678
G1 X152.644 Y114.149 E1.99113
G1 X152.644 Y114.684 E.01682
G1 X107.316 Y69.356 E2.01492
G1 X106.782 Y69.356 E.01678
G1 X152.644 Y115.218 E2.03865
G1 X152.644 Y115.753 E.01682
G1 X106.247 Y69.356 E2.06243
G1 X105.712 Y69.357 E.01682
G1 X152.644 Y116.288 E2.08619
G1 X152.643 Y116.822 E.01678
G1 X105.178 Y69.357 E2.10991
G1 X104.643 Y69.357 E.01682
G1 X152.643 Y117.357 E2.13369
G1 X152.643 Y117.891 E.01678
G1 X104.109 Y69.357 E2.15743
G1 X103.574 Y69.357 E.01682
G1 X152.643 Y118.426 E2.18121
G1 X152.643 Y118.96 E.01678
G1 X103.04 Y69.357 E2.20495
G1 X102.505 Y69.357 E.01682
G1 X152.643 Y119.495 E2.22873
G1 X152.643 Y120.03 E.01682
G1 X101.97 Y69.357 E2.25251
G1 X101.436 Y69.357 E.01678
G1 X152.643 Y120.564 E2.27625
G1 X152.643 Y121.099 E.01682
G1 X100.901 Y69.357 E2.30003
G1 X100.367 Y69.357 E.01678
G1 X152.643 Y121.633 E2.32377
G1 X152.643 Y122.168 E.01682
G1 X99.832 Y69.357 E2.34755
G1 X99.298 Y69.357 E.01678
G1 X152.643 Y122.702 E2.37129
G1 X152.643 Y123.237 E.01682
G1 X98.763 Y69.357 E2.39507
G1 X98.228 Y69.357 E.01682
G1 X152.643 Y123.772 E2.41885
G1 X152.643 Y124.306 E.01678
G1 X97.694 Y69.357 E2.44259
G1 X97.159 Y69.357 E.01682
G1 X152.643 Y124.841 E2.46637
G1 X152.643 Y125.375 E.01678
G1 X96.625 Y69.357 E2.49011
G1 X96.09 Y69.357 E.01682
G1 X152.643 Y125.91 E2.51389
G1 X152.643 Y126.445 E.01682
G1 X95.555 Y69.357 E2.53767
G1 X95.021 Y69.357 E.01678
G1 X152.643 Y126.979 E2.56141
G1 X152.643 Y127.514 E.01682
G1 X94.486 Y69.357 E2.58519
G1 X93.952 Y69.357 E.01678
G1 X152.643 Y128.048 E2.60893
G1 X152.643 Y128.583 E.01682
G1 X93.417 Y69.357 E2.63271
G1 X92.883 Y69.357 E.01678
G1 X152.643 Y129.117 E2.65645
G1 X152.643 Y129.652 E.01682
G1 X92.348 Y69.357 E2.68023
G1 X91.813 Y69.357 E.01682
G1 X152.643 Y130.187 E2.70401
G1 X152.643 Y130.721 E.01678
G1 X91.279 Y69.357 E2.72775
G1 X90.744 Y69.357 E.01682
G1 X152.643 Y131.256 E2.75153
G1 X152.643 Y131.79 E.01678
G1 X90.21 Y69.357 E2.77527
G1 X89.675 Y69.357 E.01682
G1 X152.643 Y132.325 E2.79905
G1 X152.643 Y132.859 E.01678
G1 X89.141 Y69.357 E2.82278
G1 X88.606 Y69.357 E.01682
G1 X152.643 Y133.394 E2.84657
G1 X152.643 Y133.929 E.01682
G1 X88.071 Y69.357 E2.87035
G1 X87.537 Y69.357 E.01678
G1 X152.643 Y134.463 E2.89409
G1 X152.643 Y134.998 E.01682
G1 X87.002 Y69.357 E2.91787
G1 X86.468 Y69.357 E.01678
G1 X152.643 Y135.532 E2.9416
G1 X152.643 Y136.067 E.01682
G1 X85.933 Y69.357 E2.96539
G1 X85.399 Y69.357 E.01678
G1 X152.643 Y136.601 E2.98912
G1 X152.643 Y137.136 E.01682
G1 X84.864 Y69.357 E3.01291
G1 X84.329 Y69.357 E.01682
G1 X152.643 Y137.671 E3.03669
G1 X152.643 Y138.205 E.01678
G1 X83.795 Y69.357 E3.06042
G1 X83.26 Y69.357 E.01682
G1 X152.643 Y138.74 E3.08421
G1 X152.643 Y139.274 E.01678
G1 X82.726 Y69.357 E3.10794
G1 X82.191 Y69.357 E.01682
G1 X152.643 Y139.809 E3.13173
G1 X152.643 Y140.343 E.01678
G1 X81.656 Y69.357 E3.15549
G1 X81.122 Y69.357 E.01678
G1 X152.642 Y140.878 E3.17922
G1 X152.642 Y141.413 E.01682
G1 X80.587 Y69.357 E3.203
G1 X80.053 Y69.357 E.01678
G1 X152.642 Y141.947 E3.22674
G1 X152.642 Y142.482 E.01682
G1 X79.518 Y69.357 E3.25052
G1 X78.984 Y69.357 E.01678
G1 X152.642 Y143.016 E3.27426
G1 X152.642 Y143.551 E.01682
G1 X78.449 Y69.358 E3.29802
G1 X77.914 Y69.358 E.01682
G1 X152.642 Y144.085 E3.32178
G1 X152.642 Y144.62 E.01682
G1 X77.38 Y69.358 E3.34554
G1 X76.845 Y69.358 E.01682
G1 X152.642 Y145.155 E3.36932
G1 X152.642 Y145.689 E.01678
G1 X76.311 Y69.358 E3.39306
G1 X75.776 Y69.358 E.01682
G1 X152.642 Y146.224 E3.41684
G1 X152.642 Y146.758 E.01678
G1 X75.242 Y69.358 E3.44058
G1 X74.707 Y69.358 E.01682
G1 X152.642 Y147.293 E3.46436
G1 X152.642 Y147.827 E.01678
G1 X74.172 Y69.358 E3.48812
G1 X73.638 Y69.358 E.01678
G1 X152.642 Y148.362 E3.51188
G1 X152.642 Y148.897 E.01682
G1 X73.103 Y69.358 E3.53566
G1 X72.569 Y69.358 E.01678
G1 X152.642 Y149.431 E3.5594
G1 X152.642 Y149.966 E.01682
G1 X72.034 Y69.358 E3.58318
G1 X71.5 Y69.358 E.01678
G1 X152.642 Y150.5 E3.60692
G1 X152.642 Y150.642 E.00446
G1 X152.249 Y150.642 E.01235
G1 X70.965 Y69.358 E3.61323
G1 X70.43 Y69.358 E.01682
G1 X151.715 Y150.642 E3.61325
G1 X151.18 Y150.642 E.01682
G1 X69.896 Y69.358 E3.61323
G1 X69.361 Y69.358 E.01682
G1 X150.645 Y150.642 E3.61323
G1 X150.111 Y150.642 E.01678
G1 X68.827 Y69.358 E3.61323
G1 X68.292 Y69.358 E.01682
G1 X149.576 Y150.642 E3.61323
G1 X149.042 Y150.642 E.01678
G1 X67.757 Y69.358 E3.61325
G1 X67.358 Y69.358 E.01254
G1 X67.358 Y69.493 E.00424
G1 X148.507 Y150.642 E3.60723
G1 X147.972 Y150.642 E.01682
G1 X67.358 Y70.028 E3.58345
G1 X67.358 Y70.562 E.01678
G1 X147.438 Y150.642 E3.55971
G1 X146.903 Y150.642 E.01682
G1 X67.358 Y71.097 E3.53593
G1 X67.358 Y71.631 E.01678
G1 X146.369 Y150.642 E3.51219
G1 X145.834 Y150.642 E.01682
G1 X67.358 Y72.166 E3.48841
G1 X67.358 Y72.701 E.01682
G1 X145.299 Y150.642 E3.46463
G1 X144.765 Y150.642 E.01678
G1 X67.358 Y73.235 E3.44089
G1 X67.358 Y73.77 E.01682
G1 X144.23 Y150.642 E3.41711
G1 X143.696 Y150.642 E.01678
G1 X67.358 Y74.304 E3.39337
G1 X67.358 Y74.839 E.01682
G1 X143.161 Y150.642 E3.36959
G1 X142.626 Y150.642 E.01682
G1 X67.358 Y75.374 E3.34581
G1 X67.358 Y75.908 E.01678
G1 X142.092 Y150.642 E3.32207
G1 X141.557 Y150.642 E.01682
G1 X67.358 Y76.443 E3.29829
G1 X67.358 Y76.977 E.01678
G1 X141.023 Y150.642 E3.27455
G1 X140.488 Y150.642 E.01682
G1 X67.358 Y77.512 E3.25077
G1 X67.358 Y78.047 E.01682
G1 X139.953 Y150.642 E3.22699
G1 X139.419 Y150.642 E.01678
G1 X67.358 Y78.581 E3.20325
G1 X67.358 Y79.116 E.01682
G1 X138.884 Y150.642 E3.17947
G1 X138.35 Y150.642 E.01678
G1 X67.358 Y79.65 E3.15573
G1 X67.358 Y80.185 E.01682
G1 X137.815 Y150.642 E3.13195
G1 X137.281 Y150.642 E.01678
G1 X67.358 Y80.72 E3.10819
G1 X67.358 Y81.254 E.01678
G1 X136.746 Y150.642 E3.08443
G1 X136.211 Y150.642 E.01682
G1 X67.358 Y81.789 E3.06065
G1 X67.358 Y82.323 E.01678
G1 X135.677 Y150.642 E3.03691
G1 X135.142 Y150.642 E.01682
G1 X67.358 Y82.858 E3.01313
G1 X67.358 Y83.392 E.01678
G1 X134.608 Y150.642 E2.98939
G1 X134.073 Y150.642 E.01682
G1 X67.358 Y83.927 E2.96561
