; generated by PrusaSlicer 2.7.1 on 2025-06-09 at 17:12:00 UTC


;
;

;
;
; 

; external perimeters extrusion width = 0.42mm
; perimeters extrusion width = 0.44mm
; infill extrusion width = 0.44mm
; solid infill extrusion width = 0.44mm
; top infill extrusion width = 0.40mm
; first layer extrusion width = 0.42mm



; Pre-Processed for Cancel-Object support by preprocess_cancellation v0.2.0
; 1 known objects
EXCLUDE_OBJECT_DEFINE NAME=Slim_enclosure_for_Heltec_Wireless_Tracker__M5Stack_CardKB_Lid_Reinforced_fixed_stl_stl_id_0_copy_0 CENTER=108.012,102.301 POLYGON=[[64.42,66.426],[64.42,153.574],[155.58,153.574],[155.58,66.426]]
M201 X500 Y500 Z100 E5000 ; sets maximum accelerations, mm/sec^2
M203 X500 Y500 Z10 E60 ; sets maximum feedrates, mm / sec
M204 S500 T1000 ; sets acceleration (S) and retract acceleration (R), mm/sec^2
M205 X8.00 Y8.00 Z0.40 E5.00 ; sets the jerk limits, mm/sec
M205 S0 T0 ; sets the minimum extruding and travel feed rate, mm/sec

; printing object Slim_enclosure_for_Heltec_Wireless_Tracker__M5Stack_CardKB_Lid_Reinforced_fixed.stl.stl id:0 copy 0
EXCLUDE_OBJECT_START NAME=Slim_enclosure_for_Heltec_Wireless_Tracker__M5Stack_CardKB_Lid_Reinforced_fixed_stl_stl_id_0_copy_0
; stop printing object Slim_enclosure_for_Heltec_Wireless_Tracker__M5Stack_CardKB_Lid_Reinforced_fixed.stl.stl id:0 copy 0
EXCLUDE_OBJECT_END NAME=Slim_enclosure_for_Heltec_Wireless_Tracker__M5Stack_CardKB_Lid_Reinforced_fixed_stl_stl_id_0_copy_0

;TYPE:Custom
G90 ; use absolute coordinates
M83 ; extruder relative mode
G28
M109 S0
M190 S0
start_print EXTRUDER_TEMP=210 BED_TEMP=60

M104 S150 ; set temporary nozzle temp to prevent oozing during homing
M140 S60 ; set final bed temp
G4 S30 ; allow partial nozzle warmup
G28 ; home all axis and restore leveling

G1 Z50 F240
G1 X2.0 Y10 F3000
M104 S210 ; set final nozzle temp
M190 S60 ; wait for bed temp to stabilize
M109 S210 ; wait for nozzle temp to stabilize
G1 Z0.28 F240
G92 E0
G1 X2.0 Y140 E10 F1500 ; prime the nozzle
G1 X2.3 Y140 F5000
G92 E0
G1 X2.3 Y10 E10 F1200 ; prime the nozzle
G92 E0
G21 ; set units to millimeters
G90 ; use absolute coordinates
M83 ; use relative distances for extrusion
; Filament gcode
M107
;LAYER_CHANGE
;Z:0.2
;HEIGHT:0.2
;BEFORE_LAYER_CHANGE
G92 E0
;0.2


G1 E-.8 F1800
G1 Z.2 F9000
;AFTER_LAYER_CHANGE
;0.2
G1 X62.447 Y63.83
G1 Z.2
G1 E.8 F1800
M204 S500
;TYPE:Skirt/Brim
;WIDTH:0.42
G1 F1200
G1 X63.659 Y63.13 E.04388
G1 X64.51 Y62.902 E.02762
G1 X65.203 Y62.84 E.02182
G1 X155.231 Y62.868 E2.82276
G1 X156.583 Y63.23 E.04388
G1 X157.346 Y63.671 E.02763
G1 X158.177 Y64.453 E.03578
G1 X158.876 Y65.665 E.04387
G1 X159.104 Y66.516 E.02762
G1 X159.167 Y67.21 E.02185
G1 X159.167 Y152.784 E2.68311
G1 X159.104 Y153.484 E.02204
G1 X158.776 Y154.576 E.03575
G1 X158.336 Y155.34 E.02764
G1 X157.553 Y156.17 E.03578
G1 X156.341 Y156.87 E.04388
G1 X155.49 Y157.098 E.02762
G1 X154.79 Y157.161 E.02204
G1 X65.21 Y157.161 E2.80872
G1 X64.51 Y157.098 E.02204
G1 X63.417 Y156.77 E.03578
G1 X62.654 Y156.329 E.02763
G1 X61.823 Y155.547 E.03578
G1 X61.124 Y154.335 E.04387
G1 X60.896 Y153.484 E.02762
G1 X60.833 Y152.784 E.02204
G1 X60.833 Y67.216 E2.68292
G1 X60.896 Y66.516 E.02204
G1 X61.224 Y65.424 E.03575
G1 X61.823 Y64.453 E.03577
G1 X62.404 Y63.872 E.02576
; printing object Slim_enclosure_for_Heltec_Wireless_Tracker__M5Stack_CardKB_Lid_Reinforced_fixed.stl.stl id:0 copy 0
EXCLUDE_OBJECT_START NAME=Slim_enclosure_for_Heltec_Wireless_Tracker__M5Stack_CardKB_Lid_Reinforced_fixed_stl_stl_id_0_copy_0
;WIPE_START
G1 F7200
G1 X62.447 Y63.83 E-.01428
G1 X63.659 Y63.13 E-.33241
G1 X64.51 Y62.902 E-.20924
G1 X65.203 Y62.84 E-.16524
G1 X65.535 Y62.84 E-.07883
;WIPE_END
G1 X66.437 Y72.002 F9000
G1 E.8 F1800
;TYPE:Perimeter
;WIDTH:0.419999
G1 F1200
G1 X66.231 Y72.043 E.00659
G1 X65.839 Y72.347 E.01555
G1 X65.651 Y72.913 E.0187
;WIDTH:0.419808
G1 X65.651 Y79.29 E.19984
G1 X65.274 Y79.29 E.01181
G1 X65.274 Y72.913 E.19984
;WIDTH:0.419999
G1 X65.279 Y67.28 E.17662
G1 X154.726 Y67.286 E2.80454
G1 X154.721 Y152.72 E2.67872
G1 X65.28 Y152.72 E2.80436
G1 X65.274 Y95.827 E1.78384
;WIDTH:0.419808
G1 X65.274 Y90.45 E.16851
G1 X65.651 Y90.45 E.01181
G1 X65.651 Y95.827 E.16851
;WIDTH:0.428378
G1 X65.661 Y95.99 E.00523
G1 X65.839 Y96.392 E.01409
;WIDTH:0.419999
G1 X66.231 Y96.697 E.01557
G1 X66.593 Y96.769 E.01157
G1 X73.357 Y96.769 E.21208
G1 X73.712 Y96.7 E.01134
G1 X74.02 Y96.496 E.01158
G1 X74.216 Y96.215 E.01074
G1 X74.299 Y95.827 E.01244
G1 X74.299 Y89.264 E.20578
G1 X74.254 Y88.975 E.00917
G1 X74.199 Y88.935 E.00213
G1 X74.199 Y79.805 E.28626
G1 X74.254 Y79.765 E.00213
G1 X74.299 Y79.476 E.00917
G1 X74.299 Y73.357 E.19186
G1 X74.283 Y72.74 E.01935
G1 X74.202 Y72.496 E.00806
G1 X73.993 Y72.217 E.01093
G1 X73.749 Y72.056 E.00917
G1 X73.357 Y71.97 E.01258
G1 X66.593 Y71.97 E.21208
G1 X66.496 Y71.99 E.00311
G1 X66.515 Y72.363 F9000
G1 F1200
G1 X66.376 Y72.391 E.00445
G1 X66.141 Y72.574 E.00934
G1 X66.028 Y72.913 E.0112
G1 X66.028 Y79.667 E.21177
G1 X64.897 Y79.667 E.03546
G1 X64.897 Y67.286 E.3882
G1 X64.913 Y67.137 E.0047
G1 X65.024 Y66.975 E.00616
G1 X65.255 Y66.903 E.00759
G1 X154.72 Y66.903 E2.80511
G1 X154.907 Y66.935 E.00595
G1 X155.056 Y67.062 E.00614
G1 X155.103 Y67.286 E.00718
G1 X155.103 Y152.714 E2.67853
G1 X155.087 Y152.863 E.0047
G1 X154.976 Y153.025 E.00616
G1 X154.745 Y153.097 E.00759
G1 X65.28 Y153.097 E2.80511
G1 X65.13 Y153.081 E.00473
G1 X64.968 Y152.969 E.00618
G1 X64.897 Y152.739 E.00755
G1 X64.897 Y90.073 E1.96485
G1 X66.028 Y90.073 E.03546
G1 X66.028 Y95.827 E.18041
G1 X66.141 Y96.166 E.0112
G1 X66.376 Y96.349 E.00934
G1 X66.593 Y96.392 E.00694
G1 X73.357 Y96.392 E.21208
G1 X73.449 Y96.385 E.00289
G1 X73.709 Y96.269 E.00893
G1 X73.872 Y96.06 E.00831
G1 X73.922 Y95.827 E.00747
G1 X73.922 Y89.264 E.20578
G1 X73.895 Y89.091 E.00549
G1 X73.822 Y89.038 E.00283
G1 X73.822 Y79.702 E.29272
G1 X73.895 Y79.649 E.00283
G1 X73.922 Y79.476 E.00549
G1 X73.913 Y72.809 E.20904
G1 X73.793 Y72.554 E.00884
G1 X73.592 Y72.399 E.00796
G1 X73.357 Y72.347 E.00755
G1 X66.593 Y72.347 E.21208
G1 X66.574 Y72.351 E.00061
G1 X66.593 Y72.724 F9000
;TYPE:External perimeter
G1 F1200
G1 X66.442 Y72.8 E.0053
G1 X66.405 Y72.913 E.00373
G1 X66.405 Y80.044 E.22359
G1 X64.52 Y80.044 E.0591
G1 X64.52 Y67.236 E.40159
G1 X64.614 Y66.872 E.01179
G1 X64.866 Y66.621 E.01115
G1 X65.23 Y66.526 E.0118
G1 X154.72 Y66.526 E2.80589
G1 X154.968 Y66.552 E.00782
G1 X155.276 Y66.73 E.01115
G1 X155.42 Y66.955 E.00838
G1 X155.48 Y67.286 E.01055
G1 X155.48 Y152.764 E2.6801
G1 X155.386 Y153.128 E.01179
G1 X155.134 Y153.379 E.01115
G1 X154.77 Y153.474 E.0118
G1 X65.23 Y153.474 E2.80746
G1 X64.866 Y153.379 E.0118
G1 X64.614 Y153.128 E.01115
G1 X64.52 Y152.764 E.01179
G1 X64.52 Y89.696 E1.97745
G1 X66.405 Y89.696 E.0591
G1 X66.405 Y95.827 E.19223
G1 X66.442 Y95.94 E.00373
G1 X66.593 Y96.015 E.00529
G1 X73.357 Y96.015 E.21208
G1 X73.474 Y95.974 E.00389
G1 X73.545 Y95.827 E.00512
G1 X73.545 Y89.264 E.20578
G1 X73.536 Y89.206 E.00184
G1 X73.445 Y89.14 E.00352
G1 X73.445 Y79.6 E.29912
G1 X73.536 Y79.533 E.00354
G1 X73.545 Y79.476 E.00181
G1 X73.545 Y72.913 E.20578
G1 X73.502 Y72.793 E.004
G1 X73.357 Y72.724 E.00503
G1 X66.653 Y72.724 E.2102
;WIPE_START
G1 F7200
G1 X66.593 Y72.724 E-.01425
G1 X66.442 Y72.8 E-.04015
G1 X66.405 Y72.913 E-.02824
G1 X66.405 Y75.934 E-.71736
;WIPE_END
G1 X76.598 Y73.008 F9000
G1 E.8 F1800
;TYPE:Perimeter
G1 F1200
G1 X76.764 Y72.592 E.01404
G1 X77.095 Y72.164 E.01696
G1 X77.413 Y71.912 E.01272
G1 X77.897 Y71.676 E.01688
G1 X78.418 Y71.576 E.01663
G1 X78.541 Y71.568 E.00386
G1 X130.224 Y71.568 E1.62048
G1 X130.63 Y71.613 E.01281
G1 X131.138 Y71.789 E.01686
G1 X131.584 Y72.09 E.01687
G1 X131.936 Y72.497 E.01687
G1 X132.171 Y72.98 E.01684
G1 X132.272 Y73.501 E.01664
G1 X132.28 Y73.624 E.00386
G1 X132.28 Y94.212 E.64552
G1 X132.211 Y94.739 E.01666
G1 X132.004 Y95.238 E.01694
G1 X131.692 Y95.649 E.01618
G1 X131.266 Y95.982 E.01695
G1 X130.797 Y96.185 E.01602
G1 X130.224 Y96.268 E.01815
G1 X78.541 Y96.268 E1.62048
G1 X78.026 Y96.202 E.01628
G1 X77.534 Y96.003 E.01664
G1 X77.096 Y95.672 E.01721
G1 X76.746 Y95.211 E.01815
G1 X76.536 Y94.657 E.01858
G1 X76.484 Y94.212 E.01405
G1 X76.484 Y73.624 E.64552
G1 X76.542 Y73.147 E.01507
G1 X76.575 Y73.063 E.00283
G1 X76.929 Y73.202 F9000
G1 F1200
G1 X76.942 Y73.125 E.00245
G1 X77.128 Y72.726 E.0138
G1 X77.411 Y72.389 E.0138
G1 X77.771 Y72.137 E.01378
G1 X78.184 Y71.987 E.01378
G1 X78.541 Y71.945 E.01127
G1 X130.224 Y71.945 E1.62048
G1 X130.723 Y72.025 E.01585
G1 X131.122 Y72.211 E.0138
G1 X131.459 Y72.494 E.0138
G1 X131.711 Y72.854 E.01378
G1 X131.861 Y73.267 E.01378
G1 X131.903 Y73.624 E.01127
G1 X131.903 Y94.212 E.64552
G1 X131.823 Y94.711 E.01585
G1 X131.637 Y95.109 E.01377
G1 X131.354 Y95.446 E.0138
G1 X130.994 Y95.698 E.01378
G1 X130.581 Y95.849 E.01379
G1 X130.224 Y95.891 E.01127
G1 X78.541 Y95.891 E1.62048
G1 X78.042 Y95.811 E.01585
G1 X77.643 Y95.625 E.0138
G1 X77.306 Y95.342 E.0138
G1 X77.054 Y94.981 E.0138
G1 X76.907 Y94.592 E.01304
G1 X76.862 Y94.212 E.012
G1 X76.862 Y73.624 E.64552
G1 X76.92 Y73.262 E.01149
G1 X77.29 Y73.269 F9000
;TYPE:External perimeter
G1 F1200
G1 X77.427 Y72.956 E.01071
G1 X77.64 Y72.688 E.01073
G1 X77.915 Y72.485 E.01072
G1 X78.233 Y72.36 E.01071
G1 X78.541 Y72.322 E.00973
G1 X130.224 Y72.322 E1.62048
G1 X130.579 Y72.373 E.01125
G1 X130.892 Y72.51 E.01071
G1 X131.16 Y72.723 E.01073
G1 X131.363 Y72.998 E.01072
G1 X131.487 Y73.317 E.01073
G1 X131.526 Y73.624 E.0097
G1 X131.526 Y94.212 E.64552
G1 X131.475 Y94.566 E.01121
G1 X131.338 Y94.88 E.01074
G1 X131.125 Y95.147 E.01071
G1 X130.85 Y95.35 E.01072
G1 X130.531 Y95.475 E.01074
G1 X130.224 Y95.514 E.0097
G1 X78.541 Y95.514 E1.62048
G1 X78.186 Y95.462 E.01125
G1 X77.873 Y95.325 E.01071
G1 X77.605 Y95.112 E.01073
G1 X77.402 Y94.837 E.01072
G1 X77.279 Y94.527 E.01046
G1 X77.239 Y94.212 E.00996
G1 X77.239 Y73.624 E.64552
G1 X77.282 Y73.328 E.00938
;WIPE_START
G1 F7200
G1 X77.29 Y73.269 E-.01414
G1 X77.427 Y72.956 E-.08115
G1 X77.64 Y72.688 E-.0813
G1 X77.915 Y72.485 E-.08118
G1 X78.233 Y72.36 E-.08115
G1 X78.541 Y72.322 E-.0737
G1 X80.172 Y72.322 E-.38738
;WIPE_END
G1 X154.605 Y68.164 F9000
G1 E.8 F1800
;TYPE:Solid infill
;WIDTH:0.420226
G1 F1200
G1 X154.012 Y67.571 E.02631
G1 X153.479 Y67.571 E.01672
G1 X154.436 Y68.527 E.04244
G1 X154.436 Y69.061 E.01675
G1 X152.945 Y67.571 E.06613
G1 X152.412 Y67.571 E.01672
G1 X154.436 Y69.595 E.0898
G1 X154.436 Y70.128 E.01672
G1 X151.878 Y67.571 E.11347
G1 X151.344 Y67.571 E.01675
G1 X154.436 Y70.662 E.13716
G1 X154.436 Y71.195 E.01672
G1 X150.811 Y67.571 E.16081
G1 X150.277 Y67.571 E.01675
G1 X154.436 Y71.729 E.18451
G1 X154.436 Y72.263 E.01675
G1 X149.744 Y67.571 E.20818
G1 X149.21 Y67.571 E.01675
G1 X154.436 Y72.796 E.23185
G1 X154.436 Y73.33 E.01675
G1 X148.676 Y67.571 E.25554
G1 X148.143 Y67.571 E.01672
G1 X154.436 Y73.863 E.27919
G1 X154.436 Y74.397 E.01675
G1 X147.609 Y67.571 E.30288
G1 X147.076 Y67.571 E.01672
G1 X154.436 Y74.931 E.32655
G1 X154.436 Y75.464 E.01672
G1 X146.542 Y67.571 E.35022
G1 X146.009 Y67.571 E.01672
G1 X154.436 Y75.998 E.37389
G1 X154.436 Y76.531 E.01672
G1 X145.475 Y67.571 E.39756
G1 X144.941 Y67.571 E.01675
G1 X154.436 Y77.065 E.42125
G1 X154.436 Y77.599 E.01675
G1 X144.408 Y67.571 E.44493
G1 X143.874 Y67.571 E.01675
G1 X154.436 Y78.132 E.4686
G1 X154.436 Y78.666 E.01675
G1 X143.341 Y67.571 E.49227
G1 X142.807 Y67.571 E.01675
G1 X154.436 Y79.199 E.51594
G1 X154.436 Y79.733 E.01675
G1 X142.273 Y67.571 E.53963
G1 X141.74 Y67.571 E.01672
G1 X154.436 Y80.266 E.56328
G1 X154.436 Y80.8 E.01675
G1 X141.206 Y67.571 E.58697
G1 X140.673 Y67.571 E.01672
G1 X154.436 Y81.334 E.61064
G1 X154.436 Y81.867 E.01672
G1 X140.139 Y67.571 E.63431
G1 X139.605 Y67.571 E.01675
G1 X154.436 Y82.401 E.658
G1 X154.436 Y82.934 E.01672
G1 X139.072 Y67.571 E.68165
G1 X138.538 Y67.571 E.01675
G1 X154.436 Y83.468 E.70535
G1 X154.436 Y84.002 E.01675
G1 X138.005 Y67.571 E.72902
G1 X137.471 Y67.571 E.01675
G1 X154.436 Y84.535 E.75269
G1 X154.436 Y85.069 E.01675
G1 X136.937 Y67.571 E.77638
G1 X136.404 Y67.571 E.01672
G1 X154.436 Y85.602 E.80003
G1 X154.436 Y86.136 E.01675
G1 X135.87 Y67.571 E.82372
G1 X135.337 Y67.571 E.01672
G1 X154.436 Y86.67 E.84739
G1 X154.436 Y87.203 E.01672
G1 X134.803 Y67.571 E.87106
G1 X134.27 Y67.571 E.01672
G1 X154.436 Y87.737 E.89473
G1 X154.436 Y88.27 E.01672
G1 X133.736 Y67.571 E.9184
G1 X133.202 Y67.571 E.01675
G1 X154.436 Y88.804 E.94209
G1 X154.436 Y89.338 E.01675
G1 X132.669 Y67.571 E.96576
G1 X132.135 Y67.571 E.01675
G1 X154.436 Y89.871 E.98944
G1 X154.436 Y90.405 E.01675
G1 X131.602 Y67.571 E1.01311
G1 X131.068 Y67.571 E.01675
G1 X154.436 Y90.938 E1.03678
G1 X154.436 Y91.472 E.01675
G1 X130.534 Y67.571 E1.06047
G1 X130.001 Y67.571 E.01672
G1 X154.436 Y92.005 E1.08412
G1 X154.436 Y92.539 E.01675
G1 X129.467 Y67.571 E1.10781
G1 X128.934 Y67.571 E.01672
G1 X154.436 Y93.073 E1.13148
G1 X154.436 Y93.606 E.01672
G1 X128.4 Y67.571 E1.15515
G1 X127.866 Y67.571 E.01675
G1 X154.436 Y94.14 E1.17884
G1 X154.436 Y94.673 E.01672
G1 X127.333 Y67.571 E1.20249
G1 X126.799 Y67.571 E.01675
G1 X130.54 Y71.311 E.16596
G1 X130.23 Y71.277 E.00978
G1 X129.972 Y71.277 E.00809
G1 X126.266 Y67.571 E.16443
G1 X125.732 Y67.571 E.01675
G1 X129.439 Y71.277 E.16445
G1 X128.905 Y71.277 E.01675
G1 X125.198 Y67.571 E.16445
G1 X124.665 Y67.571 E.01672
G1 X128.372 Y71.277 E.16445
G1 X127.838 Y71.277 E.01675
G1 X124.131 Y67.571 E.16445
G1 X123.598 Y67.571 E.01672
G1 X127.304 Y71.277 E.16443
G1 X126.771 Y71.277 E.01672
G1 X123.064 Y67.571 E.16445
G1 X122.531 Y67.571 E.01672
G1 X126.237 Y71.277 E.16443
G1 X125.704 Y71.277 E.01672
G1 X121.997 Y67.571 E.16445
G1 X121.463 Y67.571 E.01675
G1 X125.17 Y71.277 E.16445
G1 X124.636 Y71.277 E.01675
G1 X120.93 Y67.571 E.16443
G1 X120.396 Y67.571 E.01675
G1 X124.103 Y71.277 E.16445
G1 X123.569 Y71.277 E.01675
G1 X119.863 Y67.571 E.16443
G1 X119.329 Y67.571 E.01675
G1 X123.036 Y71.277 E.16445
G1 X122.502 Y71.277 E.01675
G1 X118.795 Y67.571 E.16445
G1 X118.262 Y67.571 E.01672
G1 X121.968 Y71.277 E.16443
G1 X121.435 Y71.277 E.01672
G1 X117.728 Y67.571 E.16445
G1 X117.195 Y67.571 E.01672
G1 X120.901 Y71.277 E.16443
G1 X120.368 Y71.277 E.01672
G1 X116.661 Y67.571 E.16445
G1 X116.127 Y67.571 E.01675
G1 X119.834 Y71.277 E.16445
G1 X119.3 Y71.277 E.01675
G1 X115.594 Y67.571 E.16443
G1 X115.06 Y67.571 E.01675
G1 X118.767 Y71.277 E.16445
G1 X118.233 Y71.277 E.01675
G1 X114.527 Y67.571 E.16443
G1 X113.993 Y67.571 E.01675
G1 X117.7 Y71.277 E.16445
G1 X117.166 Y71.277 E.01675
G1 X113.459 Y67.571 E.16445
G1 X112.926 Y67.571 E.01672
G1 X116.633 Y71.277 E.16445
G1 X116.099 Y71.277 E.01675
G1 X112.392 Y67.571 E.16445
G1 X111.859 Y67.571 E.01672
G1 X115.565 Y71.277 E.16443
G1 X115.032 Y71.277 E.01672
G1 X111.325 Y67.571 E.16445
G1 X110.792 Y67.571 E.01672
G1 X114.498 Y71.277 E.16443
G1 X113.965 Y71.277 E.01672
G1 X110.258 Y67.571 E.16445
G1 X109.724 Y67.571 E.01675
G1 X113.431 Y71.277 E.16445
G1 X112.897 Y71.277 E.01675
G1 X109.191 Y67.571 E.16443
G1 X108.657 Y67.571 E.01675
G1 X112.364 Y71.277 E.16445
G1 X111.83 Y71.277 E.01675
G1 X108.124 Y67.571 E.16443
G1 X107.59 Y67.571 E.01675
G1 X111.297 Y71.277 E.16445
G1 X110.763 Y71.277 E.01675
G1 X107.056 Y67.571 E.16445
G1 X106.523 Y67.571 E.01672
G1 X110.229 Y71.277 E.16443
G1 X109.696 Y71.277 E.01672
G1 X105.989 Y67.571 E.16445
G1 X105.456 Y67.571 E.01672
G1 X109.162 Y71.277 E.16443
G1 X108.629 Y71.277 E.01672
G1 X104.922 Y67.571 E.16445
G1 X104.388 Y67.571 E.01675
G1 X108.095 Y71.277 E.16445
G1 X107.561 Y71.277 E.01675
G1 X103.855 Y67.571 E.16443
G1 X103.321 Y67.571 E.01675
G1 X107.028 Y71.277 E.16445
G1 X106.494 Y71.277 E.01675
G1 X102.788 Y67.571 E.16443
G1 X102.254 Y67.571 E.01675
G1 X105.961 Y71.277 E.16445
G1 X105.427 Y71.277 E.01675
G1 X101.72 Y67.571 E.16445
G1 X101.187 Y67.571 E.01672
G1 X104.894 Y71.277 E.16445
G1 X104.36 Y71.277 E.01675
G1 X100.653 Y67.571 E.16445
G1 X100.12 Y67.571 E.01672
G1 X103.826 Y71.277 E.16443
G1 X103.293 Y71.277 E.01672
G1 X99.586 Y67.571 E.16445
G1 X99.052 Y67.571 E.01675
G1 X102.759 Y71.277 E.16445
G1 X102.226 Y71.277 E.01672
