; generated by PrusaSlicer 2.7.1 on 2025-02-03 at 17:34:13 UTC


;
;

;
;
; 

; external perimeters extrusion width = 0.42mm
; perimeters extrusion width = 0.44mm
; infill extrusion width = 0.44mm
; solid infill extrusion width = 0.44mm
; top infill extrusion width = 0.40mm
; first layer extrusion width = 0.42mm



; Pre-Processed for Cancel-Object support by preprocess_cancellation v0.2.0
; 1 known objects
EXCLUDE_OBJECT_DEFINE NAME=Slim_enclosure_for_Heltec_Wireless_Tracker__M5Stack_CardKB_Lid_stl_id_0_copy_0 CENTER=108.261,103.608 POLYGON=[[65.296,67.302],[65.296,152.698],[154.704,152.698],[154.704,67.302]]
M201 X500 Y500 Z100 E5000 ; sets maximum accelerations, mm/sec^2
M203 X500 Y500 Z10 E60 ; sets maximum feedrates, mm / sec
M204 S500 T1000 ; sets acceleration (S) and retract acceleration (R), mm/sec^2
M205 X8.00 Y8.00 Z0.40 E5.00 ; sets the jerk limits, mm/sec
M205 S0 T0 ; sets the minimum extruding and travel feed rate, mm/sec

; printing object Slim_enclosure_for_Heltec_Wireless_Tracker__M5Stack_CardKB_Lid.stl id:0 copy 0
EXCLUDE_OBJECT_START NAME=Slim_enclosure_for_Heltec_Wireless_Tracker__M5Stack_CardKB_Lid_stl_id_0_copy_0
; stop printing object Slim_enclosure_for_Heltec_Wireless_Tracker__M5Stack_CardKB_Lid.stl id:0 copy 0
EXCLUDE_OBJECT_END NAME=Slim_enclosure_for_Heltec_Wireless_Tracker__M5Stack_CardKB_Lid_stl_id_0_copy_0

;TYPE:Custom
G90 ; use absolute coordinates
M83 ; extruder relative mode
G28
M109 S0
M190 S0
start_print EXTRUDER_TEMP=210 BED_TEMP=60

M104 S150 ; set temporary nozzle temp to prevent oozing during homing
M140 S60 ; set final bed temp
G4 S30 ; allow partial nozzle warmup
G28 ; home all axis and restore leveling

G1 Z50 F240
G1 X2.0 Y10 F3000
M104 S210 ; set final nozzle temp
M190 S60 ; wait for bed temp to stabilize
M109 S210 ; wait for nozzle temp to stabilize
G1 Z0.28 F240
G92 E0
G1 X2.0 Y140 E10 F1500 ; prime the nozzle
G1 X2.3 Y140 F5000
G92 E0
G1 X2.3 Y10 E10 F1200 ; prime the nozzle
G92 E0
G21 ; set units to millimeters
G90 ; use absolute coordinates
M83 ; use relative distances for extrusion
; Filament gcode
M107
;LAYER_CHANGE
;Z:0.2
;HEIGHT:0.2
;BEFORE_LAYER_CHANGE
G92 E0
;0.2


G1 E-.8 F1800
G1 Z.2 F9000
;AFTER_LAYER_CHANGE
;0.2
G1 X62.783 Y65.413
G1 Z.2
G1 E.8 F1800
M204 S500
;TYPE:Skirt/Brim
;WIDTH:0.42
G1 F1200
G1 X63.656 Y64.598 E.03745
G1 X64.419 Y64.157 E.02763
G1 X65.561 Y63.809 E.03743
G1 X66.297 Y63.741 E.02318
G1 X154.127 Y63.768 E2.75385
G1 X155.581 Y64.157 E.04719
G1 X156.344 Y64.598 E.02763
G1 X157.217 Y65.413 E.03745
G1 X157.969 Y66.716 E.04717
G1 X158.197 Y67.567 E.02762
G1 X158.267 Y68.32 E.02371
G1 X158.267 Y151.68 E2.61369
G1 X158.197 Y152.433 E.02371
G1 X157.969 Y153.284 E.02762
G1 X157.217 Y154.587 E.04717
G1 X156.344 Y155.402 E.03745
G1 X155.581 Y155.843 E.02763
G1 X154.439 Y156.191 E.03743
G1 X153.687 Y156.261 E.02368
G1 X66.313 Y156.261 E2.73955
G1 X65.561 Y156.191 E.02368
G1 X64.71 Y155.963 E.02762
G1 X63.406 Y155.211 E.0472
G1 X62.783 Y154.587 E.02765
G1 X62.151 Y153.574 E.03744
G1 X61.803 Y152.433 E.0374
G1 X61.735 Y151.696 E.02321
G1 X61.733 Y68.32 E2.6142
G1 X61.803 Y67.567 E.02371
G1 X62.031 Y66.716 E.02762
G1 X62.753 Y65.465 E.04529
; printing object Slim_enclosure_for_Heltec_Wireless_Tracker__M5Stack_CardKB_Lid.stl id:0 copy 0
EXCLUDE_OBJECT_START NAME=Slim_enclosure_for_Heltec_Wireless_Tracker__M5Stack_CardKB_Lid_stl_id_0_copy_0
;WIPE_START
G1 F7200
G1 X62.783 Y65.413 E-.01426
G1 X63.656 Y64.598 E-.28365
G1 X64.419 Y64.157 E-.2093
G1 X65.561 Y63.809 E-.28354
G1 X65.6 Y63.805 E-.00925
;WIPE_END
G1 X66.401 Y72.034 F9000
G1 E.8 F1800
;TYPE:Perimeter
;WIDTH:0.419999
G1 F1200
G1 X66.174 Y72.11 E.00751
G1 X66.174 Y68.404 E.1162
G1 X66.221 Y68.228 E.00571
G1 X66.383 Y68.18 E.0053
G1 X83.299 Y68.18 E.53039
G1 X83.002 Y68.363 E.01094
G1 X82.815 Y68.929 E.01869
G1 X82.822 Y71.101 E.0681
G1 X82.022 Y71.071 E.0251
G1 X77.428 Y71.067 E.14404
G1 X77.106 Y71.124 E.01025
G1 X76.837 Y71.275 E.00967
G1 X76.649 Y71.478 E.00868
G1 X76.543 Y71.683 E.00724
G1 X76.484 Y72.01 E.01042
G1 X76.484 Y95.325 E.73102
G1 X76.499 Y95.488 E.00513
G1 X76.646 Y95.853 E.01234
G1 X76.808 Y96.036 E.00766
G1 X77.122 Y96.217 E.01136
G1 X77.427 Y96.268 E.0097
G1 X131.338 Y96.268 E1.69034
G1 X131.405 Y96.266 E.0021
G1 X131.756 Y96.17 E.01141
G1 X132.043 Y95.95 E.01134
G1 X132.226 Y95.641 E.01126
G1 X132.28 Y95.325 E.01005
G1 X132.28 Y72.01 E.73102
G1 X132.265 Y71.84 E.00535
G1 X132.092 Y71.445 E.01352
G1 X131.903 Y71.256 E.00838
G1 X131.643 Y71.118 E.00923
G1 X131.338 Y71.068 E.00969
G1 X101.386 Y71.068 E.93912
G1 X99.937 Y71.099 E.04544
G1 X99.944 Y68.929 E.06804
G1 X99.756 Y68.363 E.0187
G1 X99.392 Y68.18 E.01277
G1 X153.602 Y68.18 E1.69971
G1 X153.779 Y68.228 E.00575
G1 X153.826 Y68.404 E.00571
G1 X153.826 Y151.596 E2.60842
G1 X153.779 Y151.772 E.00571
G1 X153.617 Y151.82 E.0053
G1 X66.398 Y151.82 E2.73469
G1 X66.221 Y151.772 E.00575
G1 X66.174 Y151.61 E.00529
G1 X66.174 Y96.63 E1.72386
G1 X66.593 Y96.769 E.01384
G1 X73.357 Y96.769 E.21208
G1 X73.718 Y96.698 E.01154
G1 X74.022 Y96.494 E.01148
G1 X74.242 Y96.149 E.01283
G1 X74.299 Y95.827 E.01025
G1 X74.299 Y89.264 E.20578
G1 X74.254 Y88.975 E.00917
G1 X74.199 Y88.935 E.00213
G1 X74.199 Y79.805 E.28626
G1 X74.254 Y79.765 E.00213
G1 X74.299 Y79.476 E.00917
G1 X74.299 Y72.913 E.20578
G1 X74.211 Y72.514 E.01281
G1 X74.019 Y72.243 E.01041
G1 X73.837 Y72.102 E.00722
G1 X73.61 Y72.005 E.00774
G1 X73.357 Y71.97 E.00801
G1 X66.593 Y71.97 E.21208
G1 X66.458 Y72.015 E.00446
G1 X66.497 Y72.379 F9000
G1 F1200
G1 X66.254 Y72.461 E.00804
;WIDTH:0.46617
G1 X66.186 Y72.551 E.00397
;WIDTH:0.512341
G1 X66.117 Y72.642 E.00446
;WIDTH:0.558512
G1 X66.049 Y72.732 E.00484
;WIDTH:0.604683
G1 X65.981 Y72.823 E.00531
;WIDTH:0.650854
G1 X65.912 Y72.913 E.00573
G1 X65.889 Y72.777 E.00697
;WIDTH:0.604683
G1 X65.866 Y72.641 E.00644
;WIDTH:0.558512
G1 X65.843 Y72.504 E.00596
;WIDTH:0.512341
G1 X65.82 Y72.368 E.00538
;WIDTH:0.46617
G1 X65.797 Y72.232 E.00485
;WIDTH:0.419999
G1 X65.797 Y68.365 E.12125
G1 X65.871 Y68.064 E.00972
G1 X66.058 Y67.877 E.00829
G1 X66.359 Y67.803 E.00972
G1 X82.911 Y67.803 E.51898
;WIDTH:0.465269
G1 X83.334 Y67.826 E.01488
;WIDTH:0.510539
G1 X83.758 Y67.848 E.01651
G1 X99.001 Y67.848 E.59269
G1 X99.424 Y67.826 E.01647
;WIDTH:0.465269
G1 X99.848 Y67.803 E.01491
;WIDTH:0.419999
G1 X153.602 Y67.803 E1.68542
G1 X153.819 Y67.826 E.00684
G1 X154.048 Y67.959 E.0083
G1 X154.154 Y68.126 E.0062
G1 X154.203 Y68.404 E.00885
G1 X154.203 Y151.635 E2.60965
G1 X154.129 Y151.936 E.00972
G1 X153.942 Y152.123 E.00829
G1 X153.641 Y152.197 E.00972
G1 X66.359 Y152.197 E2.73666
G1 X66.058 Y152.123 E.00972
G1 X65.871 Y151.936 E.00829
G1 X65.797 Y151.635 E.00972
G1 X65.797 Y96.508 E1.72847
;WIDTH:0.468234
G1 X65.821 Y96.395 E.00409
;WIDTH:0.516469
G1 X65.845 Y96.283 E.00451
;WIDTH:0.564704
G1 X65.869 Y96.17 E.00501
;WIDTH:0.612939
G1 X65.893 Y96.058 E.00543
;WIDTH:0.661174
G1 X65.917 Y95.945 E.00594
G1 X65.985 Y96.012 E.00491
;WIDTH:0.612939
G1 X66.052 Y96.079 E.00449
;WIDTH:0.564704
G1 X66.119 Y96.146 E.00411
;WIDTH:0.516469
G1 X66.187 Y96.213 E.00376
;WIDTH:0.468234
G1 X66.254 Y96.279 E.00333
;WIDTH:0.419999
G1 X66.593 Y96.392 E.0112
G1 X73.357 Y96.392 E.21208
G1 X73.524 Y96.367 E.00529
G1 X73.756 Y96.227 E.0085
G1 X73.888 Y96.02 E.0077
G1 X73.922 Y95.827 E.00614
G1 X73.922 Y89.264 E.20578
G1 X73.895 Y89.091 E.00549
G1 X73.822 Y89.038 E.00283
G1 X73.822 Y79.702 E.29272
G1 X73.895 Y79.649 E.00283
G1 X73.922 Y79.476 E.00549
G1 X73.922 Y72.913 E.20578
G1 X73.869 Y72.674 E.00768
G1 X73.645 Y72.426 E.01048
G1 X73.357 Y72.347 E.00936
G1 X66.593 Y72.347 E.21208
G1 X66.554 Y72.36 E.00129
G1 X66.593 Y72.724 F9000
;TYPE:External perimeter
G1 F1200
G1 X66.48 Y72.762 E.00374
G1 X66.405 Y72.913 E.00529
G1 X66.405 Y79.044 E.19223
G1 X65.42 Y79.044 E.03088
G1 X65.42 Y68.34 E.33562
G1 X65.497 Y67.982 E.01148
G1 X65.683 Y67.69 E.01086
G1 X65.975 Y67.504 E.01086
G1 X66.334 Y67.426 E.01152
G1 X153.602 Y67.426 E2.73622
G1 X153.802 Y67.444 E.0063
G1 X154.132 Y67.548 E.01085
G1 X154.387 Y67.782 E.01085
G1 X154.547 Y68.089 E.01085
G1 X154.58 Y68.404 E.00993
G1 X154.58 Y151.66 E2.61043
G1 X154.503 Y152.018 E.01148
G1 X154.317 Y152.31 E.01086
G1 X154.025 Y152.496 E.01086
G1 X153.666 Y152.574 E.01152
G1 X66.334 Y152.574 E2.73823
G1 X65.975 Y152.496 E.01152
G1 X65.683 Y152.31 E.01086
G1 X65.497 Y152.018 E.01086
G1 X65.42 Y151.66 E.01148
G1 X65.42 Y89.696 E1.94283
G1 X66.405 Y89.696 E.03088
G1 X66.405 Y95.827 E.19223
G1 X66.48 Y95.978 E.00529
G1 X66.593 Y96.015 E.00373
G1 X73.357 Y96.015 E.21208
G1 X73.472 Y95.976 E.00381
G1 X73.545 Y95.827 E.0052
G1 X73.545 Y89.264 E.20578
G1 X73.536 Y89.206 E.00184
G1 X73.445 Y89.14 E.00352
G1 X73.445 Y79.6 E.29912
G1 X73.536 Y79.533 E.00354
G1 X73.545 Y79.476 E.00181
G1 X73.545 Y72.913 E.20578
G1 X73.489 Y72.779 E.00455
G1 X73.357 Y72.724 E.00448
G1 X66.653 Y72.724 E.2102
;WIPE_START
G1 F7200
G1 X66.593 Y72.724 E-.01425
G1 X66.48 Y72.762 E-.02831
G1 X66.405 Y72.913 E-.04004
G1 X66.405 Y75.934 E-.7174
;WIPE_END
G1 X76.891 Y71.915 F9000
G1 E.8 F1800
;TYPE:Perimeter
G1 F1200
G1 X76.96 Y71.691 E.00735
G1 X77.073 Y71.569 E.00521
G1 X77.329 Y71.453 E.00881
G1 X77.428 Y71.445 E.00311
G1 X82.022 Y71.448 E.14404
G1 X82.539 Y71.466 E.01622
G1 X83.223 Y71.52 E.02151
G1 X83.197 Y70.881 E.02005
G1 X83.192 Y68.928 E.06124
G1 X83.305 Y68.588 E.01123
;WIDTH:0.468469
G1 X83.478 Y68.455 E.00772
;WIDTH:0.516939
G1 X83.652 Y68.322 E.00863
G1 X83.758 Y68.316 E.00418
;WIDTH:0.510539
G1 X99.001 Y68.316 E.59269
G1 X99.227 Y68.452 E.01026
;WIDTH:0.465269
G1 X99.454 Y68.588 E.00929
;WIDTH:0.419999
G1 X99.566 Y68.928 E.01122
G1 X99.561 Y71.05 E.06653
G1 X99.536 Y71.523 E.01485
G1 X100.885 Y71.445 E.04237
G1 X131.338 Y71.445 E.95483
G1 X131.521 Y71.475 E.00581
G1 X131.79 Y71.671 E.01044
G1 X131.894 Y71.908 E.00811
G1 X131.903 Y72.01 E.00321
G1 X131.903 Y95.325 E.73102
G1 X131.841 Y95.583 E.00832
G1 X131.665 Y95.787 E.00845
G1 X131.399 Y95.887 E.00891
G1 X131.338 Y95.891 E.00192
G1 X77.327 Y95.882 E1.69347
G1 X77.137 Y95.811 E.00636
G1 X76.959 Y95.642 E.0077
G1 X76.87 Y95.423 E.00741
G1 X76.862 Y95.325 E.00308
G1 X76.862 Y72.01 E.73102
G1 X76.873 Y71.972 E.00124
G1 X77.239 Y72.01 F9000
;TYPE:External perimeter
G1 F1200
G1 X77.309 Y71.863 E.0051
G1 X77.427 Y71.822 E.00392
G1 X82.021 Y71.825 E.14404
G1 X83.651 Y71.922 E.0512
G1 X83.575 Y71.059 E.02716
G1 X83.569 Y68.927 E.06685
G1 X83.607 Y68.814 E.00374
G1 X83.758 Y68.738 E.0053
G1 X99.001 Y68.738 E.47793
G1 X99.152 Y68.814 E.0053
G1 X99.189 Y68.927 E.00373
G1 X99.184 Y71.049 E.06653
G1 X99.156 Y71.561 E.01608
G1 X99.108 Y71.922 E.01142
G1 X99.883 Y71.857 E.02438
G1 X100.897 Y71.822 E.03181
G1 X131.338 Y71.822 E.95445
G1 X131.489 Y71.897 E.00529
G1 X131.526 Y72.01 E.00373
G1 X131.526 Y95.325 E.73102
G1 X131.463 Y95.466 E.00484
G1 X131.338 Y95.514 E.0042
G1 X77.394 Y95.511 E1.69137
G1 X77.271 Y95.431 E.0046
G1 X77.239 Y95.325 E.00347
G1 X77.239 Y72.07 E.72914
;WIPE_START
G1 F7200
G1 X77.239 Y72.01 E-.01425
G1 X77.309 Y71.863 E-.03867
G1 X77.427 Y71.822 E-.02967
G1 X80.448 Y71.824 E-.71741
;WIPE_END
G1 X65.912 Y90.188 F9000
G1 E.8 F1800
;TYPE:Perimeter
;WIDTH:0.650854
G1 F1200
G1 X65.912 Y95.827 E.28505
;WIDTH:0.661174
G1 X65.917 Y95.945 E.00607
;WIPE_START
G1 F7200
G1 X65.912 Y95.827 E-.02805
;WIPE_END
G1 E-.77195 F1800
G1 X65.912 Y78.552 F9000
G1 E.8 F1800
;WIDTH:0.650854
G1 F1200
G1 X65.912 Y72.913 E.28505
;WIPE_START
G1 F7200
G1 X65.912 Y76.281 E-.8
;WIPE_END
G1 X152.938 Y68.305 F9000
G1 E.8 F1800
;TYPE:Solid infill
;WIDTH:0.420491
G1 F1200
G1 X153.532 Y68.898 E.02635
G1 X153.532 Y69.432 E.01677
G1 X152.574 Y68.474 E.04253
G1 X152.04 Y68.474 E.01677
G1 X153.532 Y69.966 E.06624
G1 X153.532 Y70.5 E.01677
G1 X151.506 Y68.474 E.08995
G1 X150.972 Y68.474 E.01677
G1 X153.532 Y71.034 E.11366
G1 X153.532 Y71.568 E.01677
G1 X150.438 Y68.474 E.13737
G1 X149.904 Y68.474 E.01677
G1 X153.532 Y72.102 E.16108
G1 X153.532 Y72.636 E.01677
G1 X149.37 Y68.474 E.18479
G1 X148.836 Y68.474 E.01677
G1 X153.532 Y73.17 E.2085
G1 X153.532 Y73.704 E.01677
G1 X148.302 Y68.474 E.23221
G1 X147.768 Y68.474 E.01677
G1 X153.532 Y74.238 E.25592
G1 X153.532 Y74.772 E.01677
G1 X147.234 Y68.474 E.27963
G1 X146.7 Y68.474 E.01677
G1 X153.532 Y75.306 E.30334
G1 X153.532 Y75.84 E.01677
G1 X146.166 Y68.474 E.32705
G1 X145.632 Y68.474 E.01677
G1 X153.532 Y76.374 E.35076
G1 X153.532 Y76.908 E.01677
G1 X145.098 Y68.474 E.37446
G1 X144.564 Y68.474 E.01677
G1 X153.532 Y77.442 E.39817
G1 X153.532 Y77.976 E.01677
G1 X144.03 Y68.474 E.42188
G1 X143.496 Y68.474 E.01677
G1 X153.532 Y78.51 E.44559
G1 X153.532 Y79.044 E.01677
G1 X142.962 Y68.474 E.4693
G1 X142.428 Y68.474 E.01677
G1 X153.532 Y79.578 E.49301
G1 X153.532 Y80.112 E.01677
G1 X141.894 Y68.474 E.51672
G1 X141.36 Y68.473 E.01677
G1 X153.532 Y80.646 E.54045
G1 X153.532 Y81.18 E.01677
G1 X140.826 Y68.473 E.56416
G1 X140.292 Y68.473 E.01677
G1 X153.532 Y81.713 E.58785
G1 X153.532 Y82.247 E.01677
G1 X139.758 Y68.473 E.61156
G1 X139.224 Y68.473 E.01677
G1 X153.532 Y82.781 E.63527
G1 X153.532 Y83.315 E.01677
G1 X138.69 Y68.473 E.65898
G1 X138.156 Y68.473 E.01677
G1 X153.532 Y83.849 E.68269
G1 X153.532 Y84.383 E.01677
G1 X137.622 Y68.473 E.7064
G1 X137.088 Y68.473 E.01677
G1 X153.532 Y84.917 E.7301
G1 X153.532 Y85.451 E.01677
G1 X136.554 Y68.473 E.75381
G1 X136.02 Y68.473 E.01677
G1 X153.532 Y85.985 E.77752
G1 X153.532 Y86.519 E.01677
G1 X135.486 Y68.473 E.80123
G1 X134.952 Y68.473 E.01677
G1 X153.532 Y87.053 E.82494
G1 X153.532 Y87.587 E.01677
G1 X134.418 Y68.473 E.84865
G1 X133.884 Y68.473 E.01677
G1 X153.532 Y88.121 E.87236
G1 X153.532 Y88.655 E.01677
G1 X133.35 Y68.473 E.89607
G1 X132.816 Y68.473 E.01677
G1 X153.532 Y89.189 E.91978
G1 X153.532 Y89.723 E.01677
G1 X132.282 Y68.473 E.94349
G1 X131.748 Y68.473 E.01677
G1 X153.532 Y90.257 E.9672
G1 X153.532 Y90.791 E.01677
G1 X131.214 Y68.473 E.99091
G1 X130.68 Y68.473 E.01677
G1 X153.532 Y91.325 E1.01462
G1 X153.532 Y91.859 E.01677
G1 X130.146 Y68.473 E1.03833
G1 X129.612 Y68.473 E.01677
G1 X153.532 Y92.393 E1.06203
G1 X153.532 Y92.927 E.01677
G1 X132.567 Y71.962 E.93083
G1 X132.551 Y71.787 E.00552
G1 X132.476 Y71.535 E.00825
G1 X132.324 Y71.269 E.00962
G1 X132.078 Y71.022 E.01094
G1 X131.738 Y70.842 E.01208
G1 X131.39 Y70.784 E.01108
G1 X129.078 Y68.473 E.10263
G1 X128.544 Y68.473 E.01677
G1 X130.848 Y70.777 E.1023
G1 X130.314 Y70.777 E.01677
G1 X128.01 Y68.473 E.1023
G1 X127.476 Y68.472 E.01677
G1 X129.78 Y70.777 E.10232
G1 X129.246 Y70.777 E.01677
G1 X126.942 Y68.472 E.10232
G1 X126.408 Y68.472 E.01677
G1 X128.712 Y70.777 E.10232
G1 X128.179 Y70.777 E.01673
G1 X125.874 Y68.472 E.10234
G1 X125.34 Y68.472 E.01677
G1 X127.645 Y70.777 E.10234
G1 X127.111 Y70.777 E.01677
G1 X124.806 Y68.472 E.10234
G1 X124.272 Y68.472 E.01677
G1 X126.577 Y70.777 E.10234
G1 X126.043 Y70.777 E.01677
G1 X123.738 Y68.472 E.10234
G1 X123.204 Y68.472 E.01677
G1 X125.509 Y70.777 E.10234
G1 X124.975 Y70.777 E.01677
G1 X122.67 Y68.472 E.10234
G1 X122.136 Y68.472 E.01677
G1 X124.441 Y70.777 E.10234
G1 X123.907 Y70.777 E.01677
G1 X121.602 Y68.472 E.10234
G1 X121.068 Y68.472 E.01677
G1 X123.373 Y70.777 E.10234
G1 X122.839 Y70.777 E.01677
G1 X120.534 Y68.472 E.10234
G1 X120 Y68.472 E.01677
G1 X122.305 Y70.777 E.10234
G1 X121.771 Y70.777 E.01677
G1 X119.466 Y68.472 E.10234
G1 X118.932 Y68.472 E.01677
G1 X121.237 Y70.777 E.10234
G1 X120.703 Y70.777 E.01677
G1 X118.398 Y68.472 E.10234
G1 X117.864 Y68.472 E.01677
G1 X120.169 Y70.777 E.10234
G1 X119.635 Y70.777 E.01677
G1 X117.33 Y68.472 E.10234
G1 X116.796 Y68.472 E.01677
G1 X119.101 Y70.777 E.10234
G1 X118.567 Y70.777 E.01677
G1 X116.262 Y68.472 E.10234
G1 X115.728 Y68.472 E.01677
G1 X118.033 Y70.777 E.10234
G1 X117.499 Y70.777 E.01677
G1 X115.194 Y68.472 E.10234
G1 X114.66 Y68.472 E.01677
G1 X116.965 Y70.777 E.10234
G1 X116.431 Y70.777 E.01677
G1 X114.126 Y68.472 E.10234
G1 X113.592 Y68.471 E.01677
G1 X115.897 Y70.777 E.10236
G1 X115.363 Y70.777 E.01677
G1 X113.058 Y68.471 E.10236
G1 X112.524 Y68.471 E.01677
G1 X114.83 Y70.777 E.10239
G1 X114.296 Y70.777 E.01677
G1 X111.99 Y68.471 E.10239
G1 X111.456 Y68.471 E.01677
