; generated by PrusaSlicer 2.7.1 on 2025-06-09 at 06:09:55 UTC


;
;

;
;
; 

; external perimeters extrusion width = 0.42mm
; perimeters extrusion width = 0.44mm
; infill extrusion width = 0.44mm
; solid infill extrusion width = 0.44mm
; top infill extrusion width = 0.40mm
; first layer extrusion width = 0.42mm



; Pre-Processed for Cancel-Object support by preprocess_cancellation v0.2.0
; 1 known objects
EXCLUDE_OBJECT_DEFINE NAME=Slim_enclosure_for_Heltec_Wireless_Tracker__M5Stack_CardKB_Lid_Reinforced_stl_stl_id_0_copy_0 CENTER=108.165,102.521 POLYGON=[[64.82,66.826],[64.82,153.174],[155.18,153.174],[155.18,66.826]]
M201 X500 Y500 Z100 E5000 ; sets maximum accelerations, mm/sec^2
M203 X500 Y500 Z10 E60 ; sets maximum feedrates, mm / sec
M204 S500 T1000 ; sets acceleration (S) and retract acceleration (R), mm/sec^2
M205 X8.00 Y8.00 Z0.40 E5.00 ; sets the jerk limits, mm/sec
M205 S0 T0 ; sets the minimum extruding and travel feed rate, mm/sec

; printing object Slim_enclosure_for_Heltec_Wireless_Tracker__M5Stack_CardKB_Lid_Reinforced.stl.stl id:0 copy 0
EXCLUDE_OBJECT_START NAME=Slim_enclosure_for_Heltec_Wireless_Tracker__M5Stack_CardKB_Lid_Reinforced_stl_stl_id_0_copy_0
; stop printing object Slim_enclosure_for_Heltec_Wireless_Tracker__M5Stack_CardKB_Lid_Reinforced.stl.stl id:0 copy 0
EXCLUDE_OBJECT_END NAME=Slim_enclosure_for_Heltec_Wireless_Tracker__M5Stack_CardKB_Lid_Reinforced_stl_stl_id_0_copy_0

;TYPE:Custom
G90 ; use absolute coordinates
M83 ; extruder relative mode
G28
M109 S0
M190 S0
start_print EXTRUDER_TEMP=210 BED_TEMP=60

M104 S150 ; set temporary nozzle temp to prevent oozing during homing
M140 S60 ; set final bed temp
G4 S30 ; allow partial nozzle warmup
G28 ; home all axis and restore leveling

G1 Z50 F240
G1 X2.0 Y10 F3000
M104 S210 ; set final nozzle temp
M190 S60 ; wait for bed temp to stabilize
M109 S210 ; wait for nozzle temp to stabilize
G1 Z0.28 F240
G92 E0
G1 X2.0 Y140 E10 F1500 ; prime the nozzle
G1 X2.3 Y140 F5000
G92 E0
G1 X2.3 Y10 E10 F1200 ; prime the nozzle
G92 E0
G21 ; set units to millimeters
G90 ; use absolute coordinates
M83 ; use relative distances for extrusion
; Filament gcode
M107
;LAYER_CHANGE
;Z:0.2
;HEIGHT:0.2
;BEFORE_LAYER_CHANGE
G92 E0
;0.2


G1 E-.8 F1800
G1 Z.2 F9000
;AFTER_LAYER_CHANGE
;0.2
G1 X62.847 Y64.23
G1 Z.2
G1 E.8 F1800
M204 S500
;TYPE:Skirt/Brim
;WIDTH:0.42
G1 F1200
G1 X64.059 Y63.53 E.04388
G1 X64.91 Y63.302 E.02762
G1 X65.603 Y63.24 E.02182
G1 X154.831 Y63.268 E2.79768
G1 X156.183 Y63.63 E.04388
G1 X157.153 Y64.23 E.03576
G1 X157.777 Y64.853 E.02765
G1 X158.476 Y66.065 E.04387
G1 X158.704 Y66.916 E.02762
G1 X158.767 Y67.616 E.02204
G1 X158.767 Y152.384 E2.65784
G1 X158.704 Y153.084 E.02204
G1 X158.376 Y154.176 E.03575
G1 X157.777 Y155.147 E.03577
G1 X157.153 Y155.77 E.02765
G1 X155.941 Y156.47 E.04388
G1 X155.09 Y156.698 E.02762
G1 X154.39 Y156.761 E.02204
G1 X65.61 Y156.761 E2.78363
G1 X64.91 Y156.698 E.02204
G1 X63.817 Y156.37 E.03578
G1 X63.054 Y155.929 E.02763
G1 X62.223 Y155.147 E.03578
G1 X61.524 Y153.935 E.04387
G1 X61.296 Y153.084 E.02762
G1 X61.233 Y152.395 E.02169
G1 X61.233 Y67.616 E2.65819
G1 X61.296 Y66.916 E.02204
G1 X61.624 Y65.824 E.03575
G1 X62.076 Y65.045 E.02824
G1 X62.805 Y64.273 E.03329
; printing object Slim_enclosure_for_Heltec_Wireless_Tracker__M5Stack_CardKB_Lid_Reinforced.stl.stl id:0 copy 0
EXCLUDE_OBJECT_START NAME=Slim_enclosure_for_Heltec_Wireless_Tracker__M5Stack_CardKB_Lid_Reinforced_stl_stl_id_0_copy_0
;WIPE_START
G1 F7200
G1 X62.847 Y64.23 E-.01428
G1 X64.059 Y63.53 E-.33241
G1 X64.91 Y63.302 E-.20924
G1 X65.603 Y63.24 E-.16524
G1 X65.935 Y63.24 E-.07883
;WIPE_END
G1 X76.484 Y72.648 F9000
G1 E.8 F1800
;TYPE:Perimeter
;WIDTH:0.419999
G1 F1200
G1 X76.484 Y72.51 E.00433
G1 X76.521 Y72.25 E.00823
G1 X76.696 Y71.915 E.01185
G1 X76.78 Y71.825 E.00386
G1 X76.96 Y71.691 E.00704
G1 X77.264 Y71.582 E.01013
G1 X77.427 Y71.568 E.00513
G1 X131.338 Y71.568 E1.69034
G1 X131.602 Y71.605 E.00836
G1 X131.836 Y71.71 E.00804
G1 X132.02 Y71.86 E.00744
G1 X132.229 Y72.204 E.01262
G1 X132.28 Y72.51 E.00973
G1 X132.28 Y95.325 E.71535
G1 X132.208 Y95.688 E.0116
G1 X132.02 Y95.975 E.01076
G1 X131.741 Y96.177 E.0108
G1 X131.338 Y96.268 E.01295
G1 X77.427 Y96.268 E1.69034
G1 X77.094 Y96.207 E.01061
G1 X76.783 Y96.014 E.01148
G1 X76.633 Y95.834 E.00735
G1 X76.499 Y95.488 E.01163
G1 X76.484 Y95.325 E.00513
G1 X76.484 Y72.708 E.70914
G1 X76.868 Y72.485 F9000
G1 F1200
G1 X76.933 Y72.234 E.00813
G1 X77.039 Y72.099 E.00538
G1 X77.28 Y71.964 E.00866
G1 X77.427 Y71.945 E.00465
G1 X131.338 Y71.945 E1.69034
G1 X131.637 Y72.03 E.00975
G1 X131.825 Y72.223 E.00845
G1 X131.903 Y72.51 E.00933
G1 X131.903 Y95.325 E.71535
G1 X131.845 Y95.576 E.00808
G1 X131.677 Y95.778 E.00824
G1 X131.418 Y95.885 E.00879
G1 X131.338 Y95.891 E.00252
G1 X77.427 Y95.891 E1.69034
G1 X77.181 Y95.834 E.00792
G1 X76.951 Y95.63 E.00964
G1 X76.862 Y95.325 E.00996
G1 X76.862 Y72.544 E.71428
G1 X77.427 Y72.322 F9000
;TYPE:External perimeter
G1 F1200
G1 X131.338 Y72.322 E1.69034
G1 X131.474 Y72.38 E.00464
G1 X131.526 Y72.51 E.00439
G1 X131.526 Y95.325 E.71535
G1 X131.459 Y95.47 E.00501
G1 X131.338 Y95.514 E.00404
G1 X77.427 Y95.514 E1.69034
G1 X77.298 Y95.463 E.00435
G1 X77.239 Y95.325 E.00471
G1 X77.239 Y72.51 E.71535
G1 X77.298 Y72.373 E.00468
G1 X77.371 Y72.344 E.00246
;WIPE_START
G1 F7200
G1 X77.427 Y72.322 E-.01429
G1 X80.735 Y72.322 E-.78571
;WIPE_END
G1 X74.049 Y72.3 F9000
G1 E.8 F1800
;TYPE:Perimeter
G1 F1200
G1 X73.956 Y72.186 E.00461
G1 X73.622 Y72.008 E.01187
G1 X73.357 Y71.97 E.00839
G1 X66.593 Y71.97 E.21208
G1 X66.028 Y72.159 E.01868
G1 X65.662 Y72.913 E.02628
G1 X65.679 Y67.68 E.16408
G1 X154.326 Y67.686 E2.77946
G1 X154.321 Y152.32 E2.65364
G1 X65.674 Y152.314 E2.77946
G1 X65.669 Y95.989 E1.76603
G1 X66.028 Y96.581 E.02171
G1 X66.593 Y96.769 E.01867
G1 X73.357 Y96.769 E.21208
G1 X73.435 Y96.766 E.00245
G1 X73.736 Y96.69 E.00973
G1 X74.046 Y96.47 E.01192
G1 X74.25 Y96.127 E.01251
G1 X74.299 Y95.827 E.00953
G1 X74.299 Y89.264 E.20578
G1 X74.254 Y88.975 E.00917
G1 X74.199 Y88.935 E.00213
G1 X74.199 Y79.805 E.28626
G1 X74.254 Y79.765 E.00213
G1 X74.299 Y79.476 E.00917
G1 X74.299 Y72.913 E.20578
G1 X74.281 Y72.728 E.00583
G1 X74.194 Y72.48 E.00824
G1 X74.086 Y72.347 E.00537
G1 X73.447 Y72.373 F9000
G1 F1200
G1 X73.357 Y72.347 E.00294
G1 X66.593 Y72.347 E.21208
G1 X66.254 Y72.461 E.01121
G1 X66.028 Y72.913 E.01584
G1 X66.028 Y79.667 E.21177
G1 X65.297 Y79.667 E.02292
G1 X65.297 Y67.686 E.37566
G1 X65.313 Y67.537 E.0047
G1 X65.424 Y67.375 E.00616
G1 X65.655 Y67.303 E.00759
G1 X154.32 Y67.303 E2.78002
G1 X154.507 Y67.335 E.00595
G1 X154.656 Y67.462 E.00614
G1 X154.703 Y67.686 E.00718
G1 X154.703 Y152.314 E2.65345
G1 X154.687 Y152.463 E.0047
G1 X154.576 Y152.625 E.00616
G1 X154.345 Y152.697 E.00759
G1 X65.68 Y152.697 E2.78002
G1 X65.53 Y152.681 E.00473
G1 X65.368 Y152.569 E.00618
G1 X65.297 Y152.339 E.00755
G1 X65.297 Y90.073 E1.9523
G1 X66.028 Y90.073 E.02292
G1 X66.028 Y95.827 E.18041
G1 X66.036 Y95.925 E.00308
G1 X66.254 Y96.279 E.01304
G1 X66.593 Y96.392 E.0112
G1 X73.357 Y96.392 E.21208
G1 X73.621 Y96.327 E.00852
G1 X73.832 Y96.134 E.00897
G1 X73.922 Y95.827 E.01003
G1 X73.922 Y89.264 E.20578
G1 X73.895 Y89.091 E.00549
G1 X73.822 Y89.038 E.00283
G1 X73.822 Y79.702 E.29272
G1 X73.895 Y79.649 E.00283
G1 X73.922 Y79.476 E.00549
G1 X73.922 Y72.913 E.20578
G1 X73.859 Y72.653 E.00839
G1 X73.657 Y72.434 E.00934
G1 X73.505 Y72.39 E.00496
G1 X73.357 Y72.724 F9000
;TYPE:External perimeter
G1 F1200
G1 X66.593 Y72.724 E.21208
G1 X66.48 Y72.762 E.00374
G1 X66.405 Y72.913 E.00529
G1 X66.405 Y80.044 E.22359
G1 X64.92 Y80.044 E.04656
G1 X64.92 Y67.636 E.38904
G1 X65.014 Y67.272 E.01179
G1 X65.266 Y67.021 E.01115
G1 X65.63 Y66.926 E.0118
G1 X154.32 Y66.926 E2.78081
G1 X154.568 Y66.952 E.00782
G1 X154.876 Y67.13 E.01115
G1 X155.02 Y67.355 E.00838
G1 X155.08 Y67.686 E.01055
G1 X155.08 Y152.364 E2.65501
G1 X154.986 Y152.728 E.01179
G1 X154.734 Y152.979 E.01115
G1 X154.37 Y153.074 E.0118
G1 X65.63 Y153.074 E2.78238
G1 X65.266 Y152.979 E.0118
G1 X65.014 Y152.728 E.01115
G1 X64.92 Y152.364 E.01179
G1 X64.92 Y89.696 E1.96491
G1 X66.405 Y89.696 E.04656
G1 X66.405 Y95.827 E.19223
G1 X66.48 Y95.978 E.00529
G1 X66.593 Y96.015 E.00373
G1 X73.357 Y96.015 E.21208
G1 X73.477 Y95.971 E.00401
G1 X73.545 Y95.827 E.00499
G1 X73.545 Y89.264 E.20578
G1 X73.536 Y89.206 E.00184
G1 X73.445 Y89.14 E.00352
G1 X73.445 Y79.6 E.29912
G1 X73.536 Y79.533 E.00354
G1 X73.545 Y79.476 E.00181
G1 X73.545 Y72.913 E.20578
G1 X73.5 Y72.791 E.00408
G1 X73.411 Y72.75 E.00307
;WIPE_START
G1 F7200
G1 X73.357 Y72.724 E-.01423
G1 X70.049 Y72.724 E-.78577
;WIPE_END
G1 X65.662 Y79.302 F9000
G1 E.8 F1800
;TYPE:Perimeter
;WIDTH:0.396696
G1 F1200
G1 X65.662 Y72.913 E.18794
;WIPE_START
G1 F7200
G1 X65.662 Y76.281 E-.8
;WIPE_END
G1 X65.662 Y90.438 F9000
G1 E.8 F1800
G1 F1200
G1 X65.662 Y95.827 E.15853
;WIDTH:0.410804
G1 X65.669 Y95.989 E.00496
;WIPE_START
G1 F7200
G1 X65.662 Y95.827 E-.03851
;WIPE_END
G1 E-.76149 F1800
G1 X154.205 Y68.564 F9000
G1 E.8 F1800
;TYPE:Solid infill
;WIDTH:0.420228
G1 F1200
G1 X153.612 Y67.971 E.02631
G1 X153.079 Y67.971 E.01672
G1 X154.036 Y68.927 E.04244
G1 X154.036 Y69.461 E.01675
G1 X152.545 Y67.971 E.06613
G1 X152.012 Y67.971 E.01672
G1 X154.036 Y69.995 E.0898
G1 X154.036 Y70.528 E.01672
G1 X151.478 Y67.971 E.11347
G1 X150.944 Y67.971 E.01675
G1 X154.036 Y71.062 E.13717
G1 X154.036 Y71.595 E.01672
G1 X150.411 Y67.971 E.16081
G1 X149.877 Y67.971 E.01675
G1 X154.036 Y72.129 E.18451
G1 X154.036 Y72.663 E.01675
G1 X149.344 Y67.971 E.20818
G1 X148.81 Y67.971 E.01675
G1 X154.036 Y73.196 E.23185
G1 X154.036 Y73.73 E.01675
G1 X148.276 Y67.971 E.25554
G1 X147.743 Y67.971 E.01672
G1 X154.036 Y74.263 E.27919
G1 X154.036 Y74.797 E.01675
G1 X147.209 Y67.971 E.30288
G1 X146.676 Y67.971 E.01672
G1 X154.036 Y75.331 E.32655
G1 X154.036 Y75.864 E.01672
G1 X146.142 Y67.971 E.35022
G1 X145.608 Y67.971 E.01675
G1 X154.036 Y76.398 E.37392
G1 X154.036 Y76.931 E.01672
G1 X145.075 Y67.971 E.39756
G1 X144.541 Y67.971 E.01675
G1 X154.036 Y77.465 E.42126
G1 X154.036 Y77.999 E.01675
G1 X144.008 Y67.971 E.44493
G1 X143.474 Y67.971 E.01675
G1 X154.036 Y78.532 E.4686
G1 X154.036 Y79.066 E.01675
G1 X142.941 Y67.971 E.49227
G1 X142.407 Y67.971 E.01675
G1 X154.036 Y79.599 E.51594
G1 X154.036 Y80.133 E.01675
G1 X141.873 Y67.971 E.53963
G1 X141.34 Y67.971 E.01672
G1 X154.036 Y80.667 E.5633
G1 X154.036 Y81.2 E.01672
G1 X140.806 Y67.971 E.58697
G1 X140.273 Y67.971 E.01672
G1 X154.036 Y81.734 E.61064
G1 X154.036 Y82.267 E.01672
G1 X139.739 Y67.971 E.63431
G1 X139.205 Y67.971 E.01675
G1 X154.036 Y82.801 E.65801
G1 X154.036 Y83.335 E.01675
G1 X138.672 Y67.971 E.68168
G1 X138.138 Y67.971 E.01675
G1 X154.036 Y83.868 E.70535
G1 X154.036 Y84.402 E.01675
G1 X137.605 Y67.971 E.72902
G1 X137.071 Y67.971 E.01675
G1 X154.036 Y84.935 E.75269
G1 X154.036 Y85.469 E.01675
G1 X136.537 Y67.971 E.77638
G1 X136.004 Y67.971 E.01672
G1 X154.036 Y86.002 E.80003
G1 X154.036 Y86.536 E.01675
G1 X135.47 Y67.971 E.82372
G1 X134.937 Y67.971 E.01672
G1 X154.036 Y87.07 E.84739
G1 X154.036 Y87.603 E.01672
G1 X134.403 Y67.971 E.87107
G1 X133.869 Y67.971 E.01675
G1 X154.036 Y88.137 E.89476
G1 X154.036 Y88.67 E.01672
G1 X133.336 Y67.971 E.91841
G1 X132.802 Y67.971 E.01675
G1 X154.036 Y89.204 E.9421
G1 X154.036 Y89.738 E.01675
G1 X132.269 Y67.971 E.96577
G1 X131.735 Y67.971 E.01675
G1 X154.036 Y90.271 E.98944
G1 X154.036 Y90.805 E.01675
G1 X131.201 Y67.971 E1.01313
G1 X130.668 Y67.971 E.01672
G1 X154.036 Y91.338 E1.03678
G1 X154.036 Y91.872 E.01675
G1 X130.134 Y67.971 E1.06047
G1 X129.601 Y67.971 E.01672
G1 X154.036 Y92.406 E1.08415
G1 X154.036 Y92.939 E.01672
G1 X129.067 Y67.971 E1.10782
G1 X128.533 Y67.971 E.01675
G1 X154.036 Y93.473 E1.13151
G1 X154.036 Y94.006 E.01672
G1 X132.571 Y72.541 E.95237
G1 X132.571 Y73.075 E.01675
G1 X154.036 Y94.54 E.95237
G1 X154.036 Y95.074 E.01675
G1 X132.571 Y73.609 E.95237
G1 X132.571 Y74.142 E.01672
G1 X154.036 Y95.607 E.95237
G1 X154.036 Y96.141 E.01675
G1 X132.571 Y74.676 E.95237
G1 X132.571 Y75.209 E.01672
G1 X154.036 Y96.674 E.95237
G1 X154.036 Y97.208 E.01675
G1 X132.571 Y75.743 E.95237
G1 X132.571 Y76.277 E.01675
G1 X154.036 Y97.742 E.95237
G1 X154.036 Y98.275 E.01672
G1 X132.571 Y76.81 E.95237
G1 X132.571 Y77.344 E.01675
G1 X154.036 Y98.809 E.95237
G1 X154.036 Y99.342 E.01672
G1 X132.571 Y77.877 E.95237
G1 X132.571 Y78.411 E.01675
G1 X154.036 Y99.876 E.95237
G1 X154.036 Y100.41 E.01675
G1 X132.571 Y78.945 E.95237
G1 X132.571 Y79.478 E.01672
G1 X154.036 Y100.943 E.95237
G1 X154.036 Y101.477 E.01675
G1 X132.571 Y80.012 E.95237
G1 X132.571 Y80.545 E.01672
G1 X154.036 Y102.01 E.95237
G1 X154.036 Y102.544 E.01675
G1 X132.571 Y81.079 E.95237
G1 X132.571 Y81.613 E.01675
G1 X154.036 Y103.078 E.95237
G1 X154.036 Y103.611 E.01672
G1 X132.571 Y82.146 E.95237
G1 X132.571 Y82.68 E.01675
G1 X154.036 Y104.145 E.95237
G1 X154.036 Y104.678 E.01672
G1 X132.571 Y83.213 E.95237
G1 X132.571 Y83.747 E.01675
G1 X154.036 Y105.212 E.95237
G1 X154.036 Y105.745 E.01672
G1 X132.571 Y84.281 E.95235
G1 X132.571 Y84.814 E.01672
G1 X154.036 Y106.279 E.95237
G1 X154.036 Y106.813 E.01675
G1 X132.571 Y85.348 E.95237
G1 X132.571 Y85.881 E.01672
G1 X154.036 Y107.346 E.95237
G1 X154.036 Y107.88 E.01675
G1 X132.571 Y86.415 E.95237
G1 X132.571 Y86.948 E.01672
G1 X154.036 Y108.413 E.95237
G1 X154.036 Y108.947 E.01675
G1 X132.571 Y87.482 E.95237
G1 X132.571 Y88.016 E.01675
G1 X154.036 Y109.481 E.95237
G1 X154.036 Y110.014 E.01672
G1 X132.571 Y88.549 E.95237
G1 X132.571 Y89.083 E.01675
G1 X154.036 Y110.548 E.95237
G1 X154.036 Y111.081 E.01672
G1 X132.571 Y89.616 E.95237
G1 X132.571 Y90.15 E.01675
G1 X154.036 Y111.615 E.95237
G1 X154.036 Y112.149 E.01675
G1 X132.571 Y90.684 E.95237
G1 X132.571 Y91.217 E.01672
G1 X154.036 Y112.682 E.95237
G1 X154.036 Y113.216 E.01675
G1 X132.571 Y91.751 E.95237
G1 X132.571 Y92.284 E.01672
G1 X154.036 Y113.749 E.95237
G1 X154.036 Y114.283 E.01675
G1 X132.571 Y92.818 E.95237
G1 X132.571 Y93.352 E.01675
G1 X154.036 Y114.817 E.95237
G1 X154.036 Y115.35 E.01672
G1 X132.571 Y93.885 E.95237
G1 X132.571 Y94.419 E.01675
G1 X154.036 Y115.884 E.95237
G1 X154.036 Y116.417 E.01672
G1 X132.571 Y94.952 E.95237
G1 X132.557 Y95.472 E.01632
G1 X154.036 Y116.951 E.95299
G1 X154.036 Y117.485 E.01675
G1 X132.435 Y95.884 E.9584
G1 X132.277 Y96.125 E.00904
G1 X132.206 Y96.188 E.00298
G1 X154.036 Y118.018 E.96857
G1 X154.036 Y118.552 E.01675
G1 X131.896 Y96.412 E.98232
G1 X131.712 Y96.501 E.00641
G1 X131.498 Y96.547 E.00687
G1 X154.036 Y119.085 E.99998
G1 X154.036 Y119.619 E.01675
G1 X130.975 Y96.558 E1.02318
G1 X130.442 Y96.558 E.01672
G1 X154.036 Y120.153 E1.04685
G1 X154.036 Y120.686 E.01672
G1 X129.908 Y96.558 E1.07052
G1 X129.374 Y96.558 E.01675
G1 X154.036 Y121.22 E1.09422
G1 X154.036 Y121.753 E.01672
G1 X128.841 Y96.558 E1.11787
G1 X128.307 Y96.558 E.01675
G1 X154.036 Y122.287 E1.14156
G1 X154.036 Y122.82 E.01672
G1 X127.774 Y96.558 E1.16521
G1 X127.24 Y96.558 E.01675
G1 X154.036 Y123.354 E1.1889
G1 X154.036 Y123.888 E.01675
G1 X126.706 Y96.558 E1.21259
G1 X126.173 Y96.558 E.01672
G1 X154.036 Y124.421 E1.23624
G1 X154.036 Y124.955 E.01675
G1 X125.639 Y96.558 E1.25993
G1 X125.106 Y96.558 E.01672
G1 X154.036 Y125.488 E1.28358
G1 X154.036 Y126.022 E.01675
G1 X124.572 Y96.558 E1.30727
G1 X124.038 Y96.558 E.01675
G1 X154.036 Y126.556 E1.33097
G1 X154.036 Y127.089 E.01672
G1 X123.505 Y96.558 E1.35462
G1 X122.971 Y96.558 E.01675
G1 X154.036 Y127.623 E1.37831
G1 X154.036 Y128.156 E.01672
G1 X122.438 Y96.558 E1.40196
G1 X121.904 Y96.558 E.01675
G1 X154.036 Y128.69 E1.42565
G1 X154.036 Y129.224 E.01675
G1 X121.37 Y96.558 E1.44934
G1 X120.837 Y96.558 E.01672
G1 X154.036 Y129.757 E1.47299
G1 X154.036 Y130.291 E.01675
G1 X120.303 Y96.558 E1.49668
G1 X119.77 Y96.558 E.01672
G1 X154.036 Y130.824 E1.52033
G1 X154.036 Y131.358 E.01675
G1 X119.236 Y96.558 E1.54402
G1 X118.702 Y96.558 E.01675
G1 X154.036 Y131.892 E1.56772
G1 X154.036 Y132.425 E.01672
G1 X118.169 Y96.558 E1.59137
G1 X117.635 Y96.558 E.01675
G1 X154.036 Y132.959 E1.61506
G1 X154.036 Y133.492 E.01672
