; generated by PrusaSlicer 2.7.1 on 2024-04-08 at 03:59:00 UTC


;
;

;
;
; 

; external perimeters extrusion width = 0.42mm
; perimeters extrusion width = 0.44mm
; infill extrusion width = 0.44mm
; solid infill extrusion width = 0.44mm
; top infill extrusion width = 0.40mm
; first layer extrusion width = 0.42mm



; Pre-Processed for Cancel-Object support by preprocess_cancellation v0.2.0
; 2 known objects
EXCLUDE_OBJECT_DEFINE NAME=surface_book_stands_v3_stl_id_0_copy_0 CENTER=119.043,54.031 POLYGON=[[61.565,23.542],[61.565,96.851],[176.145,96.851],[176.145,23.542]]
EXCLUDE_OBJECT_DEFINE NAME=surface_book_stands_v3_stl_id_0_copy_1 CENTER=119.275,133.981 POLYGON=[[61.851,103.537],[61.851,176.846],[176.431,176.846],[176.431,103.537]]
M201 X500 Y500 Z100 E5000 ; sets maximum accelerations, mm/sec^2
M203 X500 Y500 Z10 E60 ; sets maximum feedrates, mm / sec
M204 S500 T1000 ; sets acceleration (S) and retract acceleration (R), mm/sec^2
M205 X8.00 Y8.00 Z0.40 E5.00 ; sets the jerk limits, mm/sec
M205 S0 T0 ; sets the minimum extruding and travel feed rate, mm/sec

; printing object surface book stands v3.stl id:0 copy 0
EXCLUDE_OBJECT_START NAME=surface_book_stands_v3_stl_id_0_copy_0
; stop printing object surface book stands v3.stl id:0 copy 0
EXCLUDE_OBJECT_END NAME=surface_book_stands_v3_stl_id_0_copy_0
; printing object surface book stands v3.stl id:0 copy 1
EXCLUDE_OBJECT_START NAME=surface_book_stands_v3_stl_id_0_copy_1
; stop printing object surface book stands v3.stl id:0 copy 1
EXCLUDE_OBJECT_END NAME=surface_book_stands_v3_stl_id_0_copy_1

;TYPE:Custom
G90 ; use absolute coordinates
M83 ; extruder relative mode
G28
M109 S0
M190 S0
start_print EXTRUDER_TEMP=210 BED_TEMP=60

M104 S150 ; set temporary nozzle temp to prevent oozing during homing
M140 S60 ; set final bed temp
G4 S30 ; allow partial nozzle warmup
G28 ; home all axis and restore leveling

G1 Z50 F240
G1 X2.0 Y10 F3000
M104 S210 ; set final nozzle temp
M190 S60 ; wait for bed temp to stabilize
M109 S210 ; wait for nozzle temp to stabilize
G1 Z0.28 F240
G92 E0
G1 X2.0 Y140 E10 F1500 ; prime the nozzle
G1 X2.3 Y140 F5000
G92 E0
G1 X2.3 Y10 E10 F1200 ; prime the nozzle
G92 E0
G21 ; set units to millimeters
G90 ; use absolute coordinates
M83 ; use relative distances for extrusion
; Filament gcode
M107
;LAYER_CHANGE
;Z:0.2
;HEIGHT:0.2
;BEFORE_LAYER_CHANGE
G92 E0
;0.2


G1 E-.8 F1800
G1 Z.2 F9000
;AFTER_LAYER_CHANGE
;0.2
G1 X58.468 Y24.492
G1 Z.2
G1 E.8 F1800
M204 S500
;TYPE:Skirt/Brim
;WIDTH:0.42
G1 F1200
G1 X59.147 Y23.168 E.04665
G1 X59.562 Y22.597 E.02213
G1 X60.611 Y21.542 E.04665
G1 X61.856 Y20.728 E.04664
G1 X63.244 Y20.191 E.04666
G1 X64.713 Y19.955 E.04665
G1 X172.997 Y19.955 E3.39517
G1 X173.699 Y20.028 E.02213
G1 X175.138 Y20.41 E.04668
G1 X175.854 Y20.728 E.02456
G1 X177.099 Y21.542 E.04664
G1 X178.149 Y22.597 E.04667
G1 X178.564 Y23.168 E.02213
G1 X179.243 Y24.492 E.04665
G1 X179.632 Y25.928 E.04665
G1 X179.732 Y27.049 E.03529
G1 X180.018 Y107.044 E2.5082
G1 X180.018 Y177.056 E2.19518
G1 X179.624 Y178.64 E.05118
G1 X178.534 Y179.853 E.05113
G1 X176.641 Y180.433 E.06208
G1 X61.641 Y180.433 E3.60574
G1 X60.058 Y180.039 E.05115
G1 X58.844 Y178.949 E.05116
G1 X58.264 Y177.068 E.06172
G1 X57.978 Y97.073 E2.5082
G1 X57.978 Y27.061 E2.19518
G1 X58.078 Y25.928 E.03566
G1 X58.225 Y25.238 E.02212
G1 X58.449 Y24.549 E.02272
; printing object surface book stands v3.stl id:0 copy 0
EXCLUDE_OBJECT_START NAME=surface_book_stands_v3_stl_id_0_copy_0
;WIPE_START
G1 F7200
G1 X58.468 Y24.492 E-.01427
G1 X59.147 Y23.168 E-.35339
G1 X59.562 Y22.597 E-.16765
G1 X60.348 Y21.807 E-.26469
;WIPE_END
G1 X67.838 Y27.347 F9000
G1 E.8 F1800
;TYPE:Perimeter
;WIDTH:0.419999
G1 F1200
G1 X67.868 Y27.527 E.00572
G1 X68.07 Y27.84 E.01168
G1 X68.438 Y28.074 E.01367
G1 X68.741 Y28.125 E.00963
G1 X168.964 Y28.125 E3.14242
G1 X169.272 Y28.074 E.00979
G1 X169.64 Y27.84 E.01367
G1 X169.842 Y27.527 E.01168
G1 X169.902 Y27.281 E.00794
G1 X169.984 Y26.504 E.0245
G1 X170.157 Y25.971 E.01757
G1 X170.437 Y25.486 E.01756
G1 X170.812 Y25.07 E.01756
G1 X171.265 Y24.74 E.01757
G1 X171.777 Y24.512 E.01757
G1 X172.325 Y24.396 E.01756
G1 X172.885 Y24.396 E.01756
G1 X173.433 Y24.512 E.01756
G1 X173.945 Y24.74 E.01757
G1 X174.398 Y25.07 E.01757
G1 X174.773 Y25.486 E.01756
G1 X175.053 Y25.971 E.01756
G1 X175.227 Y26.504 E.01758
G1 X175.291 Y27.258 E.02373
G1 X175.291 Y95.997 E2.15526
G1 X169.919 Y95.997 E.16844
G1 X169.919 Y89.94 E.18991
G1 X169.888 Y89.7 E.00759
G1 X169.801 Y89.482 E.00736
G1 X169.608 Y89.239 E.00973
G1 X169.364 Y89.08 E.00913
G1 X168.977 Y88.997 E.01241
G1 X68.734 Y88.997 E3.14304
G1 X68.346 Y89.08 E.01244
G1 X68.103 Y89.239 E.00911
G1 X67.976 Y89.379 E.00593
G1 X67.822 Y89.7 E.01116
G1 X67.791 Y89.94 E.00759
G1 X67.791 Y95.997 E.18991
G1 X62.419 Y95.997 E.16844
G1 X62.419 Y27.117 E2.15968
G1 X62.484 Y26.504 E.01933
G1 X62.657 Y25.971 E.01757
G1 X62.937 Y25.486 E.01756
G1 X63.312 Y25.07 E.01756
G1 X63.765 Y24.74 E.01757
G1 X64.277 Y24.512 E.01757
G1 X64.825 Y24.396 E.01756
G1 X65.385 Y24.396 E.01756
G1 X65.933 Y24.512 E.01756
G1 X66.445 Y24.74 E.01757
G1 X66.898 Y25.07 E.01757
G1 X67.273 Y25.486 E.01756
G1 X67.553 Y25.971 E.01756
G1 X67.727 Y26.504 E.01758
G1 X67.776 Y26.977 E.01491
G1 X67.828 Y27.288 E.00989
G1 X68.214 Y27.323 F9000
G1 F1200
G1 X68.289 Y27.516 E.00649
G1 X68.426 Y27.649 E.00599
G1 X68.743 Y27.748 E.01041
G1 X168.967 Y27.748 E3.14245
G1 X169.285 Y27.649 E.01044
G1 X169.421 Y27.516 E.00596
G1 X169.527 Y27.242 E.00921
G1 X169.613 Y26.425 E.02576
G1 X169.81 Y25.817 E.02004
G1 X170.13 Y25.263 E.02006
G1 X170.558 Y24.788 E.02005
G1 X171.076 Y24.412 E.02007
G1 X171.66 Y24.152 E.02004
G1 X172.285 Y24.019 E.02004
G1 X172.925 Y24.019 E.02007
G1 X173.55 Y24.152 E.02004
G1 X174.135 Y24.412 E.02007
G1 X174.652 Y24.788 E.02004
G1 X175.08 Y25.263 E.02005
G1 X175.4 Y25.817 E.02006
G1 X175.597 Y26.425 E.02004
G1 X175.668 Y27.258 E.02621
G1 X175.668 Y96.374 E2.16708
G1 X169.542 Y96.374 E.19208
G1 X169.542 Y89.94 E.20173
G1 X169.524 Y89.796 E.00455
G1 X169.431 Y89.603 E.00672
G1 X169.209 Y89.424 E.00894
G1 X168.977 Y89.374 E.00744
G1 X68.734 Y89.374 E3.14304
G1 X68.501 Y89.424 E.00747
G1 X68.355 Y89.519 E.00546
G1 X68.239 Y89.665 E.00585
G1 X68.168 Y89.94 E.00891
G1 X68.168 Y96.374 E.20173
G1 X62.042 Y96.374 E.19208
G1 X62.042 Y27.097 E2.17213
G1 X62.113 Y26.425 E.02119
G1 X62.31 Y25.817 E.02004
G1 X62.63 Y25.263 E.02006
G1 X63.058 Y24.788 E.02005
G1 X63.576 Y24.412 E.02007
G1 X64.16 Y24.152 E.02004
G1 X64.785 Y24.019 E.02004
G1 X65.425 Y24.019 E.02007
G1 X66.05 Y24.152 E.02004
G1 X66.635 Y24.412 E.02007
G1 X67.152 Y24.788 E.02004
G1 X67.58 Y25.263 E.02005
G1 X67.9 Y25.817 E.02006
G1 X68.097 Y26.425 E.02004
G1 X68.183 Y27.242 E.02576
G1 X68.193 Y27.267 E.00084
G1 X68.558 Y27.202 F9000
;TYPE:External perimeter
G1 F1200
G1 X68.611 Y27.314 E.00389
G1 X68.745 Y27.371 E.00457
G1 X168.964 Y27.371 E3.14229
G1 X169.071 Y27.338 E.00351
G1 X169.152 Y27.202 E.00496
G1 X169.242 Y26.346 E.02699
G1 X169.464 Y25.663 E.02252
G1 X169.823 Y25.04 E.02254
G1 X170.304 Y24.506 E.02253
G1 X170.886 Y24.083 E.02256
G1 X171.543 Y23.791 E.02254
G1 X172.246 Y23.642 E.02253
G1 X172.965 Y23.642 E.02254
G1 X173.668 Y23.791 E.02253
G1 X174.324 Y24.083 E.02251
G1 X174.906 Y24.506 E.02256
G1 X175.387 Y25.04 E.02253
G1 X175.746 Y25.663 E.02254
G1 X175.968 Y26.346 E.02252
G1 X176.045 Y27.258 E.0287
G1 X176.045 Y96.751 E2.1789
G1 X169.165 Y96.751 E.21572
G1 X169.165 Y89.94 E.21355
G1 X169.128 Y89.828 E.0037
G1 X168.977 Y89.751 E.00531
G1 X68.734 Y89.751 E3.14304
G1 X68.607 Y89.8 E.00427
G1 X68.545 Y89.94 E.0048
G1 X68.545 Y96.751 E.21355
G1 X61.665 Y96.751 E.21572
G1 X61.665 Y27.077 E2.18458
G1 X61.742 Y26.346 E.02305
G1 X61.964 Y25.663 E.02252
G1 X62.323 Y25.04 E.02254
G1 X62.804 Y24.506 E.02253
G1 X63.386 Y24.083 E.02256
G1 X64.043 Y23.791 E.02254
G1 X64.746 Y23.642 E.02253
G1 X65.465 Y23.642 E.02254
G1 X66.168 Y23.791 E.02253
G1 X66.824 Y24.083 E.02251
G1 X67.406 Y24.506 E.02256
G1 X67.887 Y25.04 E.02253
G1 X68.246 Y25.663 E.02254
G1 X68.468 Y26.346 E.02252
G1 X68.552 Y27.143 E.02513
;WIPE_START
G1 F7200
G1 X68.558 Y27.202 E-.01408
G1 X68.611 Y27.314 E-.02943
G1 X68.745 Y27.371 E-.03458
G1 X71.785 Y27.371 E-.72191
;WIPE_END
G1 X68.622 Y31.017 F9000
G1 E.8 F1800
;TYPE:Perimeter
G1 F1200
G1 X68.746 Y30.997 E.00394
G1 X168.964 Y30.997 E3.14226
G1 X169.28 Y31.047 E.01003
G1 X169.649 Y31.279 E.01367
G1 X169.833 Y31.545 E.01014
G1 X169.919 Y31.94 E.01268
G1 X169.919 Y86.183 E1.70075
G1 X169.888 Y86.423 E.00759
G1 X169.734 Y86.743 E.01113
G1 X169.608 Y86.883 E.00591
G1 X169.364 Y87.042 E.00913
G1 X168.977 Y87.125 E.01241
G1 X68.734 Y87.125 E3.14304
G1 X68.346 Y87.042 E.01244
G1 X68.103 Y86.883 E.00911
G1 X67.909 Y86.64 E.00975
G1 X67.805 Y86.345 E.00981
G1 X67.791 Y86.183 E.0051
G1 X67.791 Y31.94 E1.70075
G1 X67.877 Y31.545 E.01268
G1 X68.061 Y31.279 E.01014
G1 X68.43 Y31.047 E.01367
G1 X68.563 Y31.026 E.00422
G1 X68.653 Y31.399 F9000
G1 F1200
G1 X68.734 Y31.374 E.00266
G1 X168.964 Y31.374 E3.14264
G1 X169.159 Y31.404 E.00619
G1 X169.38 Y31.543 E.00819
G1 X169.49 Y31.703 E.00609
G1 X169.542 Y31.94 E.00761
G1 X169.542 Y86.183 E1.70075
G1 X169.471 Y86.457 E.00887
G1 X169.355 Y86.603 E.00585
G1 X169.209 Y86.698 E.00546
G1 X168.977 Y86.748 E.00744
G1 X68.734 Y86.748 E3.14304
G1 X68.501 Y86.698 E.00747
G1 X68.279 Y86.519 E.00894
G1 X68.177 Y86.28 E.00815
G1 X68.168 Y86.183 E.00305
G1 X68.168 Y31.94 E1.70075
G1 X68.22 Y31.703 E.00761
G1 X68.416 Y31.472 E.0095
G1 X68.596 Y31.416 E.00591
G1 X68.746 Y31.751 F9000
;TYPE:External perimeter
G1 F1200
G1 X168.964 Y31.751 E3.14226
G1 X169.111 Y31.808 E.00494
G1 X169.165 Y31.94 E.00447
G1 X169.165 Y86.183 E1.70075
G1 X169.103 Y86.323 E.0048
G1 X168.977 Y86.371 E.00423
G1 X68.734 Y86.371 E3.14304
G1 X68.582 Y86.295 E.00533
G1 X68.545 Y86.183 E.0037
G1 X68.545 Y31.94 E1.70075
G1 X68.599 Y31.808 E.00447
G1 X68.69 Y31.773 E.00306
;WIPE_START
G1 F7200
G1 X68.746 Y31.751 E-.01429
G1 X72.054 Y31.751 E-.78571
;WIPE_END
G1 X175.131 Y26.747 F9000
G1 E.8 F1800
;TYPE:Solid infill
;WIDTH:0.420371
G1 F1200
G1 X173.128 Y24.744 E.0889
G1 X172.855 Y24.686 E.00876
G1 X172.536 Y24.686 E.01001
G1 X175.001 Y27.151 E.10941
G1 X175.001 Y27.685 E.01676
G1 X172.064 Y24.748 E.13036
G1 X171.867 Y24.79 E.00632
G1 X171.663 Y24.881 E.00701
G1 X175.001 Y28.218 E.14814
G1 X175.001 Y28.752 E.01676
G1 X171.313 Y25.064 E.16369
G1 X171.004 Y25.29 E.01202
G1 X175.001 Y29.286 E.17739
G1 X175.001 Y29.82 E.01676
G1 X170.751 Y25.571 E.18862
G1 X170.673 Y25.657 E.00364
G1 X170.538 Y25.891 E.00848
G1 X175.001 Y30.354 E.19809
G1 X175.001 Y30.887 E.01673
G1 X170.369 Y26.256 E.20557
G1 X170.269 Y26.565 E.01019
G1 X170.257 Y26.678 E.00357
G1 X175.001 Y31.421 E.21054
G1 X175.001 Y31.955 E.01676
G1 X170.205 Y27.159 E.21287
G1 X170.179 Y27.397 E.00751
G1 X170.12 Y27.608 E.00688
G1 X175.001 Y32.489 E.21664
G1 X175.001 Y33.023 E.01676
G1 X169.927 Y27.949 E.22521
G1 X169.848 Y28.044 E.00388
G1 X169.65 Y28.206 E.00803
G1 X175.001 Y33.556 E.23748
G1 X175.001 Y34.09 E.01676
G1 X169.275 Y28.365 E.25413
G1 X168.979 Y28.416 E.00943
G1 X168.792 Y28.416 E.00587
G1 X175.001 Y34.624 E.27557
G1 X175.001 Y35.158 E.01676
G1 X168.258 Y28.416 E.29927
G1 X167.725 Y28.416 E.01673
G1 X175.001 Y35.692 E.32295
G1 X175.001 Y36.225 E.01673
G1 X167.191 Y28.416 E.34663
G1 X166.657 Y28.416 E.01676
G1 X168.948 Y30.707 E.10169
G1 X168.414 Y30.707 E.01676
G1 X166.123 Y28.416 E.10169
G1 X165.589 Y28.416 E.01676
G1 X167.88 Y30.707 E.10169
G1 X167.347 Y30.707 E.01673
G1 X165.056 Y28.416 E.10169
G1 X164.522 Y28.416 E.01676
G1 X166.813 Y30.707 E.10169
G1 X166.279 Y30.707 E.01676
G1 X163.988 Y28.416 E.10169
G1 X163.454 Y28.416 E.01676
G1 X165.745 Y30.707 E.10169
G1 X165.211 Y30.707 E.01676
G1 X162.92 Y28.416 E.10169
G1 X162.387 Y28.416 E.01673
G1 X164.678 Y30.707 E.10169
G1 X164.144 Y30.707 E.01676
G1 X161.853 Y28.416 E.10169
G1 X161.319 Y28.416 E.01676
G1 X163.61 Y30.707 E.10169
G1 X163.076 Y30.707 E.01676
G1 X160.785 Y28.416 E.10169
G1 X160.251 Y28.416 E.01676
G1 X162.542 Y30.707 E.10169
G1 X162.009 Y30.707 E.01673
G1 X159.718 Y28.416 E.10169
G1 X159.184 Y28.416 E.01676
G1 X161.475 Y30.707 E.10169
G1 X160.941 Y30.707 E.01676
G1 X158.65 Y28.416 E.10169
G1 X158.116 Y28.416 E.01676
G1 X160.407 Y30.707 E.10169
G1 X159.873 Y30.707 E.01676
G1 X157.582 Y28.416 E.10169
G1 X157.049 Y28.416 E.01673
G1 X159.34 Y30.707 E.10169
G1 X158.806 Y30.707 E.01676
G1 X156.515 Y28.416 E.10169
G1 X155.981 Y28.416 E.01676
G1 X158.272 Y30.707 E.10169
G1 X157.738 Y30.707 E.01676
G1 X155.447 Y28.416 E.10169
G1 X154.913 Y28.416 E.01676
G1 X157.204 Y30.707 E.10169
G1 X156.671 Y30.707 E.01673
G1 X154.38 Y28.416 E.10169
G1 X153.846 Y28.416 E.01676
G1 X156.137 Y30.707 E.10169
G1 X155.603 Y30.707 E.01676
G1 X153.312 Y28.416 E.10169
G1 X152.778 Y28.416 E.01676
G1 X155.069 Y30.707 E.10169
G1 X154.535 Y30.707 E.01676
G1 X152.244 Y28.416 E.10169
G1 X151.711 Y28.416 E.01673
G1 X154.002 Y30.707 E.10169
G1 X153.468 Y30.707 E.01676
G1 X151.177 Y28.416 E.10169
G1 X150.643 Y28.416 E.01676
G1 X152.934 Y30.707 E.10169
G1 X152.4 Y30.707 E.01676
G1 X150.109 Y28.416 E.10169
G1 X149.576 Y28.416 E.01673
G1 X151.867 Y30.707 E.10169
G1 X151.333 Y30.707 E.01676
G1 X149.042 Y28.416 E.10169
G1 X148.508 Y28.416 E.01676
G1 X150.799 Y30.707 E.10169
G1 X150.265 Y30.707 E.01676
G1 X147.974 Y28.416 E.10169
G1 X147.44 Y28.416 E.01676
G1 X149.731 Y30.707 E.10169
G1 X149.198 Y30.707 E.01673
G1 X146.907 Y28.416 E.10169
G1 X146.373 Y28.416 E.01676
G1 X148.664 Y30.707 E.10169
G1 X148.13 Y30.707 E.01676
G1 X145.839 Y28.416 E.10169
G1 X145.305 Y28.416 E.01676
G1 X147.596 Y30.707 E.10169
G1 X147.062 Y30.707 E.01676
G1 X144.771 Y28.416 E.10169
G1 X144.238 Y28.416 E.01673
G1 X146.529 Y30.707 E.10169
G1 X145.995 Y30.707 E.01676
G1 X143.704 Y28.416 E.10169
G1 X143.17 Y28.416 E.01676
G1 X145.461 Y30.707 E.10169
G1 X144.927 Y30.707 E.01676
G1 X142.636 Y28.416 E.10169
G1 X142.102 Y28.416 E.01676
G1 X144.393 Y30.707 E.10169
G1 X143.86 Y30.707 E.01673
G1 X141.569 Y28.416 E.10169
G1 X141.035 Y28.416 E.01676
G1 X143.326 Y30.707 E.10169
G1 X142.792 Y30.707 E.01676
G1 X140.501 Y28.416 E.10169
G1 X139.967 Y28.416 E.01676
G1 X142.258 Y30.707 E.10169
G1 X141.724 Y30.707 E.01676
G1 X139.433 Y28.416 E.10169
G1 X138.9 Y28.416 E.01673
G1 X141.191 Y30.707 E.10169
G1 X140.657 Y30.707 E.01676
G1 X138.366 Y28.416 E.10169
G1 X137.832 Y28.416 E.01676
G1 X140.123 Y30.707 E.10169
G1 X139.589 Y30.707 E.01676
G1 X137.298 Y28.416 E.10169
G1 X136.764 Y28.416 E.01676
G1 X139.055 Y30.707 E.10169
G1 X138.522 Y30.707 E.01673
G1 X136.231 Y28.416 E.10169
G1 X135.697 Y28.416 E.01676
G1 X137.988 Y30.707 E.10169
G1 X137.454 Y30.707 E.01676
G1 X135.163 Y28.416 E.10169
G1 X134.629 Y28.416 E.01676
G1 X136.92 Y30.707 E.10169
G1 X136.386 Y30.707 E.01676
G1 X134.095 Y28.416 E.10169
G1 X133.562 Y28.416 E.01673
G1 X135.853 Y30.707 E.10169
G1 X135.319 Y30.707 E.01676
G1 X133.028 Y28.416 E.10169
G1 X132.494 Y28.416 E.01676
G1 X134.785 Y30.707 E.10169
G1 X134.251 Y30.707 E.01676
G1 X131.96 Y28.416 E.10169
G1 X131.426 Y28.416 E.01676
G1 X133.717 Y30.707 E.10169
G1 X133.184 Y30.707 E.01673
G1 X130.893 Y28.416 E.10169
G1 X130.359 Y28.416 E.01676
G1 X132.65 Y30.707 E.10169
G1 X132.116 Y30.707 E.01676
G1 X129.825 Y28.416 E.10169
G1 X129.291 Y28.416 E.01676
G1 X131.582 Y30.707 E.10169
G1 X131.048 Y30.707 E.01676
G1 X128.757 Y28.416 E.10169
G1 X128.224 Y28.416 E.01673
G1 X130.515 Y30.707 E.10169
G1 X129.981 Y30.707 E.01676
G1 X127.69 Y28.416 E.10169
G1 X127.156 Y28.416 E.01676
G1 X129.447 Y30.707 E.10169
G1 X128.913 Y30.707 E.01676
G1 X126.622 Y28.416 E.10169
G1 X126.088 Y28.416 E.01676
G1 X128.379 Y30.707 E.10169
G1 X127.846 Y30.707 E.01673
G1 X125.555 Y28.416 E.10169
G1 X125.021 Y28.416 E.01676
G1 X127.312 Y30.707 E.10169
G1 X126.778 Y30.707 E.01676
G1 X124.487 Y28.416 E.10169
G1 X123.953 Y28.416 E.01676
G1 X126.244 Y30.707 E.10169
G1 X125.71 Y30.707 E.01676
G1 X123.419 Y28.416 E.10169
G1 X122.886 Y28.416 E.01673
G1 X125.177 Y30.707 E.10169
G1 X124.643 Y30.707 E.01676
G1 X122.352 Y28.416 E.10169
G1 X121.818 Y28.416 E.01676
G1 X124.109 Y30.707 E.10169
