; generated by PrusaSlicer 2.7.1 on 2024-02-27 at 05:26:48 UTC


;
;

;
;
; 

; external perimeters extrusion width = 0.42mm
; perimeters extrusion width = 0.44mm
; infill extrusion width = 0.44mm
; solid infill extrusion width = 0.44mm
; top infill extrusion width = 0.40mm
; support material extrusion width = 0.36mm
; first layer extrusion width = 0.42mm

; external perimeters extrusion width = 0.42mm
; perimeters extrusion width = 0.44mm
; infill extrusion width = 0.44mm
; solid infill extrusion width = 0.44mm
; top infill extrusion width = 0.40mm
; support material extrusion width = 0.36mm
; first layer extrusion width = 0.42mm



; Pre-Processed for Cancel-Object support by preprocess_cancellation v0.2.0
; 2 known objects
EXCLUDE_OBJECT_DEFINE NAME=118692_stl_id_1_copy_0 CENTER=109.866,118.462 POLYGON=[[91.344,105.609],[91.344,135.987],[125.924,135.987],[125.924,105.609]]
EXCLUDE_OBJECT_DEFINE NAME=TomTom_support_to_GoProSupport_stl_id_0_copy_0 CENTER=110.079,111.905 POLYGON=[[73.597,64.631],[73.597,155.37],[146.403,155.37],[146.403,64.631]]
M201 X500 Y500 Z100 E5000 ; sets maximum accelerations, mm/sec^2
M203 X500 Y500 Z10 E60 ; sets maximum feedrates, mm / sec
M204 S500 T1000 ; sets acceleration (S) and retract acceleration (R), mm/sec^2
M205 X8.00 Y8.00 Z0.40 E5.00 ; sets the jerk limits, mm/sec
M205 S0 T0 ; sets the minimum extruding and travel feed rate, mm/sec

; printing object 118692.stl id:1 copy 0
EXCLUDE_OBJECT_START NAME=118692_stl_id_1_copy_0
; stop printing object 118692.stl id:1 copy 0
EXCLUDE_OBJECT_END NAME=118692_stl_id_1_copy_0
; printing object TomTom_support_to_GoProSupport.stl id:0 copy 0
EXCLUDE_OBJECT_START NAME=TomTom_support_to_GoProSupport_stl_id_0_copy_0
; stop printing object TomTom_support_to_GoProSupport.stl id:0 copy 0
EXCLUDE_OBJECT_END NAME=TomTom_support_to_GoProSupport_stl_id_0_copy_0

;TYPE:Custom
G90 ; use absolute coordinates
M83 ; extruder relative mode
G28
M109 S0
M190 S0
start_print EXTRUDER_TEMP=210 BED_TEMP=60

M104 S150 ; set temporary nozzle temp to prevent oozing during homing
M140 S60 ; set final bed temp
G4 S30 ; allow partial nozzle warmup
G28 ; home all axis and restore leveling

G1 Z50 F240
G1 X2.0 Y10 F3000
M104 S210 ; set final nozzle temp
M190 S60 ; wait for bed temp to stabilize
M109 S210 ; wait for nozzle temp to stabilize
G1 Z0.28 F240
G92 E0
G1 X2.0 Y140 E10 F1500 ; prime the nozzle
G1 X2.3 Y140 F5000
G92 E0
G1 X2.3 Y10 E10 F1200 ; prime the nozzle
G92 E0
G21 ; set units to millimeters
G90 ; use absolute coordinates
M83 ; use relative distances for extrusion
; Filament gcode
M107
;LAYER_CHANGE
;Z:0.2
;HEIGHT:0.2
;BEFORE_LAYER_CHANGE
G92 E0
;0.2


G1 E-.8 F1800
G1 Z.2 F9000
;AFTER_LAYER_CHANGE
;0.2
G1 X96.141 Y75.771
G1 Z.2
G1 E.8 F1800
M204 S500
;TYPE:Skirt/Brim
;WIDTH:0.42
G1 F1200
G1 X102.848 Y67.261 E.33973
G1 X104.137 Y66.261 E.05115
G1 X105.5 Y65.974 E.04367
G1 X114.5 Y65.974 E.28219
G1 X116.083 Y66.368 E.05115
G1 X117.152 Y67.261 E.04367
G1 X138.746 Y94.659 E1.09379
G1 X141.025 Y97.657 E.11808
G1 X143.142 Y101.136 E.12769
G1 X145.005 Y105.163 E.13912
G1 X146.188 Y108.676 E.11623
G1 X147.083 Y112.649 E.12769
G1 X147.563 Y117.06 E.13912
G1 X147.563 Y120.767 E.11623
G1 X147.142 Y124.817 E.12767
G1 X146.188 Y129.151 E.13914
G1 X144.869 Y133.003 E.12766
G1 X143.142 Y136.691 E.12769
G1 X141.23 Y139.867 E.11623
G1 X138.782 Y143.121 E.12767
G1 X135.996 Y146.091 E.12768
G1 X132.905 Y148.742 E.12768
G1 X129.546 Y151.044 E.12768
G1 X125.957 Y152.969 E.1277
G1 X122.182 Y154.495 E.12767
G1 X118.263 Y155.603 E.12769
G1 X114.248 Y156.281 E.12767
G1 X110.183 Y156.522 E.12768
G1 X105.752 Y156.281 E.13914
G1 X101.737 Y155.603 E.12767
G1 X97.818 Y154.495 E.12769
G1 X94.043 Y152.969 E.12767
G1 X90.454 Y151.044 E.1277
G1 X87.386 Y148.964 E.11622
G1 X84.27 Y146.343 E.12767
G1 X81.455 Y143.4 E.12769
G1 X78.975 Y140.17 E.12768
G1 X76.687 Y136.368 E.13913
G1 X74.995 Y132.664 E.12768
G1 X73.714 Y128.799 E.12767
G1 X72.858 Y124.817 E.12771
G1 X72.437 Y120.767 E.12767
G1 X72.437 Y117.06 E.11623
G1 X72.858 Y113.01 E.12767
G1 X73.714 Y109.028 E.12771
G1 X74.995 Y105.163 E.12767
G1 X76.687 Y101.459 E.12768
G1 X78.77 Y97.96 E.12768
G1 X81.254 Y94.659 E.12953
G1 X96.104 Y75.818 E.75218
; printing object TomTom_support_to_GoProSupport.stl id:0 copy 0
EXCLUDE_OBJECT_START NAME=TomTom_support_to_GoProSupport_stl_id_0_copy_0
;WIPE_START
G1 F7200
G1 X96.141 Y75.771 E-.01421
G1 X98.189 Y73.172 E-.78579
;WIPE_END
G1 X107.922 Y81.001 F9000
G1 E.8 F1800
;TYPE:Perimeter
;WIDTH:0.419999
G1 F1200
G1 X108.079 Y81.032 E.00502
G1 X111.921 Y81.032 E.12046
G1 X112.284 Y80.96 E.0116
G1 X112.676 Y80.655 E.01557
;WIDTH:0.455536
G1 X112.751 Y80.524 E.00518
;WIDTH:0.491073
G1 X112.827 Y80.393 E.00564
;WIDTH:0.52661
G1 X112.902 Y80.262 E.00607
G1 X112.913 Y80.089 E.00697
;WIDTH:0.517302
G1 X112.913 Y71.332 E.34542
G1 X113.387 Y71.332 E.0187
G1 X113.387 Y80.089 E.34542
;WIDTH:0.52661
G1 X113.4 Y80.505 E.01674
;WIDTH:0.491073
G1 X113.418 Y80.707 E.00756
;WIDTH:0.455536
G1 X113.436 Y80.908 E.00692
;WIDTH:0.419999
G1 X113.436 Y86.063 E.16163
G1 X113.526 Y86.465 E.01292
G1 X113.67 Y86.684 E.00822
G1 X113.898 Y86.874 E.00931
G1 X114.226 Y86.993 E.01094
G1 X116.929 Y87.436 E.08588
G1 X120.291 Y88.37 E.10941
G1 X123.533 Y89.661 E.10941
G1 X126.617 Y91.296 E.10945
G1 X129.505 Y93.255 E.10942
G1 X132.165 Y95.514 E.10942
G1 X134.565 Y98.048 E.10943
G1 X136.677 Y100.826 E.10942
G1 X138.476 Y103.816 E.10941
G1 X139.942 Y106.984 E.10945
G1 X141.056 Y110.291 E.10941
G1 X141.806 Y113.699 E.10941
G1 X142.184 Y117.234 E.11147
G1 X142.184 Y120.658 E.10736
G1 X141.806 Y124.128 E.10944
G1 X141.056 Y127.536 E.10941
G1 X139.942 Y130.843 E.10941
G1 X138.476 Y134.011 E.10945
G1 X136.677 Y137.001 E.10941
G1 X134.565 Y139.779 E.10942
G1 X132.165 Y142.313 E.10943
G1 X129.505 Y144.572 E.10942
G1 X126.617 Y146.531 E.10942
G1 X123.533 Y148.165 E.10943
G1 X120.291 Y149.457 E.10943
G1 X116.929 Y150.391 E.10941
G1 X113.485 Y150.955 E.10942
G1 X110 Y151.144 E.10943
G1 X106.515 Y150.955 E.10943
G1 X103.071 Y150.391 E.10942
G1 X99.709 Y149.457 E.10941
G1 X96.467 Y148.165 E.10943
G1 X93.383 Y146.531 E.10943
G1 X90.495 Y144.572 E.10942
G1 X87.835 Y142.313 E.10942
G1 X85.435 Y139.779 E.10943
G1 X83.323 Y137.001 E.10942
G1 X81.524 Y134.011 E.10941
G1 X80.058 Y130.843 E.10945
G1 X78.944 Y127.536 E.10941
G1 X78.194 Y124.128 E.10941
G1 X77.816 Y120.658 E.10944
G1 X77.816 Y117.169 E.10939
G1 X78.194 Y113.699 E.10944
G1 X78.944 Y110.291 E.10941
G1 X80.058 Y106.984 E.10941
G1 X81.524 Y103.816 E.10945
G1 X83.323 Y100.826 E.10941
G1 X85.435 Y98.048 E.10942
G1 X87.835 Y95.514 E.10943
G1 X90.495 Y93.255 E.10942
G1 X93.383 Y91.296 E.10942
G1 X96.467 Y89.661 E.10945
G1 X99.709 Y88.37 E.10941
G1 X103.071 Y87.436 E.10941
G1 X105.774 Y86.993 E.08588
G1 X106.01 Y86.921 E.00774
G1 X106.329 Y86.685 E.01244
G1 X106.474 Y86.466 E.00824
G1 X106.564 Y86.063 E.01295
G1 X106.564 Y80.908 E.16163
;WIDTH:0.468651
G1 X106.588 Y80.499 E.0145
;WIDTH:0.517302
G1 X106.613 Y80.089 E.0162
G1 X106.613 Y71.332 E.34542
G1 X107.087 Y71.332 E.0187
G1 X107.087 Y80.089 E.34542
;WIDTH:0.526611
G1 X107.098 Y80.262 E.00697
G1 X107.173 Y80.393 E.00607
;WIDTH:0.491074
G1 X107.249 Y80.524 E.00564
;WIDTH:0.455537
G1 X107.324 Y80.655 E.00518
;WIDTH:0.419999
G1 X107.716 Y80.96 E.01557
G1 X107.863 Y80.989 E.0047
G1 X108 Y80.639 F9000
G1 F1200
G1 X108.079 Y80.655 E.00253
G1 X111.921 Y80.655 E.12046
G1 X112.139 Y80.612 E.00697
G1 X112.374 Y80.429 E.00934
G1 X112.487 Y80.089 E.01123
G1 X112.487 Y70.906 E.28793
G1 X113.813 Y70.906 E.04158
G1 X113.813 Y86.063 E.47524
G1 X113.867 Y86.304 E.00774
G1 X114.09 Y86.549 E.01039
G1 X114.287 Y86.621 E.00658
G1 X117.01 Y87.067 E.08652
G1 X120.412 Y88.012 E.11071
G1 X123.692 Y89.319 E.11071
G1 X126.811 Y90.973 E.11069
G1 X129.734 Y92.954 E.11071
G1 X132.425 Y95.24 E.11071
G1 X134.853 Y97.803 E.11069
G1 X136.99 Y100.614 E.11071
G1 X138.81 Y103.639 E.11069
G1 X140.293 Y106.844 E.11073
G1 X141.42 Y110.19 E.1107
G1 X142.179 Y113.638 E.1107
G1 X142.561 Y117.234 E.11338
G1 X142.561 Y120.679 E.10802
G1 X142.179 Y124.189 E.1107
G1 X141.42 Y127.637 E.1107
G1 X140.293 Y130.983 E.1107
G1 X138.81 Y134.188 E.11073
G1 X136.99 Y137.213 E.11069
G1 X134.853 Y140.024 E.11071
G1 X132.425 Y142.587 E.11069
G1 X129.734 Y144.873 E.11071
G1 X126.811 Y146.854 E.11071
G1 X123.692 Y148.508 E.11069
G1 X120.412 Y149.815 E.11071
G1 X117.01 Y150.76 E.11071
G1 X113.526 Y151.331 E.1107
G1 X110 Y151.522 E.11072
G1 X106.474 Y151.331 E.11072
G1 X102.99 Y150.76 E.1107
G1 X99.588 Y149.815 E.11071
G1 X96.308 Y148.508 E.11071
G1 X93.189 Y146.854 E.11069
G1 X90.266 Y144.873 E.11071
G1 X87.575 Y142.587 E.11071
G1 X85.147 Y140.024 E.11069
G1 X83.01 Y137.213 E.11071
G1 X81.19 Y134.188 E.11069
G1 X79.707 Y130.983 E.11073
G1 X78.58 Y127.637 E.1107
G1 X77.821 Y124.189 E.1107
G1 X77.439 Y120.679 E.1107
G1 X77.439 Y117.148 E.11071
G1 X77.821 Y113.638 E.1107
G1 X78.58 Y110.19 E.1107
G1 X79.707 Y106.844 E.1107
G1 X81.19 Y103.639 E.11073
G1 X83.01 Y100.614 E.11069
G1 X85.147 Y97.803 E.11071
G1 X87.575 Y95.24 E.11069
G1 X90.266 Y92.954 E.11071
G1 X93.189 Y90.973 E.11071
G1 X96.308 Y89.319 E.11069
G1 X99.588 Y88.012 E.11071
G1 X102.99 Y87.067 E.11071
G1 X105.713 Y86.621 E.08652
G1 X105.909 Y86.55 E.00654
G1 X106.133 Y86.305 E.01041
G1 X106.187 Y86.063 E.00777
G1 X106.187 Y70.906 E.47524
G1 X107.513 Y70.906 E.04158
G1 X107.513 Y80.089 E.28793
G1 X107.626 Y80.429 E.01123
G1 X107.861 Y80.612 E.00934
G1 X107.942 Y80.628 E.00259
G1 X108.079 Y80.278 F9000
;TYPE:External perimeter
G1 F1200
G1 X111.921 Y80.278 E.12046
G1 X112.072 Y80.203 E.00529
G1 X112.11 Y80.089 E.00377
G1 X112.11 Y70.529 E.29975
G1 X114.19 Y70.529 E.06522
G1 X114.19 Y86.063 E.48706
G1 X114.237 Y86.187 E.00416
G1 X114.348 Y86.249 E.00399
G1 X117.091 Y86.699 E.08715
G1 X120.533 Y87.654 E.112
G1 X123.851 Y88.976 E.11199
G1 X127.006 Y90.649 E.11197
G1 X129.962 Y92.653 E.11197
G1 X132.685 Y94.966 E.11202
G1 X135.141 Y97.559 E.11198
G1 X137.302 Y100.402 E.11197
G1 X139.144 Y103.462 E.11199
G1 X140.643 Y106.704 E.11199
G1 X141.784 Y110.089 E.112
G1 X142.552 Y113.577 E.11198
G1 X142.938 Y117.234 E.1153
G1 X142.938 Y120.699 E.10864
G1 X142.552 Y124.25 E.11199
G1 X141.784 Y127.738 E.11198
G1 X140.643 Y131.123 E.112
G1 X139.144 Y134.364 E.11196
G1 X137.302 Y137.425 E.11201
G1 X135.141 Y140.268 E.11197
G1 X132.685 Y142.861 E.11198
G1 X129.962 Y145.173 E.112
G1 X127.006 Y147.178 E.11199
G1 X123.851 Y148.851 E.11197
G1 X120.533 Y150.173 E.11199
G1 X117.091 Y151.128 E.112
G1 X113.566 Y151.706 E.112
G1 X110 Y151.9 E.11197
G1 X106.434 Y151.706 E.11197
G1 X102.909 Y151.128 E.112
G1 X99.467 Y150.173 E.112
G1 X96.149 Y148.851 E.11199
G1 X92.994 Y147.178 E.11197
G1 X90.038 Y145.173 E.11199
G1 X87.315 Y142.861 E.112
G1 X84.859 Y140.268 E.11198
G1 X82.698 Y137.425 E.11197
G1 X80.856 Y134.364 E.11201
G1 X79.357 Y131.123 E.11196
G1 X78.216 Y127.738 E.112
G1 X77.448 Y124.25 E.11198
G1 X77.062 Y120.699 E.11199
G1 X77.062 Y117.128 E.11197
G1 X77.448 Y113.577 E.11199
G1 X78.216 Y110.089 E.11198
G1 X79.357 Y106.704 E.112
G1 X80.856 Y103.462 E.11199
G1 X82.698 Y100.402 E.11199
G1 X84.859 Y97.559 E.11197
G1 X87.315 Y94.966 E.11198
G1 X90.038 Y92.653 E.11202
G1 X92.994 Y90.649 E.11197
G1 X96.149 Y88.976 E.11197
G1 X99.467 Y87.654 E.11199
G1 X102.909 Y86.698 E.11201
G1 X105.652 Y86.249 E.08715
G1 X105.763 Y86.187 E.00399
G1 X105.81 Y86.063 E.00416
G1 X105.81 Y70.529 E.48706
G1 X107.89 Y70.529 E.06522
G1 X107.89 Y80.089 E.29975
G1 X107.928 Y80.203 E.00377
G1 X108.025 Y80.251 E.00339
;WIPE_START
G1 F7200
G1 X108.079 Y80.278 E-.01434
G1 X111.387 Y80.278 E-.78566
;WIPE_END
G1 X109.975 Y89.115 F9000
G1 E.8 F1800
;TYPE:Perimeter
G1 F1200
G1 X113.17 Y89.278 E.10031
G1 X113.835 Y89.381 E.0211
G1 X116.457 Y89.816 E.08333
G1 X119.565 Y90.685 E.10119
G1 X122.561 Y91.885 E.10119
G1 X125.41 Y93.401 E.10119
G1 X128.078 Y95.217 E.10119
G1 X130.534 Y97.31 E.10118
G1 X132.749 Y99.657 E.10119
G1 X134.698 Y102.23 E.10121
G1 X136.357 Y104.998 E.10118
G1 X137.707 Y107.929 E.10118
G1 X138.705 Y110.891 E.098
G1 X139.404 Y114.041 E.10117
G1 X139.758 Y117.249 E.10119
G1 X139.764 Y120.476 E.10118
G1 X139.404 Y123.786 E.10439
G1 X138.705 Y126.936 E.10117
G1 X137.669 Y129.993 E.1012
G1 X136.357 Y132.829 E.09798
G1 X134.698 Y135.597 E.10118
G1 X132.749 Y138.17 E.10121
G1 X130.534 Y140.517 E.10119
G1 X128.078 Y142.61 E.10118
G1 X125.41 Y144.426 E.10119
G1 X122.468 Y145.985 E.1044
G1 X119.468 Y147.174 E.10118
G1 X116.357 Y148.033 E.10119
G1 X113.172 Y148.549 E.10117
G1 X109.949 Y148.718 E.10119
G1 X106.828 Y148.549 E.098
G1 X103.643 Y148.033 E.10117
G1 X100.532 Y147.174 E.10119
G1 X97.532 Y145.985 E.10118
G1 X94.59 Y144.426 E.1044
G1 X91.922 Y142.61 E.10119
G1 X89.466 Y140.517 E.10118
G1 X87.251 Y138.17 E.10119
G1 X85.302 Y135.597 E.10121
G1 X83.643 Y132.829 E.10118
G1 X82.293 Y129.898 E.10118
G1 X81.268 Y126.838 E.10118
G1 X80.596 Y123.786 E.09799
G1 X80.242 Y120.578 E.10119
G1 X80.236 Y117.351 E.10118
G1 X80.574 Y114.189 E.09971
G1 X81.268 Y110.989 E.10267
G1 X82.331 Y107.834 E.10439
G1 X83.691 Y104.907 E.1012
G1 X85.359 Y102.145 E.10117
G1 X87.317 Y99.579 E.1012
G1 X89.466 Y97.31 E.09799
G1 X91.922 Y95.217 E.10118
G1 X94.59 Y93.401 E.10119
G1 X97.532 Y91.842 E.1044
G1 X100.532 Y90.652 E.10119
G1 X103.543 Y89.816 E.09798
G1 X106.727 Y89.289 E.10119
G1 X109.901 Y89.111 E.09967
G1 X109.915 Y89.112 E.00044
G1 X109.959 Y89.49 F9000
G1 F1200
G1 X113.15 Y89.654 E.10018
G1 X113.774 Y89.753 E.01981
G1 X116.356 Y90.18 E.08206
G1 X119.426 Y91.035 E.09992
G1 X122.384 Y92.218 E.09989
G1 X125.198 Y93.713 E.09991
G1 X127.834 Y95.504 E.09992
G1 X130.26 Y97.57 E.09991
G1 X132.449 Y99.885 E.0999
G1 X134.375 Y102.424 E.09992
G1 X136.015 Y105.156 E.09991
G1 X137.35 Y108.049 E.0999
G1 X138.364 Y111.07 E.09991
G1 X139.046 Y114.183 E.09992
G1 X139.387 Y117.351 E.0999
G1 X139.387 Y120.476 E.09798
G1 X139.036 Y123.705 E.10184
G1 X138.348 Y126.816 E.0999
G1 X137.327 Y129.834 E.0999
G1 X136.015 Y132.671 E.098
G1 X134.375 Y135.403 E.09991
G1 X132.449 Y137.942 E.09992
G1 X130.26 Y140.257 E.0999
G1 X127.834 Y142.323 E.09991
G1 X125.198 Y144.114 E.09992
G1 X122.329 Y145.635 E.10181
G1 X119.368 Y146.811 E.09989
G1 X116.296 Y147.661 E.09994
G1 X113.151 Y148.173 E.09991
G1 X109.969 Y148.342 E.09991
G1 X106.849 Y148.173 E.09797
G1 X103.704 Y147.661 E.09991
G1 X100.632 Y146.811 E.09994
G1 X97.671 Y145.635 E.09989
G1 X94.802 Y144.114 E.10181
G1 X92.166 Y142.323 E.09992
G1 X89.74 Y140.257 E.09991
G1 X87.551 Y137.942 E.0999
G1 X85.625 Y135.403 E.09992
G1 X83.985 Y132.671 E.09991
G1 X82.65 Y129.778 E.0999
G1 X81.652 Y126.816 E.098
G1 X80.964 Y123.705 E.0999
G1 X80.616 Y120.537 E.09993
G1 X80.613 Y117.351 E.09989
G1 X80.949 Y114.23 E.09842
G1 X81.636 Y111.07 E.10139
G1 X82.673 Y107.992 E.10184
G1 X84.014 Y105.102 E.09989
G1 X85.66 Y102.373 E.09992
G1 X87.551 Y99.885 E.09798
G1 X89.74 Y97.57 E.0999
G1 X92.166 Y95.504 E.09991
G1 X94.802 Y93.713 E.09992
G1 X97.671 Y92.192 E.10181
G1 X100.574 Y91.035 E.09798
G1 X103.644 Y90.18 E.09992
G1 X106.788 Y89.661 E.09991
G1 X109.899 Y89.489 E.09769
G1 X109.942 Y89.864 F9000
;TYPE:External perimeter
G1 F1200
G1 X113.131 Y90.031 E.10013
G1 X113.713 Y90.125 E.01848
G1 X116.255 Y90.543 E.08077
G1 X119.286 Y91.386 E.09864
G1 X122.208 Y92.551 E.09863
G1 X124.987 Y94.025 E.09863
G1 X127.59 Y95.792 E.09864
G1 X129.986 Y97.829 E.0986
G1 X132.149 Y100.113 E.09863
G1 X134.052 Y102.618 E.09864
G1 X135.673 Y105.314 E.09863
G1 X136.985 Y108.151 E.098
G1 X137.99 Y111.131 E.09861
G1 X138.668 Y114.203 E.09864
G1 X139.009 Y117.33 E.09863
G1 X139.01 Y120.476 E.09864
G1 X138.668 Y123.624 E.09928
G1 X137.99 Y126.696 E.09864
G1 X136.985 Y129.676 E.09861
G1 X135.673 Y132.513 E.098
G1 X134.052 Y135.209 E.09863
G1 X132.149 Y137.714 E.09864
G1 X129.986 Y139.998 E.09863
G1 X127.59 Y142.035 E.0986
G1 X124.987 Y143.802 E.09864
G1 X122.189 Y145.285 E.09929
G1 X119.267 Y146.448 E.09861
G1 X116.235 Y147.288 E.09865
G1 X113.131 Y147.796 E.09862
G1 X109.99 Y147.965 E.09863
G1 X106.869 Y147.796 E.098
G1 X103.765 Y147.288 E.09862
G1 X100.733 Y146.448 E.09865
G1 X97.811 Y145.285 E.09861
G1 X95.013 Y143.802 E.09929
