; generated by PrusaSlicer 2.7.1 on 2025-02-17 at 20:22:19 UTC


;
;

;
;
; 

; external perimeters extrusion width = 0.42mm
; perimeters extrusion width = 0.44mm
; infill extrusion width = 0.44mm
; solid infill extrusion width = 0.44mm
; top infill extrusion width = 0.40mm
; first layer extrusion width = 0.42mm



; Pre-Processed for Cancel-Object support by preprocess_cancellation v0.2.0
; 1 known objects
EXCLUDE_OBJECT_DEFINE NAME=top_plate_v1_stl_id_0_copy_0 CENTER=109.679,129.863 POLYGON=[[81.69,85.106],[81.69,182.686],[137.27,182.686],[137.27,85.106]]
M201 X500 Y500 Z100 E5000 ; sets maximum accelerations, mm/sec^2
M203 X500 Y500 Z10 E60 ; sets maximum feedrates, mm / sec
M204 S500 T1000 ; sets acceleration (S) and retract acceleration (R), mm/sec^2
M205 X8.00 Y8.00 Z0.40 E5.00 ; sets the jerk limits, mm/sec
M205 S0 T0 ; sets the minimum extruding and travel feed rate, mm/sec

; printing object top plate v1.stl id:0 copy 0
EXCLUDE_OBJECT_START NAME=top_plate_v1_stl_id_0_copy_0
; stop printing object top plate v1.stl id:0 copy 0
EXCLUDE_OBJECT_END NAME=top_plate_v1_stl_id_0_copy_0

;TYPE:Custom
G90 ; use absolute coordinates
M83 ; extruder relative mode
G28
M109 S0
M190 S0
start_print EXTRUDER_TEMP=210 BED_TEMP=60

M104 S150 ; set temporary nozzle temp to prevent oozing during homing
M140 S60 ; set final bed temp
G4 S30 ; allow partial nozzle warmup
G28 ; home all axis and restore leveling

G1 Z50 F240
G1 X2.0 Y10 F3000
M104 S210 ; set final nozzle temp
M190 S60 ; wait for bed temp to stabilize
M109 S210 ; wait for nozzle temp to stabilize
G1 Z0.28 F240
G92 E0
G1 X2.0 Y140 E10 F1500 ; prime the nozzle
G1 X2.3 Y140 F5000
G92 E0
G1 X2.3 Y10 E10 F1200 ; prime the nozzle
G92 E0
G21 ; set units to millimeters
G90 ; use absolute coordinates
M83 ; use relative distances for extrusion
; Filament gcode
M107
;LAYER_CHANGE
;Z:0.2
;HEIGHT:0.2
;BEFORE_LAYER_CHANGE
G92 E0
;0.2


G1 E-.8 F1800
G1 Z.2 F9000
;AFTER_LAYER_CHANGE
;0.2
G1 X80.216 Y83.164
G1 Z.2
G1 E.8 F1800
M204 S500
;TYPE:Skirt/Brim
;WIDTH:0.42
G1 F1200
G1 X80.671 Y82.791 E.01845
G1 X81.247 Y82.409 E.02167
G1 X82.351 Y81.892 E.03822
G1 X83.563 Y81.592 E.03915
G1 X84.149 Y81.535 E.01846
G1 X134.811 Y81.535 E1.58847
G1 X136.045 Y81.722 E.03913
G1 X137.22 Y82.146 E.03917
G1 X138.289 Y82.791 E.03915
G1 X139.212 Y83.632 E.03915
G1 X139.585 Y84.086 E.01842
G1 X140.23 Y85.156 E.03917
G1 X140.654 Y86.33 E.03914
G1 X140.841 Y87.565 E.03916
G1 X140.857 Y179.896 E2.89497
G1 X140.654 Y181.461 E.04948
G1 X140.23 Y182.636 E.03917
G1 X139.585 Y183.705 E.03915
G1 X139.212 Y184.159 E.01842
G1 X138.289 Y185 E.03915
G1 X137.738 Y185.368 E.02078
G1 X136.608 Y185.899 E.03915
G1 X136.045 Y186.07 E.01845
G1 X134.811 Y186.256 E.03913
G1 X84.48 Y186.273 E1.57809
G1 X82.914 Y186.07 E.04951
G1 X81.74 Y185.645 E.03915
G1 X81.221 Y185.368 E.01845
G1 X80.216 Y184.627 E.03915
G1 X79.748 Y184.159 E.02075
G1 X79.007 Y183.154 E.03915
G1 X78.476 Y182.024 E.03915
G1 X78.306 Y181.461 E.01844
G1 X78.103 Y179.896 E.04948
G1 X78.103 Y87.896 E2.8846
G1 X78.306 Y86.33 E.04951
G1 X78.73 Y85.156 E.03914
G1 X79.431 Y84.018 E.04191
G1 X80.175 Y83.208 E.03448
; printing object top plate v1.stl id:0 copy 0
EXCLUDE_OBJECT_START NAME=top_plate_v1_stl_id_0_copy_0
;WIPE_START
G1 F7200
G1 X80.216 Y83.164 E-.01428
G1 X80.671 Y82.791 E-.13973
G1 X81.247 Y82.409 E-.16415
G1 X82.351 Y81.892 E-.28953
G1 X83.137 Y81.698 E-.19231
;WIPE_END
G1 X132.062 Y181.831 F9000
G1 E.8 F1800
;TYPE:Perimeter
;WIDTH:0.419999
G1 F1200
G1 X86.897 Y181.831 E1.41611
G1 X87.232 Y181.343 E.01856
G1 X87.513 Y180.581 E.02546
G1 X87.587 Y179.772 E.02547
G1 X87.449 Y178.972 E.02545
G1 X87.232 Y178.449 E.01775
G1 X87.109 Y178.235 E.00774
G1 X86.764 Y177.785 E.01778
G1 X86.59 Y177.611 E.00772
G1 X86.14 Y177.266 E.01778
G1 X85.927 Y177.143 E.00771
G1 X85.403 Y176.926 E.01778
G1 X85.149 Y176.86 E.00823
G1 X84.317 Y176.794 E.02617
G1 X83.557 Y176.926 E.02419
G1 X83.033 Y177.143 E.01778
G1 X82.544 Y177.478 E.01859
G1 X82.544 Y90.313 E2.73299
G1 X83.033 Y90.648 E.01859
G1 X83.794 Y90.929 E.02544
G1 X84.603 Y91.003 E.02547
G1 X85.403 Y90.865 E.02545
G1 X86.14 Y90.525 E.02545
G1 X86.764 Y90.006 E.02545
G1 X87.232 Y89.343 E.02545
G1 X87.449 Y88.819 E.01778
G1 X87.519 Y88.534 E.0092
G1 X87.587 Y87.772 E.02399
G1 X87.449 Y86.972 E.02545
G1 X87.232 Y86.449 E.01775
G1 X86.898 Y85.96 E.01857
G1 X132.067 Y85.96 E1.41624
G1 X131.712 Y86.486 E.0199
G1 X131.447 Y87.21 E.02417
G1 X131.373 Y88.019 E.02547
G1 X131.51 Y88.819 E.02545
G1 X131.85 Y89.556 E.02545
G1 X132.37 Y90.18 E.02547
G1 X132.82 Y90.525 E.01778
G1 X133.06 Y90.659 E.00862
G1 X133.794 Y90.929 E.02452
G1 X134.603 Y91.003 E.02547
G1 X135.403 Y90.865 E.02545
G1 X135.927 Y90.648 E.01778
G1 X136.416 Y90.313 E.01859
G1 X136.416 Y177.478 E2.73299
G1 X135.927 Y177.143 E.01859
G1 X135.149 Y176.86 E.02596
G1 X134.317 Y176.794 E.02617
G1 X133.557 Y176.926 E.02419
G1 X133.033 Y177.143 E.01778
G1 X132.82 Y177.266 E.00771
G1 X132.37 Y177.612 E.0178
G1 X132.186 Y177.799 E.00823
G1 X131.712 Y178.486 E.02617
G1 X131.447 Y179.21 E.02417
G1 X131.373 Y180.019 E.02547
G1 X131.51 Y180.819 E.02545
G1 X131.727 Y181.343 E.01778
G1 X132.028 Y181.782 E.01669
;WIPE_START
G1 F7200
G1 X132.062 Y181.831 E-.01416
G1 X128.753 Y181.831 E-.78584
;WIPE_END
G1 X133.036 Y182.215 F9000
G1 E.8 F1800
G1 F1200
G1 X85.956 Y182.209 E1.47616
G1 X85.958 Y182.189 E.00063
G1 X86.465 Y181.776 E.0205
G1 X86.884 Y181.198 E.02238
G1 X87.139 Y180.532 E.02236
G1 X87.213 Y179.822 E.02238
G1 X87.101 Y179.117 E.02238
G1 X86.81 Y178.465 E.02239
G1 X86.36 Y177.911 E.02238
G1 X85.782 Y177.492 E.02238
G1 X85.106 Y177.235 E.02268
G1 X84.366 Y177.167 E.0233
G1 X83.701 Y177.274 E.02112
G1 X83.049 Y177.565 E.02239
G1 X82.495 Y178.015 E.02238
G1 X82.16 Y178.452 E.01726
G1 X82.166 Y89.347 E2.79382
G1 X82.599 Y89.88 E.02153
G1 X83.177 Y90.3 E.0224
G1 X83.844 Y90.555 E.02239
G1 X84.554 Y90.629 E.02238
G1 X85.259 Y90.517 E.02238
G1 X85.91 Y90.226 E.02236
G1 X86.465 Y89.776 E.0224
G1 X86.884 Y89.198 E.02238
G1 X87.101 Y88.674 E.01778
G1 X87.145 Y88.485 E.00608
G1 X87.213 Y87.822 E.0209
G1 X87.101 Y87.117 E.02238
G1 X86.81 Y86.465 E.02239
G1 X86.36 Y85.91 E.0224
G1 X85.924 Y85.576 E.01722
G1 X133.028 Y85.582 E1.47691
G1 X132.489 Y86.023 E.02184
G1 X132.06 Y86.63 E.02331
G1 X131.821 Y87.259 E.0211
G1 X131.746 Y87.969 E.02239
G1 X131.859 Y88.674 E.02239
G1 X132.15 Y89.326 E.02239
G1 X132.599 Y89.88 E.02236
G1 X133.204 Y90.311 E.02329
G1 X133.844 Y90.555 E.02148
G1 X134.554 Y90.629 E.02238
G1 X135.259 Y90.517 E.02238
G1 X135.91 Y90.226 E.02236
G1 X136.465 Y89.776 E.0224
G1 X136.799 Y89.339 E.01725
G1 X136.793 Y178.444 E2.79382
G1 X136.36 Y177.911 E.02153
G1 X135.782 Y177.492 E.02238
G1 X135.106 Y177.235 E.02268
G1 X134.366 Y177.167 E.0233
G1 X133.701 Y177.274 E.02112
G1 X133.049 Y177.565 E.02239
G1 X132.489 Y178.023 E.02268
G1 X132.06 Y178.63 E.02331
G1 X131.821 Y179.259 E.0211
G1 X131.746 Y179.969 E.02239
G1 X131.859 Y180.674 E.02239
G1 X132.15 Y181.326 E.02239
G1 X132.6 Y181.881 E.0224
G1 X132.988 Y182.178 E.01532
;WIPE_START
G1 F7200
G1 X133.036 Y182.215 E-.01439
G1 X129.728 Y182.215 E-.78561
;WIPE_END
G1 X134.99 Y182.552 F9000
G1 E.8 F1800
;TYPE:External perimeter
;WIDTH:0.427098
G1 F1200
G1 X134.442 Y182.608 E.0176
;WIDTH:0.437394
G1 X133.195 Y182.594 E.0409
;WIDTH:0.419999
G1 X85.765 Y182.589 E1.48713
;WIDTH:0.443528
G1 X84.481 Y182.607 E.04278
;WIDTH:0.427094
G1 X83.933 Y182.545 E.01762
;WIDTH:0.430281
G1 X83.427 Y182.386 E.01708
G1 X82.962 Y182.135 E.01702
;WIDTH:0.427128
G1 X82.55 Y181.799 E.01698
G1 X82.22 Y181.383 E.01696
;WIDTH:0.430282
G1 X81.974 Y180.912 E.01712
G1 X81.823 Y180.406 E.01701
;WIDTH:0.427098
G1 X81.767 Y179.858 E.0176
;WIDTH:0.437416
G1 X81.781 Y178.61 E.04094
;WIDTH:0.419999
G1 X81.786 Y89.181 E2.80398
;WIDTH:0.443575
G1 X81.768 Y87.897 E.04278
;WIDTH:0.427092
G1 X81.83 Y87.349 E.01762
;WIDTH:0.430281
G1 X81.989 Y86.843 E.01708
G1 X82.24 Y86.378 E.01702
;WIDTH:0.427135
G1 X82.577 Y85.966 E.017
G1 X82.993 Y85.635 E.01698
;WIDTH:0.430362
G1 X83.463 Y85.39 E.01708
G1 X83.969 Y85.239 E.01701
;WIDTH:0.427015
G1 X84.503 Y85.185 E.01714
;WIDTH:0.436939
G1 X85.765 Y85.197 E.04135
;WIDTH:0.419999
G1 X133.195 Y85.202 E1.48713
;WIDTH:0.443057
G1 X134.511 Y85.186 E.04379
;WIDTH:0.427845
G1 X135.026 Y85.246 E.01659
;WIDTH:0.430275
G1 X135.532 Y85.405 E.01708
G1 X135.998 Y85.656 E.01705
;WIDTH:0.427126
G1 X136.41 Y85.992 E.01698
G1 X136.74 Y86.409 E.01699
;WIDTH:0.430268
G1 X136.985 Y86.878 E.01704
G1 X137.137 Y87.385 E.01705
;WIDTH:0.427092
G1 X137.192 Y87.933 E.01759
;WIDTH:0.441543
G1 X137.178 Y89.181 E.04137
;WIDTH:0.419999
G1 X137.171 Y178.465 E2.79943
G1 X137.173 Y178.61 E.00455
;WIDTH:0.443574
G1 X137.192 Y179.895 E.04281
;WIDTH:0.427092
G1 X137.129 Y180.442 E.01759
;WIDTH:0.430281
G1 X136.97 Y180.948 E.01708
G1 X136.719 Y181.413 E.01702
;WIDTH:0.427127
G1 X136.383 Y181.825 E.01698
G1 X135.967 Y182.156 E.01698
;WIDTH:0.430281
G1 X135.497 Y182.401 E.01707
G1 X135.048 Y182.535 E.01509
;WIPE_START
G1 F7200
G1 X134.99 Y182.552 E-.01435
G1 X134.442 Y182.608 E-.13083
;WIPE_END
G1 E-.65482 F1800
G1 X133.9 Y182.189 F9000
G1 E.8 F1800
;WIDTH:0.444704
G1 F1200
G1 X133.323 Y181.951 E.02085
;WIDTH:0.419999
G1 X132.845 Y181.594 E.01871
G1 X132.449 Y181.097 E.01992
G1 X132.207 Y180.53 E.01933
G1 X132.12 Y179.92 E.01932
G1 X132.194 Y179.309 E.0193
G1 X132.42 Y178.751 E.01888
G1 X132.792 Y178.247 E.01964
G1 X133.279 Y177.865 E.01941
G1 X133.845 Y177.623 E.0193
G1 X134.415 Y177.541 E.01806
G1 X135.063 Y177.61 E.02043
G1 X135.638 Y177.84 E.01942
G1 X136.131 Y178.21 E.01933
G1 X136.464 Y178.635 E.01693
;WIDTH:0.436621
G1 X136.755 Y179.262 E.02263
G1 X136.815 Y179.878 E.02026
;WIDTH:0.421277
G1 X136.735 Y180.476 E.01898
;WIDTH:0.417912
G1 X136.507 Y181.038 E.01891
;WIDTH:0.418822
G1 X136.147 Y181.526 E.01895
G1 X135.664 Y181.9 E.01909
;WIDTH:0.417928
G1 X135.105 Y182.137 E.01893
;WIDTH:0.418699
G1 X134.506 Y182.228 E.01893
;WIDTH:0.444704
G1 X133.96 Y182.193 E.01828
;WIPE_START
G1 F7200
G1 X133.9 Y182.189 E-.01428
G1 X133.323 Y181.951 E-.14824
;WIPE_END
G1 E-.63748 F1800
G1 X118.213 Y140.932 F9000
G1 E.8 F1800
;TYPE:Perimeter
;WIDTH:0.419999
G1 F1200
G1 X118.015 Y140.895 E.00632
G1 X117.713 Y140.704 E.0112
G1 X117.557 Y140.514 E.00771
G1 X117.43 Y140.182 E.01115
G1 X117.416 Y140.017 E.00519
G1 X117.416 Y127.774 E.38387
G1 X117.473 Y127.45 E.01031
G1 X117.663 Y127.137 E.01148
G1 X117.948 Y126.925 E.01114
G1 X118.31 Y126.833 E.01171
G1 X123.601 Y126.831 E.1659
G1 X123.917 Y126.886 E.01006
G1 X124.202 Y127.048 E.01028
G1 X124.394 Y127.264 E.00906
G1 X124.53 Y127.611 E.01169
G1 X124.544 Y127.774 E.00513
G1 X124.544 Y140.017 E.38387
G1 X124.487 Y140.34 E.01028
G1 X124.335 Y140.609 E.00969
G1 X124.059 Y140.841 E.0113
G1 X123.719 Y140.952 E.01121
G1 X123.601 Y140.96 E.00371
G1 X118.358 Y140.96 E.16439
G1 X118.272 Y140.943 E.00275
G1 X118.272 Y140.56 F9000
G1 F1200
G1 X118.08 Y140.51 E.00622
G1 X117.878 Y140.315 E.0088
G1 X117.793 Y140.017 E.00972
G1 X117.793 Y127.774 E.38387
G1 X117.863 Y127.502 E.00881
G1 X118.053 Y127.298 E.00874
G1 X118.301 Y127.211 E.00824
G1 X118.358 Y127.208 E.00179
G1 X123.601 Y127.208 E.16439
G1 X123.876 Y127.28 E.00891
G1 X124.077 Y127.468 E.00863
G1 X124.163 Y127.708 E.00799
G1 X124.167 Y127.774 E.00207
G1 X124.167 Y140.017 E.38387
G1 X124.108 Y140.269 E.00811
G1 X123.919 Y140.485 E.009
G1 X123.672 Y140.578 E.00828
G1 X123.601 Y140.583 E.00223
G1 X118.358 Y140.583 E.16439
G1 X118.33 Y140.575 E.00091
G1 X118.358 Y140.206 F9000
;TYPE:External perimeter
G1 F1200
G1 X118.217 Y140.142 E.00486
G1 X118.198 Y140.116 E.00101
G1 X118.17 Y140.017 E.00323
G1 X118.17 Y127.774 E.38387
G1 X118.237 Y127.63 E.00498
G1 X118.358 Y127.586 E.00404
G1 X123.601 Y127.586 E.16439
G1 X123.748 Y127.656 E.0051
G1 X123.79 Y127.774 E.00393
G1 X123.79 Y140.017 E.38387
G1 X123.721 Y140.162 E.00503
G1 X123.601 Y140.206 E.00401
G1 X118.418 Y140.206 E.16251
;WIPE_START
G1 F7200
G1 X118.358 Y140.206 E-.01425
G1 X118.217 Y140.142 E-.03678
G1 X118.198 Y140.116 E-.00765
G1 X118.17 Y140.017 E-.02443
G1 X118.17 Y136.999 E-.71689
;WIPE_END
G1 X101.54 Y139.408 F9000
G1 E.8 F1800
;TYPE:Perimeter
G1 F1200
G1 X101.54 Y140.1 E.0217
G1 X101.434 Y140.46 E.01177
G1 X101.219 Y140.729 E.0108
G1 X100.913 Y140.907 E.0111
G1 X100.601 Y140.96 E.00992
G1 X95.358 Y140.96 E.16439
G1 X95.043 Y140.905 E.01003
G1 X94.757 Y140.743 E.01031
G1 X94.566 Y140.527 E.00904
G1 X94.43 Y140.18 E.01169
G1 X94.416 Y140.017 E.00513
G1 X94.416 Y127.774 E.38387
G1 X94.473 Y127.451 E.01028
G1 X94.624 Y127.182 E.00967
G1 X94.9 Y126.95 E.0113
G1 X95.241 Y126.839 E.01124
G1 X95.358 Y126.831 E.00368
G1 X100.601 Y126.831 E.16439
G1 X100.969 Y126.906 E.01178
G1 X101.265 Y127.105 E.01118
G1 X101.458 Y127.382 E.01059
G1 X101.54 Y127.688 E.00993
G1 X101.544 Y127.774 E.0027
G1 X101.54 Y139.348 E.36289
G1 X101.144 Y140.13 F9000
G1 F1200
G1 X101.082 Y140.315 E.00612
G1 X100.879 Y140.51 E.00883
G1 X100.601 Y140.583 E.00901
G1 X95.358 Y140.583 E.16439
G1 X95.084 Y140.511 E.00888
G1 X94.883 Y140.323 E.00863
G1 X94.797 Y140.083 E.00799
G1 X94.793 Y140.017 E.00207
G1 X94.793 Y127.774 E.38387
G1 X94.852 Y127.522 E.00811
G1 X95.04 Y127.306 E.00898
G1 X95.288 Y127.213 E.0083
G1 X95.358 Y127.208 E.0022
G1 X100.601 Y127.208 E.16439
G1 X100.871 Y127.277 E.00874
G1 X101.077 Y127.469 E.00883
G1 X101.167 Y127.774 E.00997
G1 X101.165 Y140.067 E.38544
G1 X101.163 Y140.073 E.0002
G1 X100.601 Y140.206 F9000
;TYPE:External perimeter
G1 F1200
G1 X95.358 Y140.206 E.16439
G1 X95.212 Y140.135 E.00509
G1 X95.17 Y140.017 E.00393
G1 X95.17 Y127.774 E.38387
G1 X95.238 Y127.629 E.00502
G1 X95.358 Y127.586 E.004
G1 X100.601 Y127.586 E.16439
G1 X100.747 Y127.654 E.00505
G1 X100.79 Y127.774 E.004
G1 X100.789 Y140.034 E.3844
G1 X100.706 Y140.174 E.0051
G1 X100.659 Y140.188 E.00154
;WIPE_START
G1 F7200
G1 X100.601 Y140.206 E-.01442
G1 X97.293 Y140.206 E-.78558
;WIPE_END
G1 X94.214 Y96.933 F9000
G1 E.8 F1800
;TYPE:Perimeter
G1 F1200
G1 X94.021 Y96.897 E.00616
G1 X93.719 Y96.709 E.01115
G1 X93.527 Y96.461 E.00983
G1 X93.423 Y96.134 E.01076
G1 X93.416 Y87.774 E.26212
G1 X93.488 Y87.412 E.01157
G1 X93.793 Y87.02 E.01557
G1 X94.195 Y86.846 E.01373
G1 X94.358 Y86.831 E.00513
G1 X124.601 Y86.831 E.94825
G1 X125.167 Y87.02 E.01871
G1 X125.471 Y87.412 E.01555
G1 X125.544 Y87.774 E.01158
G1 X125.544 Y96.017 E.25845
G1 X125.48 Y96.359 E.01091
G1 X125.311 Y96.637 E.0102
G1 X125.014 Y96.864 E.01172
G1 X124.601 Y96.96 E.01329
G1 X103.023 Y96.96 E.67656
G1 X94.358 Y96.96 E.27168
G1 X94.273 Y96.944 E.00271
G1 X94.278 Y96.564 F9000
G1 F1200
G1 X94.11 Y96.525 E.00541
G1 X93.893 Y96.339 E.00896
G1 X93.797 Y96.087 E.00846
G1 X93.793 Y87.774 E.26065
G1 X93.836 Y87.557 E.00694
G1 X94.019 Y87.322 E.00934
G1 X94.358 Y87.208 E.01121
G1 X124.601 Y87.208 E.94825
G1 X124.941 Y87.322 E.01124
G1 X125.123 Y87.557 E.00932
G1 X125.167 Y87.774 E.00694
G1 X125.167 Y96.017 E.25845
G1 X125.1 Y96.283 E.0086
G1 X124.941 Y96.469 E.00767
G1 X124.676 Y96.578 E.00898
G1 X103.023 Y96.583 E.67891
G1 X94.358 Y96.583 E.27168
G1 X94.336 Y96.578 E.00071
G1 X94.358 Y96.206 F9000
;TYPE:External perimeter
G1 F1200
G1 X94.216 Y96.141 E.0049
G1 X94.17 Y96.017 E.00415
G1 X94.17 Y87.774 E.25845
G1 X94.245 Y87.623 E.00529
G1 X94.358 Y87.586 E.00373
G1 X124.601 Y87.586 E.94825
G1 X124.714 Y87.623 E.00373
G1 X124.79 Y87.774 E.0053
G1 X124.79 Y96.017 E.25845
G1 X124.729 Y96.155 E.00473
G1 X124.601 Y96.206 E.00432
G1 X103.023 Y96.206 E.67656
G1 X94.418 Y96.206 E.2698
;WIPE_START
G1 F7200
G1 X94.358 Y96.206 E-.01425
G1 X94.216 Y96.141 E-.03709
G1 X94.17 Y96.017 E-.03141
G1 X94.17 Y92.997 E-.71725
;WIPE_END
G1 X86.535 Y89.054 F9000
G1 E.8 F1800
G1 F1200
G1 X86.166 Y89.547 E.01931
G1 X85.681 Y89.927 E.01932
G1 X85.114 Y90.168 E.01932
G1 X84.504 Y90.255 E.01932
G1 X83.893 Y90.181 E.0193
G1 X83.321 Y89.951 E.01933
G1 X82.829 Y89.581 E.0193
G1 X82.495 Y89.156 E.01695
;WIDTH:0.440786
G1 X82.202 Y88.53 E.02287
G1 X82.145 Y87.913 E.0205
;WIDTH:0.421279
G1 X82.225 Y87.315 E.01898
;WIDTH:0.417913
G1 X82.452 Y86.753 E.0189
;WIDTH:0.418829
G1 X82.812 Y86.265 E.01895
G1 X83.296 Y85.891 E.01912
;WIDTH:0.417962
