; generated by PrusaSlicer 2.7.1 on 2025-02-17 at 00:42:51 UTC


;
;

;
;
; 

; external perimeters extrusion width = 0.42mm
; perimeters extrusion width = 0.44mm
; infill extrusion width = 0.44mm
; solid infill extrusion width = 0.44mm
; top infill extrusion width = 0.40mm
; first layer extrusion width = 0.42mm



; Pre-Processed for Cancel-Object support by preprocess_cancellation v0.2.0
; 4 known objects
EXCLUDE_OBJECT_DEFINE NAME=wheels_v2_stl_id_0_copy_0 CENTER=122.640,163.851 POLYGON=[[107.795,149.038],[107.795,178.618],[137.37,178.618],[137.37,149.038]]
EXCLUDE_OBJECT_DEFINE NAME=wheels_v2_stl_id_0_copy_1 CENTER=123.090,196.197 POLYGON=[[108.246,181.385],[108.246,210.965],[137.821,210.965],[137.821,181.385]]
EXCLUDE_OBJECT_DEFINE NAME=wheels_v2_stl_id_0_copy_2 CENTER=90.909,165.280 POLYGON=[[76.064,150.469],[76.064,180.048],[105.639,180.048],[105.639,150.469]]
EXCLUDE_OBJECT_DEFINE NAME=wheels_v2_stl_id_0_copy_3 CENTER=90.858,197.541 POLYGON=[[76.006,182.731],[76.006,212.311],[105.581,212.311],[105.581,182.731]]
M201 X500 Y500 Z100 E5000 ; sets maximum accelerations, mm/sec^2
M203 X500 Y500 Z10 E60 ; sets maximum feedrates, mm / sec
M204 S500 T1000 ; sets acceleration (S) and retract acceleration (R), mm/sec^2
M205 X8.00 Y8.00 Z0.40 E5.00 ; sets the jerk limits, mm/sec
M205 S0 T0 ; sets the minimum extruding and travel feed rate, mm/sec

; printing object wheels v2.stl id:0 copy 0
EXCLUDE_OBJECT_START NAME=wheels_v2_stl_id_0_copy_0
; stop printing object wheels v2.stl id:0 copy 0
EXCLUDE_OBJECT_END NAME=wheels_v2_stl_id_0_copy_0
; printing object wheels v2.stl id:0 copy 1
EXCLUDE_OBJECT_START NAME=wheels_v2_stl_id_0_copy_1
; stop printing object wheels v2.stl id:0 copy 1
EXCLUDE_OBJECT_END NAME=wheels_v2_stl_id_0_copy_1
; printing object wheels v2.stl id:0 copy 2
EXCLUDE_OBJECT_START NAME=wheels_v2_stl_id_0_copy_2
; stop printing object wheels v2.stl id:0 copy 2
EXCLUDE_OBJECT_END NAME=wheels_v2_stl_id_0_copy_2
; printing object wheels v2.stl id:0 copy 3
EXCLUDE_OBJECT_START NAME=wheels_v2_stl_id_0_copy_3
; stop printing object wheels v2.stl id:0 copy 3
EXCLUDE_OBJECT_END NAME=wheels_v2_stl_id_0_copy_3

;TYPE:Custom
G90 ; use absolute coordinates
M83 ; extruder relative mode
G28
M109 S0
M190 S0
start_print EXTRUDER_TEMP=210 BED_TEMP=60

M104 S150 ; set temporary nozzle temp to prevent oozing during homing
M140 S60 ; set final bed temp
G4 S30 ; allow partial nozzle warmup
G28 ; home all axis and restore leveling

G1 Z50 F240
G1 X2.0 Y10 F3000
M104 S210 ; set final nozzle temp
M190 S60 ; wait for bed temp to stabilize
M109 S210 ; wait for nozzle temp to stabilize
G1 Z0.28 F240
G92 E0
G1 X2.0 Y140 E10 F1500 ; prime the nozzle
G1 X2.3 Y140 F5000
G92 E0
G1 X2.3 Y10 E10 F1200 ; prime the nozzle
G92 E0
G21 ; set units to millimeters
G90 ; use absolute coordinates
M83 ; use relative distances for extrusion
; Filament gcode
M107
;LAYER_CHANGE
;Z:0.2
;HEIGHT:0.2
;BEFORE_LAYER_CHANGE
G92 E0
;0.2


G1 E-.8 F1800
G1 Z.2 F9000
;AFTER_LAYER_CHANGE
;0.2
G1 X81.486 Y149.452
G1 Z.2
G1 E.8 F1800
M204 S500
;TYPE:Skirt/Brim
;WIDTH:0.42
G1 F1200
G1 X83.405 Y148.46 E.06773
G1 X85.29 Y147.745 E.06321
G1 X86.555 Y147.392 E.04118
G1 X88.538 Y147.029 E.06321
G1 X89.796 Y146.912 E.03961
G1 X122.745 Y145.454 E1.0341
G1 X124.699 Y145.574 E.06138
G1 X127.082 Y146.011 E.07596
G1 X129.006 Y146.611 E.06319
G1 X131.215 Y147.605 E.07595
G1 X132.94 Y148.647 E.06319
G1 X134.847 Y150.141 E.07596
G1 X136.272 Y151.567 E.06321
G1 X137.766 Y153.474 E.07596
G1 X138.449 Y154.562 E.04028
G1 X139.3 Y156.194 E.05771
G1 X139.803 Y157.407 E.04117
G1 X140.402 Y159.331 E.06318
G1 X140.814 Y161.512 E.06959
G1 X140.961 Y163.726 E.06957
G1 X141.384 Y197.183 E1.0491
G1 X141.129 Y199.387 E.06957
G1 X140.61 Y201.545 E.06959
G1 X139.835 Y203.624 E.06957
G1 X138.709 Y205.769 E.07596
G1 X137.564 Y207.428 E.0632
G1 X136.102 Y209.097 E.06957
G1 X134.449 Y210.577 E.06957
G1 X132.63 Y211.848 E.06958
G1 X130.671 Y212.89 E.06957
G1 X129.457 Y213.393 E.0412
G1 X127.533 Y213.992 E.06318
G1 X125.352 Y214.405 E.0696
G1 X124.083 Y214.522 E.03996
G1 X90.694 Y215.896 E1.04777
G1 X88.48 Y215.75 E.06957
G1 X86.497 Y215.387 E.06321
G1 X85.426 Y215.095 E.03481
G1 X83.347 Y214.319 E.06958
G1 X81.202 Y213.194 E.07594
G1 X79.544 Y212.049 E.06318
G1 X77.875 Y210.586 E.06959
G1 X76.394 Y208.934 E.06956
G1 X75.123 Y207.114 E.0696
G1 X74.081 Y205.155 E.06957
G1 X73.578 Y203.942 E.04117
G1 X72.93 Y201.819 E.0696
G1 X72.542 Y199.635 E.06955
G1 X72.419 Y197.515 E.06658
G1 X72.506 Y164.251 E1.04297
G1 X72.798 Y161.846 E.07596
G1 X73.341 Y159.694 E.06959
G1 X74.139 Y157.624 E.06956
G1 X75.181 Y155.665 E.06957
G1 X76.326 Y154.006 E.0632
G1 X77.287 Y152.869 E.04668
G1 X78.745 Y151.437 E.06408
G1 X80.331 Y150.194 E.06318
G1 X81.435 Y149.484 E.04116
; printing object wheels v2.stl id:0 copy 1
EXCLUDE_OBJECT_START NAME=wheels_v2_stl_id_0_copy_1
;WIPE_START
G1 F7200
G1 X81.486 Y149.452 E-.0143
G1 X83.405 Y148.46 E-.51306
G1 X84.478 Y148.053 E-.27264
;WIPE_END
G1 X113.795 Y185.745 F9000
G1 E.8 F1800
;TYPE:Perimeter
;WIDTH:0.419999
G1 F1200
G1 X114.442 Y185.206 E.0264
G1 X115.12 Y184.707 E.0264
G1 X115.827 Y184.25 E.0264
G1 X116.56 Y183.836 E.0264
G1 X117.317 Y183.468 E.02639
G1 X118.095 Y183.146 E.0264
G1 X118.89 Y182.871 E.02638
G1 X119.701 Y182.645 E.0264
G1 X120.524 Y182.468 E.02639
G1 X121.357 Y182.342 E.02642
G1 X122.193 Y182.266 E.02632
G1 X123.09 Y182.242 E.02813
G1 X123.878 Y182.265 E.02472
G1 X124.716 Y182.342 E.02639
G1 X125.548 Y182.468 E.02638
G1 X126.371 Y182.645 E.02639
G1 X127.182 Y182.871 E.0264
G1 X127.978 Y183.146 E.02641
G1 X128.756 Y183.468 E.0264
G1 X129.512 Y183.836 E.02636
G1 X130.246 Y184.25 E.02642
G1 X130.952 Y184.707 E.02637
G1 X131.63 Y185.206 E.0264
G1 X132.277 Y185.745 E.0264
G1 X132.89 Y186.322 E.0264
G1 X133.467 Y186.934 E.02637
G1 X134.006 Y187.581 E.0264
G1 X134.505 Y188.259 E.0264
G1 X134.962 Y188.966 E.0264
G1 X135.375 Y189.699 E.02638
G1 X135.744 Y190.456 E.0264
G1 X136.066 Y191.234 E.0264
G1 X136.341 Y192.029 E.02638
G1 X136.567 Y192.84 E.0264
G1 X136.743 Y193.663 E.02639
G1 X136.849 Y194.356 E.02198
G1 X136.904 Y194.864 E.01602
G1 X136.95 Y195.475 E.01921
G1 X136.967 Y196.316 E.02637
G1 X136.946 Y197.017 E.02199
G1 X136.87 Y197.855 E.02638
G1 X136.743 Y198.687 E.02639
G1 X136.567 Y199.51 E.02639
G1 X136.341 Y200.321 E.0264
G1 X136.066 Y201.117 E.02641
G1 X135.744 Y201.895 E.0264
G1 X135.375 Y202.651 E.02638
G1 X134.962 Y203.385 E.02641
G1 X134.505 Y204.091 E.02637
G1 X134.006 Y204.77 E.02642
G1 X133.467 Y205.416 E.02638
G1 X132.89 Y206.029 E.0264
G1 X132.277 Y206.606 E.0264
G1 X131.63 Y207.145 E.0264
G1 X130.952 Y207.644 E.0264
G1 X130.246 Y208.101 E.02637
G1 X129.512 Y208.514 E.02641
G1 X128.756 Y208.883 E.02638
G1 X127.978 Y209.205 E.0264
G1 X127.182 Y209.48 E.02641
G1 X126.371 Y209.706 E.0264
G1 X125.548 Y209.882 E.02639
G1 X124.716 Y210.009 E.02639
G1 X123.878 Y210.085 E.02638
G1 X123.036 Y210.111 E.02641
G1 X122.195 Y210.085 E.02638
G1 X121.357 Y210.009 E.02638
G1 X120.524 Y209.882 E.02642
G1 X119.701 Y209.706 E.02639
G1 X118.89 Y209.48 E.0264
G1 X118.095 Y209.205 E.02638
G1 X117.317 Y208.883 E.0264
G1 X116.56 Y208.514 E.0264
G1 X115.827 Y208.101 E.02638
G1 X115.12 Y207.644 E.0264
G1 X114.442 Y207.145 E.0264
G1 X113.795 Y206.606 E.0264
G1 X113.183 Y206.029 E.02637
G1 X112.606 Y205.416 E.0264
G1 X112.067 Y204.77 E.02638
G1 X111.568 Y204.092 E.0264
G1 X111.111 Y203.385 E.0264
G1 X110.697 Y202.651 E.02642
G1 X110.329 Y201.895 E.02636
G1 X110.006 Y201.117 E.02641
G1 X109.732 Y200.321 E.0264
G1 X109.506 Y199.51 E.0264
G1 X109.329 Y198.687 E.02639
G1 X109.203 Y197.855 E.02638
G1 X109.126 Y197.017 E.02639
G1 X109.101 Y196.175 E.02641
G1 X109.126 Y195.334 E.02638
G1 X109.203 Y194.496 E.02639
G1 X109.329 Y193.663 E.02642
G1 X109.506 Y192.84 E.02639
G1 X109.732 Y192.03 E.02637
G1 X110.007 Y191.234 E.02641
G1 X110.329 Y190.456 E.0264
G1 X110.697 Y189.699 E.02639
G1 X111.111 Y188.966 E.0264
G1 X111.568 Y188.259 E.0264
G1 X112.067 Y187.581 E.0264
G1 X112.606 Y186.934 E.0264
G1 X113.183 Y186.322 E.02637
G1 X113.752 Y185.786 E.02451
G1 X113.545 Y185.462 F9000
G1 F1200
G1 X114.209 Y184.909 E.02709
G1 X114.906 Y184.396 E.02714
G1 X115.632 Y183.927 E.0271
G1 X116.385 Y183.502 E.02711
G1 X117.162 Y183.124 E.02709
G1 X117.961 Y182.793 E.02712
G1 X118.778 Y182.511 E.0271
G1 X119.611 Y182.279 E.02711
G1 X120.456 Y182.097 E.0271
G1 X121.311 Y181.967 E.02712
G1 X122.171 Y181.889 E.02708
G1 X123.091 Y181.864 E.02886
G1 X123.9 Y181.889 E.02538
G1 X124.761 Y181.967 E.02711
G1 X125.616 Y182.097 E.02712
G1 X126.462 Y182.279 E.02713
G1 X127.294 Y182.511 E.02708
G1 X128.112 Y182.793 E.02713
G1 X128.91 Y183.124 E.02709
G1 X129.688 Y183.502 E.02712
G1 X130.441 Y183.927 E.02711
G1 X131.167 Y184.396 E.0271
G1 X131.863 Y184.909 E.02711
G1 X132.527 Y185.462 E.02709
G1 X133.157 Y186.055 E.02713
G1 X133.749 Y186.684 E.02708
G1 X134.303 Y187.348 E.02711
G1 X134.815 Y188.045 E.02712
G1 X135.285 Y188.771 E.02712
G1 X135.709 Y189.524 E.0271
G1 X136.088 Y190.301 E.02711
G1 X136.419 Y191.1 E.02712
G1 X136.701 Y191.917 E.0271
G1 X136.933 Y192.75 E.02711
G1 X137.114 Y193.595 E.0271
G1 X137.222 Y194.299 E.02233
G1 X137.279 Y194.83 E.01674
G1 X137.327 Y195.463 E.0199
G1 X137.344 Y196.327 E.0271
G1 X137.323 Y197.039 E.02233
G1 X137.245 Y197.901 E.02714
G1 X137.114 Y198.755 E.02709
G1 X136.933 Y199.601 E.02713
G1 X136.701 Y200.433 E.02708
G1 X136.419 Y201.251 E.02713
G1 X136.088 Y202.049 E.02709
G1 X135.709 Y202.827 E.02713
G1 X135.285 Y203.58 E.0271
G1 X134.815 Y204.306 E.02712
G1 X134.303 Y205.002 E.02709
G1 X133.749 Y205.666 E.02711
G1 X133.157 Y206.296 E.02711
G1 X132.527 Y206.888 E.02711
G1 X131.863 Y207.442 E.02711
G1 X131.167 Y207.954 E.02709
G1 X130.441 Y208.424 E.02712
G1 X129.688 Y208.849 E.02711
G1 X128.91 Y209.227 E.02712
G1 X128.112 Y209.558 E.02709
G1 X127.294 Y209.84 E.02713
G1 X126.462 Y210.072 E.02708
G1 X125.616 Y210.253 E.02713
G1 X124.761 Y210.384 E.02712
G1 X123.9 Y210.462 E.02711
G1 X123.036 Y210.488 E.0271
G1 X122.172 Y210.462 E.0271
G1 X121.311 Y210.384 E.02711
G1 X120.456 Y210.253 E.02712
G1 X119.611 Y210.072 E.0271
G1 X118.778 Y209.84 E.02711
G1 X117.961 Y209.558 E.0271
G1 X117.162 Y209.227 E.02712
G1 X116.385 Y208.849 E.02709
G1 X115.632 Y208.424 E.02711
G1 X114.906 Y207.954 E.02712
G1 X114.209 Y207.442 E.02712
G1 X113.545 Y206.888 E.02711
G1 X112.916 Y206.296 E.02708
G1 X112.323 Y205.666 E.02713
G1 X111.77 Y205.002 E.02709
G1 X111.257 Y204.306 E.02711
G1 X110.788 Y203.58 E.0271
G1 X110.363 Y202.827 E.02711
G1 X109.985 Y202.049 E.02712
G1 X109.654 Y201.251 E.02709
G1 X109.372 Y200.433 E.02713
G1 X109.14 Y199.601 E.02708
G1 X108.958 Y198.755 E.02713
G1 X108.828 Y197.901 E.02708
G1 X108.75 Y197.039 E.02714
G1 X108.724 Y196.175 E.0271
G1 X108.75 Y195.311 E.0271
G1 X108.828 Y194.45 E.02711
G1 X108.958 Y193.595 E.02712
G1 X109.14 Y192.75 E.0271
G1 X109.372 Y191.917 E.02711
G1 X109.654 Y191.1 E.0271
G1 X109.985 Y190.301 E.02712
G1 X110.363 Y189.524 E.02709
G1 X110.788 Y188.771 E.02711
G1 X111.257 Y188.045 E.0271
G1 X111.77 Y187.348 E.02714
G1 X112.323 Y186.684 E.02709
G1 X112.916 Y186.055 E.0271
G1 X113.502 Y185.503 E.02524
G1 X113.295 Y185.18 F9000
;TYPE:External perimeter
G1 F1200
G1 X113.977 Y184.612 E.02783
G1 X114.692 Y184.086 E.02783
G1 X115.437 Y183.604 E.02782
G1 X116.21 Y183.168 E.02783
G1 X117.007 Y182.78 E.02779
G1 X117.827 Y182.44 E.02783
G1 X118.666 Y182.151 E.02782
G1 X119.521 Y181.912 E.02784
G1 X120.388 Y181.726 E.0278
G1 X121.266 Y181.593 E.02784
G1 X122.149 Y181.512 E.0278
G1 X123.091 Y181.487 E.02955
G1 X123.923 Y181.512 E.0261
G1 X124.807 Y181.593 E.02783
G1 X125.684 Y181.726 E.02781
G1 X126.552 Y181.912 E.02783
G1 X127.407 Y182.151 E.02784
G1 X128.245 Y182.44 E.02779
G1 X129.065 Y182.78 E.02783
G1 X129.863 Y183.168 E.02782
G1 X130.636 Y183.604 E.02783
G1 X131.381 Y184.086 E.02782
G1 X132.096 Y184.612 E.02783
G1 X132.777 Y185.18 E.0278
G1 X133.424 Y185.788 E.02784
G1 X134.032 Y186.434 E.02781
G1 X134.6 Y187.116 E.02783
G1 X135.126 Y187.831 E.02783
G1 X135.608 Y188.576 E.02782
G1 X136.044 Y189.349 E.02783
G1 X136.432 Y190.146 E.02779
G1 X136.772 Y190.966 E.02783
G1 X137.061 Y191.805 E.02782
G1 X137.299 Y192.66 E.02783
G1 X137.486 Y193.527 E.02781
G1 X137.594 Y194.243 E.0227
G1 X137.655 Y194.796 E.01744
G1 X137.704 Y195.452 E.02063
G1 X137.721 Y196.339 E.02782
G1 X137.699 Y197.062 E.02268
G1 X137.619 Y197.946 E.02783
G1 X137.486 Y198.823 E.02781
G1 X137.299 Y199.691 E.02784
G1 X137.061 Y200.546 E.02783
G1 X136.772 Y201.384 E.02779
G1 X136.432 Y202.204 E.02783
G1 X136.044 Y203.002 E.02782
G1 X135.608 Y203.775 E.02783
G1 X135.126 Y204.52 E.02782
G1 X134.6 Y205.235 E.02783
G1 X134.032 Y205.917 E.02783
G1 X133.424 Y206.563 E.02781
G1 X132.777 Y207.171 E.02784
G1 X132.096 Y207.739 E.0278
G1 X131.381 Y208.265 E.02783
G1 X130.636 Y208.747 E.02782
G1 X129.863 Y209.183 E.02783
G1 X129.065 Y209.571 E.02782
G1 X128.245 Y209.911 E.02783
G1 X127.407 Y210.2 E.02779
G1 X126.552 Y210.438 E.02783
G1 X125.684 Y210.625 E.02784
G1 X124.807 Y210.758 E.02781
G1 X123.923 Y210.838 E.02783
G1 X123.036 Y210.865 E.02782
G1 X122.149 Y210.838 E.02782
G1 X121.266 Y210.758 E.0278
G1 X120.388 Y210.625 E.02784
G1 X119.521 Y210.438 E.02781
G1 X118.666 Y210.2 E.02783
G1 X117.827 Y209.911 E.02782
G1 X117.007 Y209.571 E.02783
G1 X116.21 Y209.183 E.02779
G1 X115.437 Y208.747 E.02783
G1 X114.692 Y208.265 E.02782
G1 X113.977 Y207.739 E.02783
G1 X113.295 Y207.171 E.02783
G1 X112.649 Y206.563 E.02781
G1 X112.041 Y205.917 E.02781
G1 X111.473 Y205.235 E.02783
G1 X110.947 Y204.52 E.02783
G1 X110.465 Y203.775 E.02782
G1 X110.029 Y203.002 E.02783
G1 X109.641 Y202.204 E.02782
G1 X109.301 Y201.384 E.02783
G1 X109.012 Y200.546 E.02779
G1 X108.773 Y199.691 E.02784
G1 X108.587 Y198.823 E.02783
G1 X108.454 Y197.946 E.02781
G1 X108.373 Y197.062 E.02783
G1 X108.346 Y196.175 E.02782
G1 X108.373 Y195.288 E.02782
G1 X108.454 Y194.405 E.0278
G1 X108.587 Y193.527 E.02784
G1 X108.773 Y192.66 E.0278
G1 X109.012 Y191.805 E.02784
G1 X109.301 Y190.966 E.02782
G1 X109.641 Y190.146 E.02783
G1 X110.029 Y189.349 E.02779
G1 X110.465 Y188.576 E.02783
G1 X110.947 Y187.831 E.02782
G1 X111.473 Y187.116 E.02783
G1 X112.041 Y186.434 E.02783
G1 X112.649 Y185.788 E.02781
G1 X113.251 Y185.221 E.02593
;WIPE_START
G1 F7200
G1 X113.295 Y185.18 E-.01428
G1 X113.977 Y184.612 E-.21079
G1 X114.692 Y184.086 E-.21081
G1 X115.437 Y183.604 E-.21074
G1 X115.999 Y183.287 E-.15338
;WIPE_END
G1 X124.189 Y196.302 F9000
G1 E.8 F1800
;WIDTH:0.619588
G1 F1200
G1 X124.188 Y196.066 E.01132
;WIPE_START
G1 F7200
G1 X124.189 Y196.302 E-.05605
;WIPE_END
G1 E-.74395 F1800
G1 X122.999 Y197.325 F9000
G1 E.8 F1800
;WIDTH:0.635024
G1 F1200
G1 X123.219 Y197.327 E.01083
;WIPE_START
G1 F7200
G1 X122.999 Y197.325 E-.05225
;WIPE_END
G1 E-.74775 F1800
G1 X125.096 Y198.235 F9000
G1 E.8 F1800
;TYPE:Perimeter
;WIDTH:0.419999
G1 F1200
G1 X125.145 Y198.778 E.01709
G1 X125.069 Y199.247 E.0149
G1 X124.891 Y199.685 E.01482
G1 X124.619 Y200.073 E.01486
G1 X124.221 Y200.42 E.01656
G1 X123.856 Y200.621 E.01306
G1 X123.403 Y200.755 E.01481
G1 X122.931 Y200.784 E.01483
G1 X122.464 Y200.708 E.01484
G1 X122.026 Y200.53 E.01482
G1 X121.639 Y200.258 E.01483
G1 X121.322 Y199.908 E.01481
G1 X121.09 Y199.495 E.01485
G1 X120.957 Y199.039 E.01489
G1 X120.929 Y198.561 E.01501
G1 X120.977 Y198.235 E.01033
G1 X120.433 Y198.284 E.01713
G1 X119.965 Y198.208 E.01487
G1 X119.526 Y198.03 E.01485
G1 X119.139 Y197.758 E.01483
G1 X118.822 Y197.408 E.01481
G1 X118.59 Y196.995 E.01485
G1 X118.457 Y196.542 E.0148
G1 X118.427 Y196.07 E.01483
G1 X118.504 Y195.603 E.01484
G1 X118.669 Y195.193 E.01386
G1 X118.953 Y194.778 E.01577
G1 X119.304 Y194.461 E.01483
G1 X119.717 Y194.229 E.01485
G1 X120.172 Y194.096 E.01486
G1 X120.651 Y194.072 E.01504
G1 X120.977 Y194.116 E.01031
G1 X120.928 Y193.572 E.01713
G1 X121.004 Y193.104 E.01487
G1 X121.182 Y192.665 E.01485
G1 X121.453 Y192.278 E.01481
G1 X121.852 Y191.93 E.0166
G1 X122.216 Y191.729 E.01304
G1 X122.67 Y191.596 E.01483
G1 X123.138 Y191.57 E.0147
G1 X123.608 Y191.643 E.01491
G1 X124.046 Y191.821 E.01482
G1 X124.434 Y192.092 E.01484
