; generated by PrusaSlicer 2.7.1+win64 on 2024-02-16 at 01:10:17 UTC

; 

; external perimeters extrusion width = 0.42mm
; perimeters extrusion width = 0.44mm
; infill extrusion width = 0.44mm
; solid infill extrusion width = 0.44mm
; top infill extrusion width = 0.40mm
; first layer extrusion width = 0.42mm

M201 X500 Y500 Z100 E5000 ; sets maximum accelerations, mm/sec^2
M203 X500 Y500 Z10 E60 ; sets maximum feedrates, mm / sec
M204 S500 T1000 ; sets acceleration (S) and retract acceleration (R), mm/sec^2
M205 X8.00 Y8.00 Z0.40 E5.00 ; sets the jerk limits, mm/sec
M205 S0 T0 ; sets the minimum extruding and travel feed rate, mm/sec

; printing object xyzCalibration_cube.stl id:0 copy 0
; stop printing object xyzCalibration_cube.stl id:0 copy 0

;TYPE:Custom
G90 ; use absolute coordinates
M83 ; extruder relative mode
M104 S150 ; set temporary nozzle temp to prevent oozing during homing
M140 S60 ; set final bed temp
G4 S30 ; allow partial nozzle warmup
G28 ; home all axis
G1 Z50 F240
G1 X2.0 Y10 F3000
M104 S210 ; set final nozzle temp
M190 S60 ; wait for bed temp to stabilize
M109 S210 ; wait for nozzle temp to stabilize
G1 Z0.28 F240
G92 E0
G1 X2.0 Y140 E10 F1500 ; prime the nozzle
G1 X2.3 Y140 F5000
G92 E0
G1 X2.3 Y10 E10 F1200 ; prime the nozzle
G92 E0
G21 ; set units to millimeters
G90 ; use absolute coordinates
M83 ; use relative distances for extrusion
; Filament gcode
M107
;LAYER_CHANGE
;Z:0.2
;HEIGHT:0.2
;BEFORE_LAYER_CHANGE
G92 E0
;0.2


G1 E-5 F3600
G1 Z.2 F9000
;AFTER_LAYER_CHANGE
;0.2
G1 X103.242 Y102.501
G1 Z.2
G1 E5 F2400
M204 S500
;TYPE:Skirt/Brim
;WIDTH:0.42
G1 F1200
G1 X105.5 Y101.746 E.07465
G1 X125.5 Y101.746 E.62709
G1 X127.176 Y102.141 E.05399
G1 X128.499 Y103.242 E.05397
G1 X129.254 Y105.5 E.07465
G1 X129.254 Y125.5 E.62709
G1 X128.859 Y127.176 E.05399
G1 X127.758 Y128.499 E.05397
G1 X125.5 Y129.254 E.07465
G1 X105.5 Y129.254 E.62709
G1 X103.824 Y128.859 E.05399
G1 X102.501 Y127.758 E.05397
G1 X101.746 Y125.5 E.07465
G1 X101.746 Y105.5 E.62709
G1 X102.141 Y103.824 E.05399
G1 X103.203 Y102.547 E.05208
G1 X103.504 Y102.818 F9000
G1 F1200
G1 X103.607 Y102.703 E.00484
G1 X105.5 Y102.123 E.06208
G1 X125.5 Y102.123 E.62709
G1 X127.083 Y102.517 E.05115
G1 X128.297 Y103.607 E.05116
G1 X128.877 Y105.5 E.06208
G1 X128.877 Y125.5 E.62709
G1 X128.483 Y127.083 E.05115
G1 X127.393 Y128.297 E.05116
G1 X125.5 Y128.877 E.06208
G1 X105.5 Y128.877 E.62709
G1 X103.917 Y128.483 E.05115
G1 X102.703 Y127.393 E.05116
G1 X102.123 Y125.5 E.06208
G1 X102.123 Y105.5 E.62709
G1 X102.517 Y103.917 E.05115
G1 X103.464 Y102.862 E.04445
; printing object xyzCalibration_cube.stl id:0 copy 0
G1 E-3.5 F3600
;WIPE_START
G1 F7200
G1 X103.504 Y102.818 E-.02825
G1 X103.607 Y102.703 E-.07333
G1 X105.5 Y102.123 E-.94043
G1 X106.464 Y102.123 E-.45799
;WIPE_END
G1 X106.564 Y106.564 F9000
G1 E5 F2400
;TYPE:Perimeter
;WIDTH:0.419999
G1 F1200
G1 X124.436 Y106.564 E.56036
G1 X124.436 Y115.5 E.28018
G1 X124.436 Y124.436 E.28018
G1 X106.564 Y124.436 E.56036
G1 X106.564 Y106.624 E.55848
G1 X106.187 Y106.187 F9000
G1 F1200
G1 X124.813 Y106.187 E.584
G1 X124.813 Y115.5 E.292
G1 X124.813 Y124.813 E.292
G1 X106.187 Y124.813 E.584
G1 X106.187 Y106.247 E.58212
G1 X105.81 Y105.81 F9000
;TYPE:External perimeter
G1 F1200
G1 X125.19 Y105.81 E.60765
G1 X125.19 Y115.5 E.30382
G1 X125.19 Y125.19 E.30382
G1 X105.81 Y125.19 E.60765
G1 X105.81 Y105.87 E.60576
G1 E-3.5 F3600
;WIPE_START
G1 F7200
G1 X105.81 Y105.81 E-.0285
G1 X108.908 Y105.81 E-1.4715
;WIPE_END
G1 X123.55 Y106.685 F9000
G1 E5 F2400
;TYPE:Solid infill
;WIDTH:0.421502
G1 F1200
G1 X124.145 Y107.281 E.02651
G1 X124.145 Y107.816 E.01684
G1 X123.184 Y106.855 E.04278
G1 X122.649 Y106.855 E.01684
G1 X124.145 Y108.351 E.0666
G1 X124.145 Y108.887 E.01687
G1 X122.113 Y106.855 E.09046
G1 X121.578 Y106.855 E.01684
G1 X124.145 Y109.422 E.11428
G1 X124.145 Y109.958 E.01687
G1 X121.042 Y106.855 E.13814
G1 X120.507 Y106.855 E.01684
G1 X124.145 Y110.493 E.16196
G1 X124.145 Y111.028 E.01684
G1 X119.972 Y106.855 E.18578
G1 X119.436 Y106.855 E.01687
G1 X124.145 Y111.564 E.20964
G1 X124.145 Y112.099 E.01684
G1 X118.901 Y106.855 E.23345
G1 X118.365 Y106.855 E.01687
G1 X124.145 Y112.635 E.25732
G1 X124.145 Y113.17 E.01684
G1 X117.83 Y106.855 E.28113
G1 X117.295 Y106.855 E.01684
G1 X124.145 Y113.705 E.30495
G1 X124.145 Y114.241 E.01687
G1 X116.759 Y106.855 E.32881
G1 X116.224 Y106.855 E.01684
G1 X124.145 Y114.776 E.35263
G1 X124.145 Y115.312 E.01687
G1 X115.688 Y106.855 E.37649
G1 X115.153 Y106.855 E.01684
G1 X124.145 Y115.847 E.40031
G1 X124.145 Y116.382 E.01684
G1 X114.618 Y106.855 E.42413
G1 X114.082 Y106.855 E.01687
G1 X124.145 Y116.918 E.44799
G1 X124.145 Y117.453 E.01684
G1 X113.547 Y106.855 E.47181
G1 X113.011 Y106.855 E.01687
G1 X124.145 Y117.989 E.49567
G1 X124.145 Y118.524 E.01684
G1 X112.476 Y106.855 E.51948
G1 X111.941 Y106.855 E.01684
G1 X124.145 Y119.059 E.5433
G1 X124.145 Y119.595 E.01687
G1 X111.405 Y106.855 E.56716
G1 X110.87 Y106.855 E.01684
G1 X124.145 Y120.13 E.59098
G1 X124.145 Y120.665 E.01684
G1 X110.335 Y106.855 E.6148
G1 X109.799 Y106.855 E.01687
G1 X124.145 Y121.201 E.63866
G1 X124.145 Y121.736 E.01684
G1 X109.264 Y106.855 E.66248
G1 X108.728 Y106.855 E.01687
G1 X124.145 Y122.272 E.68634
G1 X124.145 Y122.807 E.01684
G1 X108.193 Y106.855 E.71016
G1 X107.658 Y106.855 E.01684
G1 X124.145 Y123.342 E.73397
G1 X124.145 Y123.878 E.01687
G1 X107.122 Y106.855 E.75784
G1 X106.855 Y106.855 E.0084
G1 X106.855 Y107.122 E.0084
G1 X123.878 Y124.145 E.75784
G1 X123.342 Y124.145 E.01687
G1 X106.855 Y107.658 E.73397
G1 X106.855 Y108.193 E.01684
G1 X122.807 Y124.145 E.71016
G1 X122.272 Y124.145 E.01684
G1 X106.855 Y108.728 E.68634
G1 X106.855 Y109.264 E.01687
G1 X121.736 Y124.145 E.66248
G1 X121.201 Y124.145 E.01684
G1 X106.855 Y109.799 E.63866
G1 X106.855 Y110.335 E.01687
G1 X120.665 Y124.145 E.6148
G1 X120.13 Y124.145 E.01684
G1 X106.855 Y110.87 E.59098
G1 X106.855 Y111.405 E.01684
G1 X119.595 Y124.145 E.56716
G1 X119.059 Y124.145 E.01687
G1 X106.855 Y111.941 E.5433
G1 X106.855 Y112.476 E.01684
G1 X118.524 Y124.145 E.51948
G1 X117.988 Y124.145 E.01687
G1 X106.855 Y113.012 E.49562
G1 X106.855 Y113.547 E.01684
G1 X117.453 Y124.145 E.47181
G1 X116.918 Y124.145 E.01684
G1 X106.855 Y114.082 E.44799
G1 X106.855 Y114.618 E.01687
G1 X116.382 Y124.145 E.42413
G1 X115.847 Y124.145 E.01684
G1 X106.855 Y115.153 E.40031
G1 X106.855 Y115.689 E.01687
G1 X115.311 Y124.145 E.37645
G1 X114.776 Y124.145 E.01684
G1 X106.855 Y116.224 E.35263
G1 X106.855 Y116.759 E.01684
G1 X114.241 Y124.145 E.32881
G1 X113.705 Y124.145 E.01687
G1 X106.855 Y117.295 E.30495
G1 X106.855 Y117.83 E.01684
G1 X113.17 Y124.145 E.28113
G1 X112.634 Y124.145 E.01687
G1 X106.855 Y118.366 E.25727
G1 X106.855 Y118.901 E.01684
G1 X112.099 Y124.145 E.23345
G1 X111.564 Y124.145 E.01684
G1 X106.855 Y119.436 E.20964
G1 X106.855 Y119.972 E.01687
G1 X111.028 Y124.145 E.18578
G1 X110.493 Y124.145 E.01684
G1 X106.855 Y120.507 E.16196
G1 X106.855 Y121.043 E.01687
G1 X109.957 Y124.145 E.1381
G1 X109.422 Y124.145 E.01684
G1 X106.855 Y121.578 E.11428
G1 X106.855 Y122.113 E.01684
G1 X108.887 Y124.145 E.09046
G1 X108.351 Y124.145 E.01687
G1 X106.855 Y122.649 E.0666
G1 X106.855 Y123.184 E.01684
G1 X107.816 Y124.145 E.04278
G1 X107.28 Y124.145 E.01687
G1 X106.685 Y123.55 E.02649
; stop printing object xyzCalibration_cube.stl id:0 copy 0
M106 S255
;LAYER_CHANGE
;Z:0.4
;HEIGHT:0.2
;BEFORE_LAYER_CHANGE
G92 E0
;0.4


G1 E-3.5 F3600
;WIPE_START
G1 F7200
G1 X107.28 Y124.145 E-.39969
G1 X107.816 Y124.145 E-.2546
G1 X106.855 Y123.184 E-.64555
G1 X106.855 Y122.762 E-.20016
;WIPE_END
G1 Z.4 F9000
;AFTER_LAYER_CHANGE
;0.4
M104 S205 ; set temperature
G1 X101.746 Y122.762
G1 E5 F2400
;TYPE:Skirt/Brim
;WIDTH:0.42
G1 X101.746 Y105.5 E.54124
G1 X102.141 Y103.824 E.05399
G1 X103.242 Y102.501 E.05397
G1 X105.5 Y101.746 E.07465
G1 X125.5 Y101.746 E.62709
G1 X127.176 Y102.141 E.05399
G1 X128.499 Y103.242 E.05397
G1 X129.254 Y105.5 E.07465
G1 X129.254 Y125.5 E.62709
G1 X128.859 Y127.176 E.05399
G1 X127.758 Y128.499 E.05397
G1 X125.5 Y129.254 E.07465
G1 X105.5 Y129.254 E.62709
G1 X103.824 Y128.859 E.05399
G1 X102.501 Y127.758 E.05397
G1 X101.746 Y125.5 E.07465
G1 X101.746 Y122.822 E.08397
G1 X102.123 Y122.822 F9000
G1 F2400
G1 X102.123 Y105.5 E.54312
G1 X102.517 Y103.917 E.05115
G1 X103.607 Y102.703 E.05116
G1 X105.5 Y102.123 E.06208
G1 X125.5 Y102.123 E.62709
G1 X127.083 Y102.517 E.05115
G1 X128.297 Y103.607 E.05116
G1 X128.877 Y105.5 E.06208
G1 X128.877 Y125.5 E.62709
G1 X128.483 Y127.083 E.05115
G1 X127.393 Y128.297 E.05116
G1 X125.5 Y128.877 E.06208
G1 X105.5 Y128.877 E.62709
G1 X103.917 Y128.483 E.05115
G1 X102.703 Y127.393 E.05116
G1 X102.123 Y125.5 E.06208
G1 X102.123 Y122.882 E.08209
; printing object xyzCalibration_cube.stl id:0 copy 0
G1 E-3.5 F3600
;WIPE_START
G1 F7200
G1 X102.123 Y122.822 E-.0285
G1 X102.123 Y119.724 E-1.4715
;WIPE_END
G1 X106.494 Y124.506 F9000
G1 E5 F2400
;TYPE:Perimeter
;WIDTH:0.439999
G1 X106.494 Y106.494 E.59471
G1 X124.506 Y106.494 E.59471
G1 X124.506 Y115.5 E.29735
G1 X124.506 Y124.506 E.29735
G1 X106.554 Y124.506 E.59273
G1 X106.097 Y124.903 F9000
G1 F2400
G1 X106.097 Y106.097 E.62092
G1 X124.903 Y106.097 E.62092
G1 X124.903 Y115.5 E.31046
G1 X124.903 Y124.903 E.31046
G1 X106.157 Y124.903 E.61894
G1 X105.71 Y125.29 F9000
;TYPE:External perimeter
;WIDTH:0.419999
G1 F1500
G1 X105.71 Y105.71 E.61392
G1 X125.29 Y105.71 E.61392
G1 X125.29 Y115.5 E.30696
G1 X125.29 Y125.29 E.30696
G1 X105.77 Y125.29 E.61203
G1 E-3.5 F3600
;WIPE_START
G1 F7200
G1 X105.71 Y125.29 E-.0285
G1 X105.71 Y122.192 E-1.4715
;WIPE_END
G1 X106.908 Y106.832 F9000
G1 E5 F2400
;TYPE:Solid infill
;WIDTH:0.53634
G1 X106.864 Y106.789 E.00252
G1 X106.804 Y106.804 E.00254
G1 X106.789 Y106.864 E.00254
G1 X106.832 Y106.908 E.00252
G1 X106.892 Y106.892 E.00255
;WIDTH:0.439999
G1 X106.8 Y107.526 E.02115
G1 X107.526 Y106.8 E.0339
G1 X108.087 Y106.8 E.01852
G1 X106.8 Y108.087 E.06009
G1 X106.8 Y108.649 E.01856
G1 X108.649 Y106.8 E.08634
G1 X109.211 Y106.8 E.01856
G1 X106.8 Y109.211 E.11258
G1 X106.8 Y109.772 E.01852
G1 X109.772 Y106.8 E.13877
G1 X110.334 Y106.8 E.01856
G1 X106.8 Y110.334 E.16501
G1 X106.8 Y110.895 E.01852
G1 X110.895 Y106.8 E.19121
G1 X111.457 Y106.8 E.01856
G1 X106.8 Y111.457 E.21745
G1 X106.8 Y112.018 E.01852
G1 X112.018 Y106.8 E.24365
G1 X112.58 Y106.8 E.01856
G1 X106.8 Y112.58 E.26989
G1 X106.8 Y113.141 E.01852
G1 X113.141 Y106.8 E.29608
G1 X113.703 Y106.8 E.01856
G1 X106.8 Y113.703 E.32232
G1 X106.8 Y114.265 E.01856
G1 X114.265 Y106.8 E.34857
G1 X114.826 Y106.8 E.01852
G1 X106.8 Y114.826 E.37476
G1 X106.8 Y115.388 E.01856
G1 X115.388 Y106.8 E.401
G1 X115.949 Y106.8 E.01852
G1 X106.8 Y115.949 E.4272
G1 X106.8 Y116.511 E.01856
G1 X116.511 Y106.8 E.45344
G1 X117.072 Y106.8 E.01852
G1 X106.8 Y117.072 E.47964
G1 X106.8 Y117.634 E.01856
G1 X117.634 Y106.8 E.50588
G1 X118.195 Y106.8 E.01852
G1 X106.8 Y118.195 E.53207
G1 X106.8 Y118.757 E.01856
G1 X118.757 Y106.8 E.55831
G1 X119.319 Y106.8 E.01856
G1 X106.8 Y119.319 E.58456
G1 X106.8 Y119.88 E.01852
G1 X119.88 Y106.8 E.61075
G1 X120.442 Y106.8 E.01856
G1 X106.8 Y120.442 E.63699
G1 X106.8 Y121.003 E.01852
G1 X121.003 Y106.8 E.66319
G1 X121.565 Y106.8 E.01856
G1 X106.8 Y121.565 E.68943
G1 X106.8 Y122.126 E.01852
G1 X122.126 Y106.8 E.71562
G1 X122.688 Y106.8 E.01856
G1 X106.8 Y122.688 E.74187
G1 X106.8 Y123.249 E.01852
G1 X123.249 Y106.8 E.76806
G1 X123.811 Y106.8 E.01856
G1 X106.8 Y123.811 E.7943
G1 X106.743 Y124.287 E.01583
;WIDTH:0.38292
G1 X106.672 Y124.268 E.00208
G1 X106.691 Y124.339 E.00208
G1 X106.732 Y124.328 E.0012
;WIDTH:0.41146
G1 X106.852 Y124.264 E.00417
;WIDTH:0.439999
G1 X106.972 Y124.2 E.00449
G1 X124.2 Y106.972 E.80443
G1 X124.264 Y106.852 E.00449
;WIDTH:0.41146
G1 X124.328 Y106.732 E.00417
;WIDTH:0.38292
G1 X124.287 Y106.743 E.0012
G1 X124.268 Y106.672 E.00208
G1 X124.339 Y106.691 E.00208
G1 X124.2 Y107.534 F9000
;WIDTH:0.439999
G1 F2400
G1 X107.534 Y124.2 E.77819
G1 X108.095 Y124.2 E.01852
G1 X124.2 Y108.096 E.75197
G1 X124.2 Y108.657 E.01852
G1 X108.657 Y124.2 E.72576
G1 X109.219 Y124.2 E.01856
G1 X124.2 Y109.219 E.69951
G1 X124.2 Y109.78 E.01852
G1 X109.78 Y124.2 E.67332
G1 X110.342 Y124.2 E.01856
G1 X124.2 Y110.342 E.64708
G1 X124.2 Y110.903 E.01852
G1 X110.903 Y124.2 E.62088
G1 X111.465 Y124.2 E.01856
G1 X124.2 Y111.465 E.59464
G1 X124.2 Y112.026 E.01852
G1 X112.026 Y124.2 E.56845
G1 X112.588 Y124.2 E.01856
G1 X124.2 Y112.588 E.5422
G1 X124.2 Y113.149 E.01852
G1 X113.149 Y124.2 E.51601
G1 X113.711 Y124.2 E.01856
G1 X124.2 Y113.711 E.48977
G1 X124.2 Y114.273 E.01856
G1 X114.273 Y124.2 E.46353
G1 X114.834 Y124.2 E.01852
G1 X124.2 Y114.834 E.43733
G1 X124.2 Y115.396 E.01856
G1 X115.396 Y124.2 E.41109
G1 X115.957 Y124.2 E.01852
G1 X124.2 Y115.957 E.38489
G1 X124.2 Y116.519 E.01856
G1 X116.519 Y124.2 E.35865
G1 X117.08 Y124.2 E.01852
G1 X124.2 Y117.08 E.33246
G1 X124.2 Y117.642 E.01856
G1 X117.642 Y124.2 E.30622
G1 X118.203 Y124.2 E.01852
G1 X124.2 Y118.203 E.28002
G1 X124.2 Y118.765 E.01856
G1 X118.765 Y124.2 E.25378
G1 X119.327 Y124.2 E.01856
G1 X124.2 Y119.327 E.22754
G1 X124.2 Y119.888 E.01852
G1 X119.888 Y124.2 E.20134
G1 X120.45 Y124.2 E.01856
G1 X124.2 Y120.45 E.1751
G1 X124.2 Y121.011 E.01852
G1 X121.011 Y124.2 E.14891
G1 X121.573 Y124.2 E.01856
G1 X124.2 Y121.573 E.12266
G1 X124.2 Y122.134 E.01852
G1 X122.134 Y124.2 E.09647
G1 X122.696 Y124.2 E.01856
G1 X124.2 Y122.696 E.07023
G1 X124.2 Y123.257 E.01852
G1 X123.257 Y124.2 E.04403
G1 X123.697 Y124.4 E.01596
;WIDTH:0.38292
G1 X123.656 Y124.411 E.0012
G1 X123.637 Y124.34 E.00208
G1 X123.708 Y124.359 E.00208
;WIDTH:0.41146
G1 X123.763 Y124.279 E.00298
;WIDTH:0.439999
G1 X123.819 Y124.2 E.0032
G1 X124.2 Y123.819 E.01779
; stop printing object xyzCalibration_cube.stl id:0 copy 0
;LAYER_CHANGE
;Z:0.6
;HEIGHT:0.2
;BEFORE_LAYER_CHANGE
G92 E0
;0.6


G1 E-3.5 F3600
;WIPE_START
G1 F7200
G1 X123.819 Y124.2 E-.25594
G1 X123.763 Y124.279 E-.046
;WIPE_END
G1 E-1.19806 F3600
G1 Z.6 F9000
;AFTER_LAYER_CHANGE
;0.6
; printing object xyzCalibration_cube.stl id:0 copy 0
G1 X124.506 Y124.506
G1 E5 F2400
;TYPE:Perimeter
G1 X106.494 Y124.506 E.59471
G1 X106.494 Y106.494 E.59471
G1 X124.506 Y106.494 E.59471
G1 X124.506 Y115.5 E.29735
G1 X124.506 Y124.446 E.29537
G1 X124.903 Y124.903 F9000
G1 F2400
G1 X106.097 Y124.903 E.62092
G1 X106.097 Y106.097 E.62092
G1 X124.903 Y106.097 E.62092
G1 X124.903 Y115.5 E.31046
G1 X124.903 Y124.843 E.30848
G1 X125.29 Y125.29 F9000
;TYPE:External perimeter
;WIDTH:0.419999
G1 F1500
G1 X105.71 Y125.29 E.61392
G1 X105.71 Y105.71 E.61392
G1 X125.29 Y105.71 E.61392
G1 X125.29 Y115.5 E.30696
G1 X125.29 Y125.23 E.30508
G1 E-3.5 F3600
;WIPE_START
G1 F7200
G1 X125.29 Y125.29 E-.0285
G1 X122.192 Y125.29 E-1.4715
;WIPE_END
G1 X106.832 Y124.092 F9000
G1 E5 F2400
;TYPE:Solid infill
;WIDTH:0.53634
G1 X106.789 Y124.136 E.00252
G1 X106.804 Y124.196 E.00254
G1 X106.864 Y124.212 E.00255
G1 X106.908 Y124.168 E.00255
G1 X106.892 Y124.108 E.00255
;WIDTH:0.439999
G1 X107.526 Y124.2 E.02115
G1 X106.8 Y123.474 E.0339
G1 X106.8 Y122.913 E.01852
G1 X108.087 Y124.2 E.06009
G1 X108.649 Y124.2 E.01856
G1 X106.8 Y122.351 E.08634
G1 X106.8 Y121.789 E.01856
G1 X109.211 Y124.2 E.11258
G1 X109.772 Y124.2 E.01852
G1 X106.8 Y121.228 E.13877
G1 X106.8 Y120.666 E.01856
G1 X110.334 Y124.2 E.16501
G1 X110.895 Y124.2 E.01852
G1 X106.8 Y120.105 E.19121
G1 X106.8 Y119.543 E.01856
G1 X111.457 Y124.2 E.21745
G1 X112.018 Y124.2 E.01852
G1 X106.8 Y118.982 E.24365
G1 X106.8 Y118.42 E.01856
G1 X112.58 Y124.2 E.26989
G1 X113.141 Y124.2 E.01852
G1 X106.8 Y117.859 E.29608
G1 X106.8 Y117.297 E.01856
G1 X113.703 Y124.2 E.32232
G1 X114.265 Y124.2 E.01856
G1 X106.8 Y116.735 E.34857
G1 X106.8 Y116.174 E.01852
G1 X114.826 Y124.2 E.37476
G1 X115.388 Y124.2 E.01856
G1 X106.8 Y115.612 E.401
G1 X106.8 Y115.051 E.01852
G1 X115.949 Y124.2 E.4272
G1 X116.511 Y124.2 E.01856
G1 X106.8 Y114.489 E.45344
G1 X106.8 Y113.928 E.01852
G1 X117.072 Y124.2 E.47964
G1 X117.634 Y124.2 E.01856
G1 X106.8 Y113.366 E.50588
G1 X106.8 Y112.805 E.01852
G1 X118.195 Y124.2 E.53207
G1 X118.757 Y124.2 E.01856
